/* XPM */
static char *_aca85ee216342e3bd71c3ec7b1646edyQytMp6ehXXTQKEH[] = {
/* columns rows colors chars-per-pixel */
"750 500 256 2 ",
"   c #080F30",
".  c #05183A",
"X  c #111E36",
"o  c #051D43",
"O  c #081B46",
"+  c #0F1C4A",
"@  c #281F4A",
"#  c #062346",
"$  c #092446",
"%  c #062549",
"&  c #092649",
"*  c #08294A",
"=  c #0C2A4D",
"-  c #152748",
";  c #112C4D",
":  c #14314E",
">  c #0D2D52",
",  c #092955",
"<  c #112E52",
"1  c #152C57",
"2  c #0E3154",
"3  c #0D325A",
"4  c #123255",
"5  c #1A3555",
"6  c #14355A",
"7  c #19365B",
"8  c #16395D",
"9  c #1A3A5D",
"0  c #2C324E",
"q  c #253959",
"w  c #0E3464",
"e  c #173963",
"r  c #1B3D62",
"t  c #233D64",
"y  c #333C64",
"u  c #46394A",
"i  c #2F455E",
"p  c #1E4165",
"a  c #1E426A",
"s  c #194469",
"d  c #1C4673",
"f  c #214265",
"g  c #23456B",
"h  c #2A4568",
"j  c #26496D",
"k  c #2A4A6E",
"l  c #354C6D",
"z  c #264A72",
"x  c #2A4D73",
"c  c #284A75",
"v  c #2D5176",
"b  c #2D537A",
"n  c #2A557B",
"m  c #375679",
"M  c #32557C",
"N  c #34597E",
"B  c #4A5671",
"V  c #605E6D",
"C  c #53647A",
"Z  c #89777A",
"A  c #2E5681",
"S  c #355B82",
"D  c #365A85",
"F  c #3A5D83",
"G  c #3C6185",
"H  c #386389",
"J  c #3D638B",
"K  c #2E689E",
"L  c #3D6892",
"P  c #445D84",
"I  c #42658B",
"U  c #46678A",
"Y  c #566A88",
"T  c #456B93",
"R  c #456A95",
"E  c #4A6D93",
"W  c #4C7398",
"Q  c #567090",
"!  c #52759B",
"~  c #56789A",
"^  c #6A7790",
"/  c #4D77A3",
"(  c #557BA3",
")  c #5B7DA3",
"_  c #637EA2",
"`  c #867A86",
"'  c #72849A",
"]  c #5D81A5",
"[  c #5985AB",
"{  c #5C84AB",
"}  c #5C88B2",
"|  c #6383A5",
" . c #6A86A7",
".. c #6385AA",
"X. c #648AAD",
"o. c #6C8BAC",
"O. c #788BA6",
"+. c #728DAC",
"@. c #7892AD",
"#. c #648CB3",
"$. c #658BB6",
"%. c #6B8EB2",
"&. c #718FB1",
"*. c #6C92B5",
"=. c #6893B9",
"-. c #6C94BA",
";. c #7393B4",
":. c #7B95B4",
">. c #7B99B6",
",. c #7396B9",
"<. c #749ABC",
"1. c #7C9BBB",
"2. c #799DBA",
"3. c #6D98C2",
"4. c #769CC2",
"5. c #7BA3C5",
"6. c #77ABD2",
"7. c #8D8C97",
"8. c #A89A9F",
"9. c #8E97AB",
"0. c #839AB5",
"q. c #899CB6",
"w. c #839DBB",
"e. c #99A4AD",
"r. c #85A1BE",
"t. c #8CA3B8",
"y. c #8CA2BC",
"u. c #93A4BC",
"i. c #98A6BB",
"p. c #9CAABE",
"a. c #AEADB5",
"s. c #A3ACBD",
"d. c #A9ABB9",
"f. c #B8B4BC",
"g. c #C9B8B9",
"h. c #E1BAB0",
"j. c #D4C3BC",
"k. c #EDCABD",
"l. c #84A3C2",
"z. c #84A1C4",
"x. c #8BA5C2",
"c. c #8BA9C7",
"v. c #94AAC3",
"b. c #94AAC5",
"n. c #9BACC3",
"m. c #9BB2C9",
"M. c #8CB1D2",
"N. c #98B7D5",
"B. c #9CBAD5",
"V. c #A3AEC2",
"C. c #AAAEC2",
"Z. c #B4AEC1",
"A. c #A4B2C4",
"S. c #ABB3C4",
"D. c #A3B4CA",
"F. c #A9B7CA",
"G. c #ADBBCD",
"H. c #B3B5C3",
"J. c #B9B6C3",
"K. c #B4B9C5",
"L. c #BBBAC5",
"P. c #B4BECD",
"I. c #BBBECB",
"U. c #A4BCD4",
"Y. c #ABBED3",
"T. c #A3BDD8",
"R. c #B3BFD1",
"E. c #B8BED2",
"W. c #C3BDC4",
"Q. c #C7BEC6",
"!. c #D3BEC2",
"~. c #9BC2DE",
"^. c #BCC3C7",
"/. c #B6C0CE",
"(. c #BCC1CE",
"). c #ADC1D6",
"_. c #A6C2DA",
"`. c #ADC3D9",
"'. c #B4C2D3",
"]. c #BBC4D3",
"[. c #B4C9D6",
"{. c #B5C9D6",
"}. c #BDC8D6",
"|. c #B3C5D9",
" X c #B2C5DA",
".X c #BAC7D9",
"XX c #B5C9DC",
"oX c #BCCADA",
"OX c #B5CEE3",
"+X c #C5C2C7",
"@X c #CCC2C6",
"#X c #C4C3CD",
"$X c #CBC5CC",
"%X c #CDC8CE",
"&X c #D4C4C6",
"*X c #DBC6C6",
"=X c #D5C9C6",
"-X c #DDC8C6",
";X c #D3C6CB",
":X c #DAC7C9",
">X c #D4C9CD",
",X c #DBCACB",
"<X c #DBD2CD",
"1X c #C3C5D2",
"2X c #CAC7D1",
"3X c #C4C9D5",
"4X c #CCCBD4",
"5X c #C3CCDA",
"6X c #CBCED9",
"7X c #D3CDD4",
"8X c #DACED2",
"9X c #D1CED8",
"0X c #C7D1DC",
"qX c #CCD1DC",
"wX c #D5D1D6",
"eX c #DCD2D5",
"rX c #D4D2DA",
"tX c #DBD4D9",
"yX c #DCD9DC",
"uX c #E2C7C4",
"iX c #E3CAC6",
"pX c #ECCDC5",
"aX c #E3CCCA",
"sX c #EBCEC9",
"dX c #F2CEC4",
"fX c #F3CFC6",
"gX c #E7D2CC",
"hX c #EDD1CB",
"jX c #F4D1C6",
"kX c #F9D4C6",
"lX c #F3D3C9",
"zX c #F9D6C9",
"xX c #F7DACA",
"cX c #FADCCC",
"vX c #E2CFD1",
"bX c #E3D4D5",
"nX c #E9D6D4",
"mX c #ECDAD6",
"MX c #E3D6D9",
"NX c #E4DADB",
"BX c #EBDBDA",
"VX c #F5DDD5",
"CX c #F7E2CB",
"ZX c #FBE1CF",
"AX c #EFE5DC",
"SX c #FCE2D1",
"DX c #F4E2DB",
"FX c #F9E6D8",
"GX c #C4D0E3",
"HX c #C9D5E4",
"JX c #D7DAE3",
"KX c #E4DDE2",
"LX c #D8E4ED",
"PX c #E8E5E6",
"IX c #F6EFE8",
"UX c #FAF9F8",
/* pixels */
"`.).).).).).).`. X).).).).`.`.).).U.U.U.).Y.).`. X`.`.`.). X X X X).).`. X). X X X).). X X).). X X`.).).).). X X X X X XXX X XXX X X).).'.). X X X X). X X).'. X X). X). X). X X X X X X X X X`.`. X X X X X X XXX X XXX X X X X X X X X X X X X X XXXXXXX X X X'. X X X X X X X X X X XXX X X X X X X).). X X'.'.'. X XXX X X X X X X X'. X X XXX XXX XXX XXX X X X X'.'. X X X'. X X'. X X X X X X X'. X X'.XXXX'. XXXXX'.'. XXX X X'.'. X XXX'. X X X X'. X X X XXX X'. X XXX X'.'.XXXX'.'. X'.'.XXXXXXXXXXXXXXXXXXXXXXXXXXXXXX XXXXXXX X XXXXXXX XXX X'. X'.'.'. X'.'.'.'.'.'.'.'.'. X'.'.'. X X X'. X'.'.'.XX XXX'.'. XXX X'.'.XXXXXXXX XXXXX XXXXX XXXXX X X'.). X X X X X X XXXXXXX X'.XXXX'.'.'.'.'.XXXXoX'.XXXXXX'.'.'.'.'.XX'.XX'.XXXX'.XXXX'.XX'.'.XXXX XXXXXXXXXoXXXoXXXXXXXXXXXXXXXXXXXXXXXXXXXXXXXoXXX'.XXXX'.XX'.'.'.'.'.'.XX'.XXXX'.'.'.XX'.XXXX'.XXXXXXXXXXXXXXXXXX'.XXXXXXXXXXXXXX'.'.XXXXXXXXXXXX'.XXXX XXXXX X XXX XXX'.XXXXXX'.XXXXXXXXXXXXXXXXXX'.'.'.XXXXXX'.'.XXXX'.'.XX'.'. X'. XXXXXXXXXXX'.XX X'.XX'.'.XXXX'.XX'.XXXX X XXX XXXXX X XXX X X XXXXX XXXXX X XXXXXXXXXXX X X XXXXXXXXXXX'.'.XXXXXXXXXXXX X XXX XXXXXXXXXXX X'.XXXX XXXXX XXXXXXXXXXXXXXXXXXX'. XXX X X X X'. X'. X XXX XXXXX XXXXX XXXXX XXXXX X'.XXXXXXXX XXXXXXX X XXXXX X XXXXXXXXXXXXXXXXXXX X XXX X X XXXXXXXXXXXXXXX X XXXXX X X X X X X XXX'. XXXXX X X XXX X XXX X X X X X XXX X XXXXX X X X X X X X X X X XXX XXX X X X X X X X X`. X X X XXX X X X X X X X X XXX X X X X X X XXX X X X X X X X X X X X X'.XX X X'.'. X X X X X X X'. X X X X X X X X'.). X",
").).).).).).).`.`.`.`.).`.`.`.`.`.`.`.).).`.`.).).`.`.).).).`. X).). X).).`.`. X`.`.`.).`. X X`.`.`.`.`. X`.). X X`. X`. X X X X X X X X X X X X X`. X X X X X`.`.`.`. X X X X X X X X`. X`.`. X X`.`.`.`.`. X`.`. X X X X X X X X X X`. X X X X X`. X X XXXXX X X X X X X X X X X X X X X X X X X X X X X XXX X X).). X X X`.). X`.`. X X`. X X X`. X X X X`. X X X X X X X X XXX X XXX X X X X X X X X X'.XX X XXXXX X X X X X X X X X X X X X X X X X X X X X X X X X X X XXX X'. X X XXX X XXX X X X XXX XXXXXXX X XXXXXXXXXXXXXXXXXXX X XXXXXXXXX X XXX X'. X'.'. X X'. X X X'. X'.'.). X X X X'.'. X X X'.'.'. X X X X X X X X X'. X'.XX X X'. X X X X X X X).`.). X X X X X X XXXXXXXXX XXXXXXX'.XX'.'.XX'.XXXXXXXXXX'.'. X X X'. X X X X X'. XXXXX XXX'. X X X XXX XXXXXXXXXXXXXXXXXXX XXX XXXXXXXXXXX XXXXXXX XXXXX'.XXXX'.XXXXXX'.XXXXXXXXXX X X X X XXX X X XXX XXXXXXXXXXXXXXXXXXX XXX X X'.XXXX XXXXXXXXXXXXXXXXX X X X X X X'.XXXXXX'. XXXXX XXXXX X XXX X X'. XXX'.'. X X X X X'.'.'.'. X X X X X X XXX X X X X X X'.'. X X X'. XXX X X XXX XXXXXXX XXX X X XXXXX X XXX X XXX XXXXX XXX X XXXXXXXXX XXX XXXXXXXXXXX X X X XXXXXXXXX XXX X XXXXX'. X X X XXX X'.XXXXXXXX X X XXX X X X X X X X XXX X XXX X XXX X XXX X X XXX X X X XXX X X X X X X X X X X X XXX X XXXXXXXXXXX XXXXX X X X X X XXX X XXX X X XXX X X X X X X X X X X X X X X X X X X X X X X X XXX X X X X X X X X X X X X X X X X X X X X X X X X X X X). X`. X X X X XXXXX X X X X X X X X X X X X X X X X X X X X X X`. X X X XXX X X X X X X X X'. X'. X X X X X X). X).).",
"`.`.`._.`.`.`.`.`.`.`.`.`.`.`.`.`. X`.`.`.`.`.`.).U.U.).`.).`.`.).`. X`.`.`.`.).).`. X`. X X X`.`.`.`.`.`.`. X`.`.`. X`. X X X X X X X X X X X X`.`. X`. X X`. X X X X`. XXX X X`. X X X X X X`. X X X`. X X`. X`.`. X`. X X X X X X X X X X X X X X X`. X X X XXX X X X X XXX X X X X X X X X X X X X X X X X X X`. X`. X`.`.`. X X X X X X X X X`. X X X).`. X X X X X X XXX X X X X X X X`. X X X X X X XXXXXXX XXX X X X X X X X X X X XXXXXXX X X X X X X X X X X X X X X X X XXX X X X X X X XXX XXX XXX X X X X XXXXXXXXX XXXXX XXXXXXXXX X XXX X X X X X X X X X X X X`. X X X). X X X X X X X X X X X X X). X X X X X X X X X X X XXX X).).`. X X X X X X X X`. X X X X X X X XXX XXXXX XXXXXXXXXXXXX X X X X XXX X X XXXXXXX X X X X X X X X XXXXXXXXXXX XXXXXXXXXXX X XXXXX XXXXXXXXXXXXXXX XXXXXXX XXXXXXXXXXXXXXX XXXXXXX XXXXXXXXXXXXXXX XXX X X X X XXX XXXXX X'.XX XXXXX X X XXXXXXXXXXXXXXX XXXXX XXXXXXX X X X X XXX X X XXXXXXX X X XXX XXX XXXXXXX XXX XXXXX X'. X X X X X'. X X X X X X X X X X X XXX X X X X XXX X X X X XXX X X X XXXXX X XXXXXXX X XXXXXXX XXX XXX XXXXXXXXXXXXXXXXXXXXXXXXXXX X XXXXXXXXXXXXXXXXX XXXXXXXXXXX X X X X XXX X X X X XXX XXXXX X X X X X XXX X X X X X X X X XXXXX X X X XXXXX X X XXXXX X X X X X X XXX X X X X XXX XXX XXX XXX XXXXXXXXXXXXXXX XXXXX X X X X X X X X X X X X X X X X X X X X X X X X X X X X X X X X X X X X X X X X X X X XXX X X X X X X X X X X X X XXX X X X X X X X X XXX X X X X X X X X X XXXXX X X X X X X X X X X X X X XXXXX X X X X X`.`. X X X X X X X X X`. X).). X).`.",
"`.)._.`.`._.`.).`.`.`.`.`.`.`.`.`.`.`.`.`.).).).).U.).`.U.).).).`.).`.`.`.).`.).`.).`.`.`.`.`.`.`.`.`.`.).`.`.`.`.`. X`.`.`. X`.`.`.`. X X`.`.`.`.`.`.`.`.`. X`. X X X`.`. X X`. X`.`.`.`. X X`.`. X X X`.`.`.`.`.`.`.`.`. X`. X X X`.`. X`. X`. X`. X`.`.`. X X X X X`. X X X X`.`.`.`.`.`. X`.`.`.`.`.`.`.`.`.`.`.`.`.`.`.`.`.`.`. X`.`.`.`. X X`.`. X X`.`. X X X X X X X X X X X`.).`. X X X X X X X X X X X X). X X X). X X X X X X X X X X X X`.`. X`. X X X X X X X X XXX X X X X X X X X X X X X X X X X X X X X X X X X X X X X X XXX X'. X X X).'. X X X'. X). X X'.`.`.`.).). X X X).`.`. X X).). X). X X). X X X X X X X X X X X X X X X X`. X X`.`.`. X X X X X X X X`.`. X X X X X X X X X X X X X X X X X X X X X X X X X X'. X X X X X'. X XXXXXXX X X X XXX X'.XX X X X X XXXXXXX XXX XXXXX X'. X'. X X X X X X X XXX X X X XXX X'. X X X XXX X X X X X X X X X X X XXXXX X X X X XXXXX X X X X X XXXXX'. X X X X X X X X X X X X X X X X X X X X XXX X X X XXX'.'.'.'. X).`.). XXX X X'.'. X'. X). X X X X X'. X X X X X'. X X X X X). X X X X X X X XXX XXXXX X X X X X X X X XXXXX X X X XXXXX X X X X XXX X XXXXX X X XXXXXXX X X X X). X X X X X X X X X X X X X`. X X X X X X X X X X X X X`. X X X X X X X X X X X X X X X X X X`. X X XXX X X X X X X XXX X X XXX X XXXXX XXX X X X X X X X`. X X X`.`. X X X X X`.`.`. X`. X X X`. X`. X X X X X X X X X X X X X X X X X X X X X X X X X X`.`. X X X`. X XXX X X X X X X`.`. X X`.`. X X XXX X X X X`.`.`. X`.`. X X X X X X X X X X`.`.`.`.`. X`.`. X X X X X X X X`.`.). X).). X",
"`._._.`.`.).U.).`.).`.`.`.).`.`.`.).`.`.).).).).).). X`.).).).).`.).).).).`. X X X`.`.`.).).`.`.`.`.`.`.`.`.`.`.`.`. X`.`.). X X X`.`.`.`.`. X`.`.`. X`. X`. X X`.`.`.`. X X`.`. X X X`. X X`. X X`.`.`.`.`. X X`.`. X X`.`. X`.`.`.`. X X`.`. X X X`.`.`.`. X X X`. X X X X X X`.`. X`.`.`.`. X X`.`.`.`.`.`.`.`.`. X).).`. X`. X`.`.).`.`. X X X`. X X X X X X X X X X`. X X X X X X X X). X X X X X X X X X'.'.). X X X X X). X X X X X X X).).). X X X).`. X X X X X X). X X X X`. X X X X X X X X X X X X X X XXX X X X X X X X X XXX X X'.`. X X X).). X X X).).). X'.'.'. X). X X X). X X X`.`.).).). X X X X). X X X X X X X X X X'. X X X X X X X X`.`. X`. X X X`. X X X`.). X X). X X X X X X X X X X X'. X X'.). X X X X X X X'. XXX X X X X X X X X'. X X'. X X X XXX XXX X X XXXXXXX X X XXXXX'. X X'. X X'. X X XXX X X XXX'. X X X XXX X'.'. XXXXX X X X X'. XXX X XXXXXXXXXXXXXXX X X X X XXXXX X XXX X). X X X X X X X X X X X X X X X X X'.'. X X X X X X X X'. X X'. X X X X X'. X'.'.'. X X X X X'. X X X X X).).'.'.'. X X X'. X X X'. XXX X XXX XXX XXX X X X X X X X X XXX X X X X XXX XXX X XXX X XXXXXXX XXXXX XXXXX X X XXX X X X X X X X X X X X X). X).`. X X X X X X X X X X X X X X X X X X X X X X X X XXX X X X X XXX X X`.`. XXX XXX X X X XXXXX X`. X X XXX XXX X X X X X X XXX X X X X`.`.`. X X X X`.`.`. X X`. X X`.). X X X`. X X X X X X X X`. X X X X X X X X X X X X X X X X X X X X`. X X X X X X X X X X X X X`. X X X`.`.`. X`. X`. X XXX`.`.`. X X X`.`. X X`.`.`.`.`.`. X X`. X X X).`.`. X X). X X`. X X). X",
"_.)._.U.).U.)._.).`.`.`.).).`.).`.).).).).).).U.).`.Y.`.).U.`.).).).`.).U.).`. X`.`.).`.`.).`.).).).).`. X X`.).`.).). X).).`.`.`.`.).).`.`.`.`.`.`. X`.`.`.`.`.`.).`.`.`. X X).`. X X`.).`. X`.`.`.`.U.`.).`. X X). X X`.`.`.`.`.`.`.`.`.`.`. X`. X`.`. X`. X X).`. X`. X X X`.`.`.`.`.`.`.`.`.`.`.`.).`.`.`.).`.).`.`.).).`. X`.).`.`. X`. X). X X X`. X X X`. X X`.). X`. X X X`. X`. X X'.'. X'. X).'. X'.'.).). X). X X X).). X X X X X X). X`.`. X`.).).).`. X X). X). X X).). X). X X'. X X X X). X X X XXXXX X X X X X X X X X X X'.'.'. X X X X'.'.'.'.'. X'.'.).'.'.).).).). X).Y.).).`.`.).).).).). X X X). X X X X).).).).).).). X X`.`.). X X). X`.).`.).).).).`.`. X). X).`.).).). X X).). X). X X X X X X).). X). X X X'. X'. XXX X'. X X X X'.'. X X X X'.'.XX X XXX'. X X X X X'.'. X X XXX'. X X X'.'. X'. X'.'. XXX X X X X'. X X X X).). X X X X X X X'. XXX'.'.XX X XXXXXXX X X'.'. X'. XXX X'. X X X X X X X X X'. X'.'.'. X X X X'.'. X X'.'. X'. X'.'.). X X'. X X'. X).).).).).'.'.). XXX'.).).'.'.'.'.).).).). X X X X X X'. X X'. X'. X X X X X X X X X X X X X X X X X X X X X X X X X X X X X X XXX X X X'. X X X). X X X X X X X X XY.Y. X X X X).`.). X`. X X X X).`. X X X X X`. X X X X X X X X X X X X X X X). X X X X X`. X`. X XXX X X`.XX X X X X X X XXX X`.`. X X X X X X X X X X`.`. X`.`. X X).`.). X`. X`. X X).). X X`.). X X X X X X X X X X X X X X X X X X X X X X X X X X X X X X X). X X X`. X X X X X X`.`. X`.).`. X`.`.`. X`. X X X X`.`. X`.`.`. X`. X X X X X`. X`.`. X X`.`.). X).).). X). X).). X).`.",
"_._.).U.)._.`.)._.`.`.).).).`.).).).).).`.).).).U.U.).U.).).`.).).).`.).).). X).).). X`.`.`.`.).).).).U.).).).`. X).). X`.`. X).`.`.`.).`.).`.`.`. X X`.`.). X`.`.`. X`. X`.`.`. X X X`.).`. X`.`.`.`.`. X`.`. X`.`. X`.).`. X`.`.`.`.`.`.`.`. X X`.`.`. X X X X).`. X X X X X X X X X`.`.`. X`.`.).).).`.`.).).`.).).).).).`.). X). X X X X X X X X X`. X X X`. X X`.`. X X X X X XXX X X X'.'.'. X X). X'. X X'. X X'. X X X X X). X X X X`. X X X X). X X).).).). X). X). X X). XXX X X X).'. X X X X X XXX X'.'. X X X X X X X X X'. X'. X XXX X X'. X'.'.'.`. X X). X'.'.'. X).).).).Y. XY. X'.). X X).'.'.).). X X X X X). X X X). X X X).`. X X'. X X X X X).).).).). X`.'.'.).). X).).). X X X'.). X X). X XXX X).). X). X X X X X'. X X'.'. X X X X X X X XXX X X XXX X XXX'. XXX X X'. X'. X X XXX'. XXX X X'. XXXXX'.'.'.XX X X'. X X X X X X'. X'.).'. X X X X X XXX'.'.XX X X'.XXXX XXX X X X X XXX X'. XXXXX X X X'. X X'.'. X'. XXXXX X'. X'.XX'.'.). X'.'.).'.). X X X).'.'. X'.).).'.'. X'. X X X).).). X). X'.'.'.'.). X X X X X X X). XXX X'. X X X X X X X XXX XXX X XXXXX X X X X X X X X X X XXX XXX X X X X X X XXXXX X XXX XXX XXX X XXX X).). X X X X'. X X X X X X X X).'. X X X X X X X X X X X X X X X X X X X X X X X XXX XXX X X X`.`.`.XX`. XXX X XXX X XXX XXX X).`.XX X X X X X X X X X`. X X`.`.`. X X`. X X`. X X X X).). X X).`. X). X X X X X XXX X XXX X X'. XXX X X X X X X X X X X X X X). X X). X X X X X X X X`. X X`.). X X X X X X X X XXX X X X X X X X X X X X X X X X X`.`. X X`.`. X X`.`.). X`. X).). X). X",
"_.U.).).`.).`.`.).).).).).).).`.`.U.).).U.`.).Y.).U.).).).).).).).U.).).`.U.).).).).`.).).).).`.).).).).Y.Y.).).).`.).).).). X'.).).`.`.). X).). X X`.`. X).`.`. X`. X X X). X`.`. X X).`.).).`. X).`. X X).).).).). X`.).). X).`.`.`.`.).).). X X). X X`. X X X X X X X X X). X X X X). X).`. X`.).).).). X).).).).).).).Y.).).).). X'.'.'. X'.'. X X).'.). X).).). X X X). X X X X X X'.).'.).'.'.'. X'. X X). X).`. X X). X X'. X). X).). X X).).).).`.).`.).).).`. X). X X).'. X X X X'. X'. X XXXXX XXXXX'.).'.XX'. XXX X X X X'.'.'.'. X X'. X). X X'.'.'. X).`. X'.).).'.).).).).).).).).).).'.).'.'.).).).). X'. X X X X X X X).'.'. X). X X'.).'.'.'. X'.'.'.Y.).'.'.'.'.Y.).).'.'.).'.'. X X). X).'. X'. X X'. X'.`. X X X X X'.'.'.'.). X X'. X X X X X X X X X X'. XXXXX). X X X X X X'. X XXX'.'. X X X X'.'. X X'.'.'. X X'.'. X X'.'. X'. X'. X X'.'. X X'.'.'.'.'.'. XXX X'.'. XXX XXX X X X X X X'. XXX'.XX X'.'.'. X X X'. X'. XXX X'.'.'.'.XX'.'.'. X X'.).'.'. X'.).'.'.'.'. X X X).'.).'. X).). X X).).'.'. X'.).'.'. X X X X X'.'.'. X X'.'. X X X X X XXX X XXX XXX X X X'.'. X X X X X X X X XXX X'. X X X'.XX X XXXXX X XXXXX X'.'. X'. X X X X X X X). X X XXX X). X X X). X X X). X X XXX X X X XXX`.). X X X X X X`. XXX X X X X X X X`. X X X X XXX X X X X XXX X`. X X X X`.). X). X`. X`. X`.`. X`.). X X`. X X X X X X). X`. X X X X X X X X X X X X X X X X X X X X X X X X X X X X X X'. X X X X'. X X X X X X X X X X X). X X X X X X X X X X X X X X X X X X X X X X X X X X X X X`. X X).). X X`. X X).). X).). X).).`.",
"U.U.).`. X).).`.).).`.`. X`.`.`.).`.`.U.`.`.).).`.).).).`.).`.`.).).).`. X`.U.`. X).`.`.).).).).).). X X).). X).).).).'.).).'.).).). X`.). X`.). X X). X X`.`.). X X X X`.). X`. X). X X X).).).).). X`.`.).).).`.U. X`.).).).`. X).).).).). X X`.).`. X`.). X X X X X X X X X`. X X X`. X).). X`.).).).).).'.).).).'.).).).).).).). X'.'.).).'. X X X).).). X X).). X X X X X`. X`. X).).). X).'.'. X).'.'.'. X X X X X).). X X X X`.).).). X). X). X).).). X`. X).`.`.).).'. X'. X X). X X X X X X X'.XX XXX X X XXX'. X X X X X X X'.'.'. X'.'.).). X X`.`.). X X'.'. X).).).).).).). X).).).).). X).).).).). X'. X X X'. X X X'. X X X). X X X'. X).'.). X X'.).'.'. X'. X).).).'. X'.'.'.'.'.).'.'. X'. X X'.). X'.XX X X X X X X X'. X'. X X XXX X X X X X X X X XXX X X'.XX X'. XXX'. X XXX X'.'. X X X X X XXX'. X X X X'.'. X X'.'. X X'.). X X X'. X X X'. X X X'.).'.XX XXX X X X X XXX XXXXX X X'.XX X'. X X'.'. X X X'. X X'.'. X XXX X'.'.'.). X'.'.'.XX'.'.'.).'. X). X).'.'.'.'. X'.'. X'.).).).).). X'. X).). X X).).'.'.'. X X X'.XX X'.'. X X X'. X X X XXX XXXXX X'. X X X X X X X X X X X X X X X X X'. X X X X X XXX X X'.XX X X).'.'. X'. X X X X X X'. X X X XXX'.). X XXX'. X X X'. X'. X X X XXX XXX X X XXX X X X X X X X`.`. X X X XXX XXX XXX XXX`.`.`.XX X X X X XXX X X X).`. X`. X`.`.). X`. X X`.). X X X X`.`. X`.`.`. X`. X`. X`. X X X X X XXX X X X X X X XXX X X X X X X X X X X XXX'. X X X X X X X X X X X`. XXX X). X X X X X X X X X X X X X X X X X X X X X X X`. X X X). X X X`.).). X X X X`.). X X X). X`.).`.",
"_.).).`.`.).`.).).U.).).).`.`.).).U.).U.).`. XY.`.`.).U.).).).).`.).U.`.`.).U.).`.`.).).).).).).).).).`.).).Y.).).U.).'.).). X).).).).`.). X).U.`.`.).`.`.`.`.`.).`. X`.`.`.`.`.`.`. X X`.`.).).).).).`.).U. X).).).).`.).).).).).`.).).).).). X).).). X`.).`.`.`.`. X X). X).). X).). X`.`. X'.).).).).).).Y.Y.).Y.).).Y.).).Y.).).). X).).).'.). X).). X X).).`.).).). X X`.).).`.).).`.).).).). X`.).).). X).`. X).).`.`.).`.`.).`.).).).). X`.`.).`.`.).).`.).).).).`.Y. XY.). X).). X). X X X'.'.'.'.'.'. XXX X'.'.'.'. X'.'.'.'.).'.'.'.'.'.).).`. X`.).). X).).).`.).).).).).).).).).`.).Y.).).).).Y. X). X X X X).). X X X X'. X X).'. X X X'.). X).'.'.'.).'.'.'.'.).).'.).). X).Y.'.'.'.).'.'.'.XXXX'.'.'. X'. X X X). X'.'.). X'. X'. X X X X X X X X X X X X X X X). X X X'. X X X'. X X X'. X X X X X'. X X'.'. X'. X). X'. X).'.XX X).). X X X X). X X X X X). X'. XXX X'. X X X X'. X XXX X'. X X X'.'. X'.'. X'. X'.'. X X'.'.'.'.'.'.'.'.).'.'.'.'.'.'.'.).'.).'.'.).). X).'.'.'.).'.'.'.'.'.).).).). X'.).'.'. X'.).).'.'.'.'.'.'. X X).'.XX'.'. X X X X X X X X X X'.'.).XX'.'.XX'.'.'.'. X'. X X'.'. X X`. X X X X X X X X X X'.'. X X).). X X). X X'.). X'.`. X X'.'.'.). X X X X). X X X). X X X`. X X XXX X`. X X`. X X`. X X).`. X`.`.`. X X`.XX`.XX`.`. X`.`. X).). X X X X X).`.).). X`.`.`.). X`.`. X`.).`.). X X`.`. X`.`.`.`. X`.).`. X X X X). X). X X). X X`. X X X X X). X`. X`.`.). X X X`.).`. X X`. X`.`.`. X X`.). X X`. X). X X X`. X`. X X X X X`. X`.`. X X X X X`.). X X`.`.`.).`.`.`.).`.`.`.).`.`.). X).).`.).`.`.",
"`.).`.).).). X).U.).).U.).Y.).).`.).`.).).).).).`.`.).).).).).U.).).`.`.).).).).).).).).).).).).).).).U.Y.U.).).).).).).U.).`.`.).).`.).`. X).).`.).).`.`.).`.`.).). X`.).`.`.).`.`.).U.).).).).).).).).).). X).).).).U.).).).).).).).).`.).).).).U. X`.`.).`.).`.). X`.`. X).). X).).).`.`.'.).).).).).'.).Y.Y.).U.).).U.).).).).U.).).).).'.).'.'.).).`. X X).`.).).). X`.).).).).`.).`.).).).`.`.`.U.).). X).).).).).`.).`.). X X`.).).U.`.`.).).U.`.`.).).).).).`.).).).'.Y. X X).). X'. X X).). X'. X).'.'.XX'.'.'.'.'.'.'.).'.'.'.'.'.'.'.'.'. X). X X`.).). X X). X X).). X).).).).). X).Y.Y. XY.).).'.).).).'.).).). X'. X X X X'.). X). X X X'. X'.'.'. X'.'.Y.'.`.).).'.).).).Y.Y.'.'.'.).'.'. X X'.'.'.'. X).'.'.'.'. X'.'.). X'. X X X'. X'. X X X X'. X X X`. X X'.'. XXX'. X X X X X X'.'. X X X'. X X X X).'. X X X X X X X). X X X). X). X X X X X X X X X X X). X X X X X X X X X X X'. X'. X X X'. X'.'.'. X X X'. X'.XX X'.'.'.'.XX'.'.'.'.'.'.'.'.).'.`. X).'.).).).'.'.'.).).).'.).).'.'.'.'.'.'.).).).'.). X'.'.).'.'.'.). X XXX'.'.'.XX'.'. X X'. X X X'. X XXX'.'.'.XX'.'.XXXX'.'.'. X'.'.'. X'. X X X'. X X XXX X'.XXXX X'. X X X'.`.'.). X X'. X'. X'. X).'.).'.'.'. X'.).'.). X X X). X X X`. X).XX X X X X`.`. X X). X X). XXX`.`.`. X`. X`. X`. X XXX`. X X`.`. X X X X X`. X). X X X`.`.`. X`. X`.`.`. X). X X`.`. X`. X`.`. X).).`.`. X X`. X X`. X`.). X X`. X`. X X`.).).`. X X X).`.).`.`.).). X`.`.).`.`. X`.`.).`. X`.).`.). X X X`.).`. X`.`.).`.`. X`.`.`. X X X`.`.). X X`.).`.).`.`.`.).`.`.).).`.`.`.`.).). X).`.`.",
").U.U.).U.U.`.`.U.).).).U.U.).).U.).`.`.).U.U.).).U.).U.).).).).).).).).U.U.`.U.Y.Y.).U.U.U.).).U.).).U.U.U.Y.U.U.U.U.).U.U.).`.).U.).).).`.).U.`.).U.`.`.).`.`.U.U._.).`.).U.`._.U.U.).).U.).).U.U.).U.Y.).`.`.).U.Y.U.).U.).U.Y.U.).).).).).U.U.U.).`.).).`.`.).).`.).).`.).U.`.U.U.`.).).).).).U.U.).).U.).Y.U.U.U.Y.Y.U.).U.).U.Y.U.).).).).).Y.).U.).).).).).U.).U.).).U.U.).U.).).Y.).).).).`.).U.).Y.).).Y.Y.U.`.Y.).`.`.).).).).).Y.U.).).Y.U.U.).).U.Y.).U.).).Y.).).).).).).).).). X'.).). X'.'.'.'.'.'.'.'.).'.'.'.'.).). X X).'.'.).'.'.).`.`. X).Y.`.).`.`.).Y.`.).`.`.).U.).Y.).Y.Y.Y.Y.Y.Y.Y.).'.Y.Y.).Y.).).).'.'. X X). X). X). X X).).). X X X X).).).).U.`.).).).).Y.).Y.Y.).).).'.Y.).'.Y.Y. X'.).'.).).'.).).).).).). X X X).).).). X). X'.'.'.).). X). X).'.). X X'. X X X X'. X'. X X X X X X X).'.). X X X X X). X).). X X).`.).`.`.`.`.`. X X`. X X X`. X).).). X'. X X X'. X'.'.). XXX X'. X'.'.'.'. X X).`.). X X'.'. X'.'.'. X).`. X).).).).'.).).'.).Y.).'.).).).).).).).).).).'.'.'.).).).).).).).).).'.'.'. X).Y.). X'.).'.'. X X X). X'.'. X X).'.'. X X X'.'.'.'.'.'.'.'.'.'.'.XX'.'.'. X X'.'. X'. XXX X).XX X).). X). X X X X X).'.'. X X). X'.).'.). X).). X).). X).). X).).`.).`.`.`.).`. X X).`.`.`. X`.).`.`.`.`.`.XXXX X`.`.`. X`.`.`. X`. X X).).).`. X).).`.`.).`.). X).U.). X`.).`.).`.`.`.`.`.).`.).`.`.`.).).`.).U.). X).). X`.`.`. X).).`.`.).).).`.`.`.).).).`. X`.).).).`._.`.).).`.).).`.).`.`.`.).`.`.).).`.).).`.`.).).).`.`.).).`.`.`.`.`.).`.`.`.`.`.).`. X`.U.).).`.).`.).`.U.).).`.).`.).).).).).).`.",
"U.U.U.).U.U.).`.).U.`.).).).).U.`.U.U.U.).U.U.U.`.).).).`.).).`.).U.`.).).).`.).).U.).U.U.).U.U.U.U.).).).U.`.`.`.U.).U.U.).`.U.).U.U.U._._._.).`._.U.U.U.U.U.U.U.U._.)._.U._.U.).).U.).).U.).).).U.).U.).Y._.`.).U.U.U.).U.).).U.U.).U.).U.).U.).U.`.).).).`.`.`.).`.`.).`.`.`.`.U.U.).).U.).).).U.).).).).U.U._.U.Y.U.Y.U.).U.).).U.U.).).).).).Y.U.).).U.).).).).).U.).).).U.).U.).).).`.`.Y.Y.U.).Y.).Y.).).Y.U.).).Y.).).Y.Y.Y.`.).Y.U.U.).).Y.).Y.).).).).).Y.U.).).).).Y.).U.).).).).`.).).). X). X'.).).'.).).).).).'.'.).Y.).).).'. X X X X`.). X`.`.).`.).`.).Y.). X`.`.).).).).Y.).).`.Y.).Y.'.Y.).'.Y.Y.'.'. X).). X X`.). X X X X). X).).).`.).`.).).).).).`.).`.).).).).).).U.).Y.).).).).Y.).).Y.`.).).).).). X). X).).).).). X X).).).). X).`. X X'.).). X).).'.'.).'.).).'. X X X'. X X X X X X X). X X X). X X X X X X X`.`.). X).`.`.).). X`.`.`.`.`. X X X X X).).`. X).`. X'.`. X X'.). X X X). X X X'. X X X).).). X'.).'. X'. X'. X`.'. X).).).).).).).'.).).).).).).Y.).'.).).'.).).).'.'.).'.).'.).'.'.).).'.'.'. X).).'.).'.).'.'. X).'.).'.). X X X). X X'.'.'.'. X'.'.).'.'.XX'. X X'.'.).'. X'.'.'. X'. X X X). X X).). X X X`.).).'.). X X).).'. X).).'.). X).). X).). X).`.`.).`.`.).`.`.`.).).`. X).).).`.`.).).`.`. X).`.`.`.`.`.).`.`.`.`.`.`. X`.`.).).).`.).).).`.).`.).`. X).).).).`.).).).`.`.`.).).).`.).`.`.).Y.).`.`.).`.`.).).`.`.`.`. X X X X X`.`.`. X`.`.`.`.).`.`. X`.`.`. X`.`.).`.).`.`.`.).`.`. X`.`.`.`.).`.).`.).`.`.`.).`.`.).).`.`.`.`.`.).).`.`.`.`.).`. X`.).`.`.`.`.`.`.).).`.`.`.).`. X X).`.).).`.",
"U.U.U.U.U.U.U.U.U.U.U.U.U.U.U.U.U.U.U.U.U.U.U.U._.U.).U.U.).).U.).U.U.U.).U.U.)._.U.U.U.U.U.U.U.U.U.U.U.U.U.U.`._.U.U.U.).U.U.U._.U._.U.U._._.U._._.U.U.).U.U.U._.U.U.U.U.).U.U.U.U._.U.U.).U.U.).U.U.U.U.U.U.).U.U.).U.U.).U.U.U.U.U.U.U.U.U.)._.).).U._.).).`._.U.`.U.`.U._.`.`.U.U.U.U.U.U.U.U.U.U.U.U.U.U.U.U.U.U.U.U.Y.U.U.U.U.).).).).).U.).U.).U.U.U.U.Y.).).U.U.).U.).U.).).).Y.).).).Y.U.U.Y.U.Y.Y.Y.Y.).Y.Y.Y.).Y.).Y.Y.Y.Y.Y.U.Y.).Y.).).U.).).Y.).Y.).).).U.U.Y.).U.Y.U.).U.).U.).).).`.). X).).).).).Y.Y.U.).).).'.U.U.).U.).Y.).).).Y.Y.Y.U.Y.Y.).Y.'.).Y.).Y.Y.'.Y.Y.).Y.).).).Y.).Y.).Y.).Y.). X).).).).). X X).).). X).`.`.).).).).).).).).).).).).).).).).).).).Y.).Y.Y.U.Y.U.Y.Y.Y.Y.).).).Y.U.).).U.).).).'.).`.).).).).).).).).).).).).).). X).).Y.).).).Y.).).).Y.).).).).).).).).).).'.).).).).).`.). X).Y.U.).).`.).).).).).).Y.`.).`. X X`. X).`. X X). X`. X).`. X X). X X X).).).). X).).).).).).).).).).).).).).).).`. X).).).).).).Y.).).).Y.).).Y.).).Y.).).Y.).).). X'.'.).).).).).).).).).).).).'.).).).).).).Y.'.).).).).).).).).).).).). X).).'. X).).'.'.'.).).).).).'.'.). X).).'.).). X'.).'.).'.). X). X). X).).).'.).).Y.).).). X).Y.'.). X).).).).).`.).).`.`.).`.).).)._.`.).`.`.U.`.).`.).).U.U.U.).U.).`.).).).).).).).).).).`.`.).).).`.).).).).).).).).).).).U.U.).).Y.).U.).U.).).).).).).).).).).).)._.U.).U.).).).`.)._.`.`.).).`.`.). X`.`.`.`.`.`.`.`.`.).`.).`.`. X).`. X X).`.).`.`.`.).`.`.`.`.`.).`.`.`.`.`.).`.`.`.`.`.`.`.).).`.`.`.`.).).U.`.`.`.`.`.`.`.`.`.).`.`.`.).`.).`.).).`. X`.`.).).).).).",
"U.U.U.U.U.U.U.U.U.U.U.U.U.U.).U.U.U.U.U._.U.U.U.U._.).U._.U.).).`.U.U.).`.U.).)._.U.U.U.).U._.U.U.U.U.U.U.U.U.U.U.U.U.U.).).`.).).`._.).).).`._.)._.U.).).U.).).).).).U.).U.).U.U.U.).).).U.U.U.U.U.).U.).U.U.U.).U.U.U.U.Y.Y.Y.U.U.U.Y.U.U.).U.).U.).).`.).)._.).)._.).).U.).U.U.).).U.).U.U.U.U.U.U.U.U.U.U.U.`.).Y.Y.U.Y.U.Y.U.U.).Y.U.Y.U.).).).).).).).U.U.U.).).U.).).).).).).).Y.U.U.`.).U.).).Y.Y.).Y.Y.'.Y.).Y.'.Y.'.).Y.Y.).Y.).Y.).Y.'.).Y.Y.Y.).).).).).Y.Y.Y.U.Y.Y.Y.Y.).Y.).).).).).).).).).).).).).).U.U.).).).).).).).).).).).).).Y.Y.Y.Y.Y.Y.Y.Y.Y.'.).'.Y.).).Y.).).Y.Y.Y.Y.Y.Y.Y.Y.Y.Y.Y.Y.Y.Y.Y.Y.Y.).Y.).).).).).).).). X).).). X).).).).).).).`.).).).).).Y.).).U.Y.Y.Y.Y.).U.).Y.).).).Y.).).).).).).).).).).).).).).).Y.).).).Y.).).).).).).'.Y.).'.Y.G.Y.'.).).).).).).).).).Y.).).'.).).).'.Y.).).).).Y.Y.).).).).'.).).).'.).'.'. X'. X X X).'.'.'.).).'. X).).).).).`.).'.).).'.).).).).).Y.).).).).).).'.).).).).).).).).Y.).). X).).).).).).).Y.Y.).).).Y.).).).).).Y.).).).).).).).Y.Y.Y.Y.).).Y.).Y.).Y.).).).).).).).).).).).).).).).).).).).). X X).).'.).'.).).).'.).'.).'.).).). X).'. X'.).).).'.'. X'.'.'.'.'.'.).).`. X).`.Y.'. X).). X). X).`.).`. X).).`.`.`.`.).U.`.).`.).).).).).).).).).).Y.U.).).).).).).).).).).).).`.).).).`.).).).).).).).).).).).Y.).U.).U.).).).U.).Y.).).).U.).).).).).).).).).).`.`.).).).).`.`.).).`.`.)._.`.`.).).`. X X X X X X).).'.'.).'.'. X).'.'. X'. X'.'.'.).'. X).).).`.).`.). X X X). X`. X`. X X`.). X). X).`.`.`.).`.).`.`.`.`.`.`.`.`.`.`.`.`. X X X).). X X`. X`. X).`.`.",
"U.U.U.).U.U.U.U.U.U.U.U.U.U.U.U.U.U.U.U.U.U.U.U.U.U.).U.U.).).U.).`.).U.U.).U.U.U.U.U.U.U.).).).).U.).U.U.U.U.U.U.U.U.U.Y.).).U.).U.).).).).)._.).U.).U.U.).U.U.U.Y.).U.U.).).U.U.Y.Y.U.U.U.).U.).U.U.).U.U.U.Y.U.Y.U.Y.Y.Y.Y.Y.Y.U.U.Y.U.Y.Y.Y.Y.U.).).).U.).U.Y.U.Y.U.).Y.U.U.U.U.U.Y.U.U.U.U.Y.U.U.U.U.Y.U.Y.U.Y.U.Y.Y.Y.U.Y.Y.Y.U.).).U.).U.).).).).).).).Y.).).).U.).).).).).Y.).Y.Y.).).Y. X).).Y.Y.Y.R.Y.Y.Y.).Y.R.Y.Y.Y.'.Y.).).'.Y.Y.Y.).).Y.Y.).Y.Y.Y.).Y.).Y.Y.Y.Y.Y.Y.Y.Y.Y.).).).).).).).).).).).).).U.).Y.Y.).).Y.'.Y.).).).).).).Y.).'.'.'.).).).).Y.).).Y.'.'.Y.'.Y.Y.Y.Y.Y.Y.Y.).Y.Y.Y.R.Y.Y.Y.).Y.Y.Y.Y.).).).'.).'.).).).).).'.). X).).).).).).).).).Y.).).Y.).Y.Y.Y.Y.Y.Y.Y.).U.).).).).).Y.).Y.).).).).).).).).).).).).).).).Y.).).).).).Y.).).Y.).'.Y.'.HXY.Y.).).).).).).).).).).).).).).).).).).Y.).).).).).Y.).).Y.).Y.).Y.).Y.Y.Y.).).).Y.).).'.).).).'.).).).Y.Y.).Y.).Y.).).).).'.).'.).).).Y.Y.).Y.).).).).'.).).).'.).).Y.Y.).).).).Y.).).).Y.).Y.Y.'.Y.Y.Y.Y.Y.Y.Y.Y.Y.Y.).Y.).).).).Y.Y.Y.Y.Y.Y.Y.Y.).Y.).Y.).).).).).Y.).U.U.).).Y.).).).Y.).).'.).).).).).).).'.).).).).'.).).).).`.).Y.'.'.Y.).). X'.'.'. X'.'.). X'. X'. X).).`.'.).).).).).).`.`.).`.).`.).).`.`.`.).).).`.).`.).).).).).).).Y.).).).).).).).).).Y.).).).).).).).).).).).).).).).).U.).).).).).).).).U.).).).Y.U.).).Y.U.U.U.U.).).).).).).).).).).).).).).).)._.).).`.`.).`.).).).`.).`.`.'.).).'.'.).).).'.).).).'.).).'.'.'.'.).'.).).'.).).).).).).). X).).). X).).`.).).).).).).).).`.`.).).).).).).).`.).).).`.).).`.`. X).`. X).).`.).).).).).`.",
"U.U.).).U.Y.U.).).Y.U.Y.U.U.U.U.).U.).Y.).U.`.U.).U.).).).).).Y.). X).).`.U.).).U.).).Y.Y.Y.Y.Y.Y.Y.).Y.).Y.Y.).).Y.).).).U.Y.).).).).).).).).).).).).).).Y.U.).).).).Y.).Y.Y.).).U.).).).).).).).).).).).).).).).U.Y.Y.Y.Y.Y.Y.).Y.).).).).).).).).'.).).).).).).Y.).'.).).).).).).).).).).).).).Y.).).).Y.).Y.Y.Y.Y.Y.Y.Y.Y.Y.).Y.).'.).).).).).).).).Y.Y.Y.).'.).).).).).).).'.).).).'.).).'.'.'.).'.).).'.Y.'.'.Y.G.Y.Y.).Y.'.Y.'.'.'.Y.Y.Y.'.Y.).).'.).).).'.'.'.Y.).Y.Y.).).Y.Y.).'.'.'.).'.'.'.'.'.'.'.'.'.'.'.Y.).).).).'.'.).).).).).Y.Y.Y.Y.Y.Y.Y.G.G.Y.Y.).).).'.'.'.).Y.'.'.'.'.'.'.'.'.).'.'.'.'.'.).'.'.'.'.).'.'.'.'.'.'. X'.'.).'.).).).).).'.'.).).'.'.'.).'.'.'.).).).Y.Y.).Y.).).Y.Y.).Y.Y.).).).'.'.'.'.'.'.'.'.'.'.'.'.'.'.'.'.'.'.'.).).).'.'.).'. XY.G.GX'.'.'.).).).'.'.'.'.'.'.'.'.'.'.'.).).).).'.'.'.'.'.'.).).Y.).).).Y.'.'.'.).).'.'.'.'.'.'.'.'.'. X'.'.'.'.'.'.'.'.'.'.'.'.'.'.'.'.'.'.R.'.Y.R.'.'.Y.Y.).'.Y.).'.'.'.'.).'.).'.).).Y.).).Y.Y.Y.Y.).).Y.Y.).Y.).).'.).Y.).'.).).'.'.).).).).).).).).Y.Y.).'.Y.).).).).'.Y.).).).).'.).).'.).).'.).'. X`.Y. X).).). X'.).).'.).).'.).Y. X).Y.'.).). X'. X'.'. X X X'.'. X'.'.R.'.'.).).'.'. X).).).'.).).Y.Y.Y.).Y.).Y.).).).).).Y.).Y.Y.).).).).).).Y.).Y.).Y.Y.Y.).Y.Y.).).Y.).).).Y.).).).).).Y.).).).Y.Y.Y.Y.Y.).Y.U.).).Y.Y.Y.Y.Y.Y.Y.Y.G.Y.Y.Y.Y.Y.Y.).Y.Y.Y.Y.Y.).Y.Y.Y.Y.Y.).Y.).).).).).).).).'.'.'.).).).).).'.).'.).).).'.).).Y.Y.).).Y.).).).'.'.).).).).).).Y.).Y.).).).).).).).).).).'.).).Y.).).).).).).).).).).).`.`.).).).).).).Y.).Y.).).).).).).).).).Y.Y.).",
"Y.Y.U.).Y.Y.Y.Y.U.U.Y.Y.Y.Y.Y.Y.).).Y.Y.).).Y.Y.).Y.Y.).).Y.).).).Y.Y.).).).).).).).).Y.Y.Y.Y.Y.Y.G.Y.).Y.Y.).Y.Y.'.R.).Y.Y.).).'.'.).).).).).).).).).).).Y.Y.Y.Y.Y.Y.Y.Y.Y.Y.Y.).).).Y.).Y.).Y.).).).Y.).Y.).).).).).Y.Y.).Y.Y.).Y.).).).).'.'.'.).).'.'.'.'.'.).).'.).).Y.).'.).'.'.Y.).'.'.).).'.Y.).Y.Y.Y.Y.G.G.Y.Y.Y.Y.Y.Y.Y.Y.'.Y.'.'.'.).).).'.).'.Y.Y.'.'.'.'.Y.'.).'.'.'.).'.Y.Y.'.'.Y.Y.).'.Y.'.'.'.'.'.R.).Y.'.).Y.).Y.'.'.'.'.G.).Y.).Y.Y.'.'.'.).).'.'.).Y.).Y.'.Y.'.'.'.Y.'.'.'.'.'.'.'.'.'.'.'.'.'.'.'.'.).Y.'.'.'.'.'.Y.Y.'.'.'.'.'.'.'.'.'.'.).'.'.Y.Y.'.Y.Y.'.'.'.'.'.'.'.'.'.'.'.'.).'.'.'.'.G.'.'.).'.'.'.'.'.'.'.'.'.'.'.'.'.'.'.'.'.'.'.'.'.'.'.'.'.Y.'.'.'.'.'.Y.'.Y.Y.Y.Y.Y.Y.Y.R.Y.'.Y.'.'.Y.'.'.'.'.'.'.'.'.'.'.'.'.'.'.'.'.'.).'.'.'.'.'.'.).'.'.R.G.'.'.).).'.'.'.'.'.'.'.'.'./.'.'.'.'.'.).'.'.'.'.'.'.'.'.'.'.'.'.'.'.'.'.'.'.'.'.'.'.'.'.'.'.XX'.'.'.'.'.'.'.'.'.'.'.'.'.'.'.'.'.'.'.'.'.'.'.'.'.'.'.'.'.'.'.'.R.'.'.'.R.'.'.'.'.Y.'.'.Y.'.'.'.'.'.'.'.'.'.'.'.'.'.'.'.).'.'.'.'.'.'.'.).).'.).).).Y.'.).'.'.Y.Y.'.Y.).'.'.'.'.Y.'.'.'.).'.'.'.).). X).).'.'.'.).'.'.'.).'.'.'.'.'.'.).'.'.'.'.'.'. X'.'. X'. X'.'.'.'.5XHX5XP.'.'.Y.'.'.'.).'.).'.'.'.).).).).).Y.).).Y.).).).).Y.Y.).).).).'.Y.Y.).).Y.Y.Y.).).Y.Y.).).).).).).).).).).).).).).).).).Y.Y.Y.Y.Y.G.G.Y.Y.Y.Y.G.G.G.Y.G.Y.Y.Y.).Y.).).).).).).).).).).).).).Y.'.).).).Y.Y.).).).G.).).'.'.'.'.'.'.'.'.'.'.).).'.).).'.).).).).).).).).).).).'.).Y.'.Y.).'.Y.).'.).'.).).'.'.).'.).).).).).).).Y.).).Y.'.).).).).).).).).).'.).).).).'.'.'.'.'.'.). X'.).).).U.",
"U.Y.Y.Y.Y.Y.).Y.Y.Y.Y.Y.Y.Y.).).Y.Y.Y.Y.).G.Y.G.Y.Y.Y.Y.).).'.'.).Y.).Y.).Y.Y.Y.).Y.Y.G.G.Y.).Y.G.G.).Y.Y.G.G.Y.).G.Y.Y.Y.Y.'.).'.Y.).).).).).Y.Y.Y.'.).Y.Y.'.Y.'.Y.).).Y.).).Y.).Y.Y.G.Y.).'.).).Y.Y.).Y.).'.'.'.Y.).).Y.Y.Y.G.G.G.Y.Y.).'.'.'.).G.).).).).'.'.'.'.).G.G.G.'.'.G.G.'.'.Y.G.'.G.Y.R.R.G.G.G.'.'.G.G.'.R.Y.Y.R.Y.Y.R.'.'.'.'.'.'.'.'.'.'.'.'.'.R.'.'.'.'.'.'.'.'.'.'.'.R.'.Y.R.'.'.Y.).).'.'.'.'.).).'.'.'.'.'.'.'.'.'.'.'.'.'.'.'./.'.Y.'.'.'.'.'.'.'.Y.).'.'.'.'.'.).).'.'.'.'.'.'.'.'.'.'.'.'.'.'.'./.'.'.'./.'.'.'.).).'.'.'.'.'.'.'.'.'.'.'.'.Y.Y.G.'.G.'.Y.'.'.'.G.).'.'.).'.).).G.).).'.).G.'.'.'.'.'.'.'.'.).'.Y.'.'.'.'.'.'.XX'.'.'.'.'.'.'.'.'.'.'.'.'.'.'.'.'.'.'.'.'.R.'.'.'.'.'.'.'.'.'.'.R.'.'.'.'.'.'.'.'.'.'.'.'.'.'.'.'.'.'.'.'.'.'.'.'.'.'.'.'.'.'.'.'.'.'.'.'.'.'.'.'.'.'.'.'.'.'.'.'.'.'.'./.'.'.'.'.'.'.'.'.'.'.'.'.'.'.'.'.'.'.'.'.'.'.'.'.'.'.'.'.'.R.'.R.'.'.'.'.'.'.'.'.'.'.'.'.'.'.'.'.'.'.'.'.'.'.'.'.'.'.'.'.'.'.'.'.'.'.'.'.'.'.'.'.'.'.'.'.'.'.'.'.'.'.'.'.'.'.'.'.'.'.'.'.'.'.'.'.'.'.'.'.'.'.'.'.'.'.'.'.'.'.'.'.'.'.'.'.'.'.'.'.'.XX'.'.'.XX'.'.'.'.'.'.'.'.'.'.'.'.'.'.'.'.'.'.'.'.'.'.'. XXX'.'.'.oXPXUXUX5XR.'.'.'.'.'.'.'.'.'.'.'.'.'.'.'.'.'.'.'.'.'.'.'.'.'.'.'.'.'.'.'.'.'.'.'.'.'.'.'.'.'.).'.'.'.'.'.'.'.'.'.'.'.'.'.'.'.'.'.'.'.'.'.'.'.'.'.'.'.'.'.'.'.).).).'.'.'.'.'.'.'.'.'.'.'.'.'.'.'.'.'.'.'.'.'.'.).).'.'.'.'.XX'.'.'.'.'.'.'.'.'.'.'.'.'.'.'.'.XX'.).'.'.'.'.'.'.'.).'.'.'.'.'.'.'.'.'.'.'.'.'.'.'.'.'.'.'.'.'.'.'.'.'.'.'.'.'.'.'.'.'.'.'.'.'.'.'.'. X X'.'.'.'.XX'. X X X X X'.'.'.'.`.",
"Y.Y.Y.Y.Y.Y.Y.Y.Y.Y.Y.Y.Y.Y.Y.).Y.G.Y.R.Y.Y.Y.Y.).Y.Y.Y.).).Y.'.Y.Y.Y.Y.Y.Y.).Y.Y.Y.Y.G.Y.G.Y.Y.Y.G.G.Y.G.G.Y.G.G.Y.G.G.R.Y.R.'.'.Y.Y.Y.'.Y.Y.Y.Y.Y.Y.Y.Y.Y.G.Y.Y.'.Y.G.Y.Y.Y.Y.G.G.G.G.'.R.'.'.'.'.'.Y.Y.Y.Y.'.P.G.Y.Y.Y.Y.G.G.'.'.'.R.).'.).).).G.).G.).).'.'.'.'.'.G.Y.G.R.'.G.G.R.'.R.R.R.'.'.R.'.G.G.R.'.R.R.G.G.R.G.G.R.G.R.R.R.R.'.R.'.R.'.'.R.'.R.'.R.R.P.P.'.'.'.'.'.'.'.R.'.'.'.'.'.'.'.G.).).'.'.'.'.'.).'.'.'.'.'./.'.R.'.G.P.P.'.'.'.G.'.'.'.'.'.'.'.P.G.G.R.Y.Y.R.R.Y.'.R.R.'.'.R.'.'.'.'.'.'.'.'.'.R.P.G.P.P././.'.'.'.G.P.'./././.G.G.G.G.G.G.G.G.G.).Y.Y.'.G.G.'.'.G.G.R.P.'.'.'./.G.G.G.G.'.G.G.G.).G.).G.'.'.'.'.'.'.'.'.'.'.'.'.'.'.'.'.'.'.'.'.'.'.'.'.'.'.'.R.'.R.R.'.'.R.'.R.R.'.R.R.'.'.'.'.'.'.'.'.'.'.'.'.'.'.).Y.'.'.'.'.'.Y.).).'.'.'.'.'.'.R.Y.'.'.'.P.'.R.R.P.R.R.'.'.'.'.'./.'.'./.P.'.'.Y.'./.G.G.G.'.'./.P.'.'.'.P.'.'.'.R.'.'.'.'.'.'.'.'.'.'.'.'.'.'.'.R.R.'.'.R.'.'.'.'.'.'.'.'.'.R.R.R.'.R.'.R.'.'.'.P.'.'.'.'.'.P.'.'.'.'.'.'.'.'.'.R.'.'.'.'.'.R.R.R.'.R.'.'.'.'.'.'.P.'.'./.'.'.'.'.'./.'.'.'.'.'.P.P.'.'.'.).).'.'.'.'.'.'.G.'.'.'.'.'.'.'.'.'.'.'.'.'.'.'.'.'.'.'.'.'.'.P.'.R.'.'.'.'.'.'.'.'.'.'.'.'.'.'.oXLXUXUX}.'.'.'.'.'.'.'.'.'.'.'.'.'.'.'.'.R.'.P.'.'.'.'.'.'.'.'.Y.'.'.Y.'.'.'.'.'.Y.'.Y.'.'.G.G.'.'.'.).'.'.'.'.'.'.'.'.'.'.'.'.'.'.'.'.'.R.'.'.'.'.'.P.'.'.'.G.).G.).Y.).Y.'.Y.).'.'.).'.'.'.'.'.R.'.'.'.'.'.G.).'.'.'.'.'.XXXX'.'.'.'.'.'.'.'.'.).'.).'.'.'.'.).).'.'.'.'.'.'.).'.'.'.'.'.'.'.'.'.'.'.'.'.'.'.'.'.'.'.'.'.'.'.'.'.'.'.'.'.'.).).'.'.).'.'.'.).'.'.'.'.'.).'.'.'.'.'.).).'.).).).Y.).).",
").Y.Y.).'.).).).).).'.'.).'.'.'.'.Y.'.'.'.'.'.'.'.'.'.).'.'.'.'.'.'.'.).'.'.'.'.'.Y.Y.'.'.'.'.'.'.Y.).'.Y.Y.'.R.'.R.R.'.'.R.'.'.'.R.Y.'.'.'.'.'.'.R.Y.'.'.G.R.'.P.'.'.Y.'.Y.R.'.G.'.'.'.'.'.'.'.'.'.'.'.'.'.'.'./.'.'.'.'.'.'.'.'.'.'.'.'.'.'.'.'.'.'.'.'.'.'.'.'.'.'.'.'.P.'.'.'.'.'.'.'.'.'.R.'.'.'.R.'.G.'.R.'.P.'.P.R.P.R.'.'.R.R.R.R.R.R.'.'.R.'.R.R.R.'.R.R.R.'.R.'.'.'.'.'.'.'.'.'.'.'.'.'.'.'.Y.'.'.'.'.'.'.'.'.'.'.'.'.'./.)././.G.'.'.'.'.'.'.'.'.'.'./.P.P.P.'.P.R.R.R.R.'.R.'.'.'.'.'.'.'.'.'.'.'.'.'.R.P./.'.P././.'././.P.'.'.'.'.'.P.P.P.'.P.R.R.R.R.'.P.'.'.'.'.'.P./.'.'./.'.'.'.'././././.'.'.'./.'./.'.'.'.'.'.'./.'.'.'.'.'.'.'.'.'.'.'.'.'.'.'.'.'.'.'.'.'.'.'.'.'.'.'.R.'.'.P.'.R.R.R.'.'.'.'.'.'.'.'.'.'.'.'.'.'.'.'.'.'.'.'./.)././.'.'.'./.'.'.'.'.'.'.'.'.'./.'././.'.'.'.'.'.'.'.'.'./.P./.P.'.P.R./.'.G./.P./.P.'.'./.P.'.'.'.'.'.'.'.'.'./.'.'.'.'.'.'.'.'.'.'.'.'.'.'.'.'.5X}.R.'.'.'.'.'.'.'.'.'.'./././.'./.'.'.'.'.'././././.'.'.'././././.'.R.'.R.'.R.'.R.'.'.'.'.'.P.'.'.P.'.'.'.'.P./.P././.'.'./.P./.P.'.P.'./.'.'.'.'.'.R.'.'.G.'.'.'.'./.'.'.'.'.'.'.'.'.'.'.'.'.'./.'./.'./.'.'.'.'.'.'.'.'.'.'.'.'.'.'.'.'.'.{.5X5X'.'.'.'.'.'.'.'.'.'.'.'.'.'.'.'.R.'.'.R.'.'.'.'.'.'.'.'.'.'.'.'.'.'.'.Y.).Y.Y.Y.'.P.R.R.'.G.'.Y.'.'.'.'.'.'.'.'.'.'.'.'.'.R.P.G.G.P.P.G./.P.P.P.R.G./.G.Y.'.'.).).'.'.).).).'.'.'.'.'.).).'.'.'.'.'.'.).'.).'.'.'.'.'.'.'.'.'.'.'.'.'.'.).'.'.'.'.'.'.'.).'.'.'.'.'.'.'.'.'.'.'.'.'.XX'.'.'.'.'.'.'.'.'.'.'.'.'.'.'.'.'.'.'.'.'.).).'.'.'.'.'.'.'.'.'.'.'.'.'.).).'.'.'.'.'.'.).'.'.).Y.).).'.).",
").Y.'.).'.'.'.Y.).'.'.'.'.'.'.'.'.'.'.'.'.).'.'.'.'.'.).'.'.'.'.'.'.'.'.'.'.'.'.'.Y.'.R.'.'.'.Y.'.'.'.R.'.R.'.'.R.R.'.R.'.'.'.'.'.R.'.'.'.'.'.'.'.'.'.R.R.'.P.G.'.R.'.'.Y.'.'.P.'.P.'.'.'.'.'.'.'.'.'.'.'.'.'.'.'.'.'.'.'.'.'.'.'.'.'.'.'.'.'.'.'.'.'.'.'.'.'.'.'.'.'.'.'.'.'.'.'.'.'.'.'.'.'.P./.'.'.G.P.G.R.'.G.R.P.P.R.R.'.R.'.'.'.R.'.'.'.'.'.'.R.R.'.'.'.'.'.'.'.'.'.'.'.'.'.'.'.'.'.'.'.R.'.'.'.'.'.'.'.'.'.'.'./.'.'.'.'.'././.P.P.P./.P././.'.'.'.'.'.'.'.'.'.R.'.'.'.'.'.'.R.R.'.'.'./.'.'.'.R.]./.R.'.'.'.'.'.'.'././.'.'.'././.'.'.'.'.R.'.'.'.'.'.R.'.'.R./.'.'.'.'.'.'.'.'.'.'.'.'.'.'.'.'./.'.'.'.'.'.'.'.'.'.'.'.'.'.'.'.'.'.'.'.'.'.'.'.'.'.'.'.'.'.'.'.'.'.'.'.'.'.'.R.'.P.R.P.R.R.P.R.'.R.R.'.'.'.'.'.'.'.'.'.'.'.'.'.'.'.'.'.'.'.'.'.'.'.'././.'.'./.'.'.'.'.'.'.'.'.'.'.'.'.'.'.'.'.'.'.'.'.'.'.'.'.'.'.'.'.'.'.'.'.'.'.'.'.'.'.'.'.'.'.'.'.'.'.'.'.'.'.'.'.'.'.'.'.{.'.'.'.'.'.'.'.LXLXP.{.'.'.'.'.'.'.'.'.'.'.'./.'.'.'.'.'.'.'./.'./.'.'.'.'././.'.'.'.'.'.'.'.'.'.'.].'.'.'.'.'.'.'.'.'.'.'.'.'.'.'.'.'.'.'.'./.'.'.'.'.'.'.'.'.'.'.'.'.'.'.'.'.'.'.'.'.'.'.'.'.'.'.'.'.'.'.'.'.'.'.'.'.'.'.'.'.'.'.'.'.'.'.'.'.'.R.'.'.'.'.'.'.'.'.].'.'.'.'.'.'.'.'.'.'.'.'.'.'.'.'.'.'.'.'.'.'.'.'.'.'.'.'.'.'.'.'.'.'.'.'.'.'.'.'.'.'.'.'.'.'.'.'.'.'.'.'.'.'.'.'.'.'.'.'.'.'.'.'.'.'.'.'.'.'.'.'.'.'.'.'.'.'.'.'.'.'.'.'.).'.'.'.'.'.'.'.'.'.'.'.'.'.'.'.'.'.'.'.'.'.'.'.'.'.'.'.'.'.'.'.'.'.'.'.'.'.'.'.'.'.'.'.'.'.'.'.'.'.R.'.'.'.'.'.'.'.'.'.'.'.'.'.'.'.'.'.'.'.'.'.'.'.'.'.'.'.'.'.'.'.'.'.'.'.'.'.'.'.'.'.'.'. X'.'.'.'.'.'.'.'.'.Y.).).",
"Y.).'.Y.).).).).'.'.'.'.'.'.'.'.'.'.'.'.'.'.'.'.'.'.'.'.'.'.'.'.'.'.'.'.'.'.'.'.'.'.'.'.'.'.'.'.'.'.'.'.'.'.'.'.R.'.'.'.'.'.'.'.'.'.'.'.'.'.'.'.'.'.'.R.'.R.{.'.'.P.'.'.'.R.'.'.'.'.'.'.'.'.'.'.'.'.'.'.'.'.'.'.'.'.'.'.'.'.'.'.'.'.'.'.'.'.'.'.'.'.'.'.'.'.'.'.'.'.'.'.'.'.'.'.'.'.'.'.'.'.'.'.'.'.'.G.G.P.'.G.R.P.R.R.R.R.'.'.'.R.'.'.'.'.'.'.'.'.'.'.'.'.'.'.'.'.'.'.'.'.'.'.'.'.'.'.'.'.'.'.'.'.'.'.'.'.'.'.'.'.'.'.'.'.'.'.'.'.'./././.'.'.'./.'.'.'.'.'.'.'.'.'.'.'.'.'.'.'.'.'.'.].'.P.].].P.].'.P.'.'.'.'.'.'.'.'.'.'.'.'.'.'./.'.'.'./.'.'.'.'.'.'.'.'.'.P.'.P.'.'.'.'.'.'.'.'.'.'.'.'.'.'.'.'.'.'.'.'.'.'.'.'.'.'.'.'.'.'.'.'.'.'.'.'.'.'.'.'.'.'.'.'.'.'.{.].'.'.'.'.'.'.'.'.'.'.'.R.'.'.'.'.'.'.'.'.'.'.'.'.'.'.'.'.{.].{.'.'.'.'.'.'.'.'.'.'.'.'.'.'.'.'.'.'.'.'.'.'.'.'.'.'.'.'.'.'.'.'.'.'.'.'.'.'.'.{.'.'.'.'.'.'.'.'.'.'.'.'.'.'.'.'.'.'.'.'.'.'.'.'.'.'.'.'.'.'.'.'.'.{.{.{.{.'.'.{.'.HX5X/.].{.'.'.'.'.'.'.'.'.'.'.'.'.'.'.'.'.'.'.'.'.].].].'.]././.].{.{.'.'.'.].'.].].'.].'.'.'.'.].].'.'.{.'.'.'.'.'.'.'.'.'.'.'.'.'.'.'.'.'.'.'.'.'.'.'.'.'.'.'.'.'.'.'.'.'.'.'.'.{.'.'.'.'.{.'.'.'.'.'.'.'.'.'.'.'.'.'.'.'.'.'.'.'.'.'.'.'.'.'.'.{.{.'.'.'.{.'.'.'.'.'.'.'.'.'.'.'.'.'.'.'.'.'.'.'.'.'.'.'.'.'.'.'.'.'.'.'.'.'.'.'.'.'.'.'.'.'.'.'.'.'.'.'.'.'.'.'.'.'.'.'.'.'.'.'.'.'.'.'.'.'.'.'.'.'.'.'.'.'.'.'.'.'.'.'.'.'.'.'.'.'.'.'.'.'.'.'.'.'.'.'.'.'.'.'.'.'.'.'.{.'.'.'.'.'.'.'.'.'.'.'.'.'.'.'.'.'.'.'.'.'.'.'.'.'.'.'.'.'.'.'.'.'.'.'.'.'.XX'.'.'.'.'.'.'.'.'.XX'.'.'.'.'.'.'.'.'.'.'.'.'.'.'.'.'.'.'.'.'.XXXX'.'.'.'.'.'.'.'.'.'.'.).",
"Y.Y.Y.Y.Y.Y.Y.Y.).Y.).'.).).'.'.'.).'.Y.).Y.).'.'.'.).'.'.'.'.'.'.'.'.'.'.'.'.'.'.R.Y.'.'.Y.'.Y.'.Y.R.R.R.Y.'.Y.'.R.'.'.'.R.R.R.'.R.R.'.'.R.'.'.R.R.G.'.R.R.R.G.P.G.G.G.'.G.R.'.'.'.'.'.'.'.'.'.'.'.'.'.'.'.'.'.'.'.'.'.'.R.'.'.'.'.'.'.'.'.'.'.'.'.'.'.'.'.'.'.'.'.'.'.'.P.'.'.'.'.'.R.P.P.'.R.'.R.P.G.P.P.P.G.G.P.R.R.R.R.P.R.R.R.'.R.'.R.'.'.'.R.'.'.'.'.'.'.'.'.'.'.'.'.'.'.'.'.'.'.'.R.'.'.R.R.'.'.'.'.'.'.'.R.'.'.'.'.R.'.'.P.'.'./.P.'.'.P.'.'./.'.'.'.'.'.'.'.'.'.'.'.'.'.'.R.'.'.P.'.'.].].LXLX].R.'.P.R.'.'.'.'.'.'.'.'.'.'.'.'././.P.'.P.'.'.'.R.R.'.'.P.P.P.'.P.P.P.P./.'././.'.'.'.'.'.'./.'.P.'.'.P.'.'.'.'.'.'.'.'.'.'./.'.'.'.'.'.'.'.'.'.'.'.'.'.'.'.'.'.'.'.'.'.'.'.'.'.'.'.'.'.R.'.'.'.'.'.'.'.'.'.'.{.'.{.'.'.{.'.{.'.'.'.'.'.'.'.'./.'.'.'.'.'.'.'.'.'.'.'.'.'.'.'.'.'.'.'.'.'.'.'.'.'.'.'.'.'.'.'.'./.'.'.'.'.'.'.'.'.'.'.'.'.'.'.'.'.'.'.'.'.'.'.'.'.'.'.'.'.'.'.'.'.{.{.{.'.'.{.'.P.].'.P.'.'.'.'.'.'.'.'.'.'.'.'.'.'.'.'.'.'.'.].'.'.'.].'././.'.{.'.'.'.'.'.].].'.'.'.'.'.{.'.'.].'.'.'.'.'.'.'.'.'.'.'.'.'.'.'.'.'.'.'.'.'.'.'.'.'.'.'.'.'.'.'.'.'.'.'.'.'.'.{.'.{.'.'.'.'.'.'.'.'.'.'.'.'.'.'.'.'.'.'.'.'.'.'.'.'.{.'.'.'.P.'.'.'.'.'.'.'.'.'.'.'.'.'.'.].'.'.'.'.'.'.'.'.'.'.'.'.'.'.'.'.'.'.'.'.'.'.'.'.'.'.'.'.'.'.'.'.'.'.'.'.'.'.'.'.'.'.'.'.'.'.'.'.'.'.'.'.'.'.P.'.G.'.'.'.'.'.P.'.'.'.'.'.'.'.'.'.P.'.'.'.'.'./.'.'.'.'.'.'.'.'.'.'.'.'.'.'.'.'.'.'.'.'.'.'.'.'.'.'.'.'.'.'.'.'.'.'.'.'.'.'.'.'.'.R.'.'.'.'.'.'.'.'.'.'.'.'.'.'.XX'.'.'.'.'.'.'.'.'.'.'.'.'.'.'.'.'.'.'.'.oXoX'.'.'.'.'.'.'.'.'.'.'.'.'.'.'.'.'.'.'.'.Y.",
"Y.Y.Y.G.Y.Y.).).).).).Y.).).'.).'.'.Y.G.Y.Y.'.R.'.'.Y.'.'.'.'.'.'.'.'.'.'.R.'.'.'.R.'.Y.R.Y.R.'.).Y.Y.G.P.P.'.R.'.R.'.R.'.'.R.Y.'.'.G.G.Y.Y.'.Y.R.R.R.Y.'.'.G.P.JXLXJX'.R.'.'.R.'.R.'.R.'.'.'.'.'.'.'.'.'.'.'.'.'.R.'.'.'.'.'.R.'.'.'.'.'.'.'.'.'.'.'.'.'.'.'.'.'.'.'.R.'.'.'.'.'.R.R.R.'.R.'.R.'.R.P.P.R.P.P.P.P.P.R.R.R.R.'.R.'.'.'.'.'.'.'.'.'.'.'.'.'.'.'.'.'.'.'.'.'.'.'.'.'.'.'.R.'.'.'.'.'.R.R.'.'.'.'.R.R.R.'.'.'.'.R.R.'.'.'.P.P.P.].'.P.P.'.'.'.'.'.'.'.'.'.'.'.'.'.'.'.'.'.'.'.R.'.].P.3XUXUX5XP.'.'.'.'.'.'.'.'.'.'.'.'.'./.'.'.'.P.'.'.'.'.'.R.'.'.'.P.P./.R.P.P.P.'.P.'.'.R.P.R.P././.'.P.P.R.'./.P.P.'.'.'.'.'.'.'.'.'.P./.'.'.'.'.'.'.'.'.'.'.'.'.'.'.P.'.'.'.'.'.'.'.].'.'.R.'.'.'.'.'.'.'.'.'.'.'.'.{.{.].].'.].'.'.].'.'.'.'.'.'.'.'.'.'.'.'.'.'.'.'.'.'.'.'.'.'.'.'.'.'.'.'.'.'.'.'.'.'.'.'.'.'.'./.'./.'.'.'.'.'.'.'.'.'.'.'.'.'.'.'.'.'.'.'.'.'.'.'.'.'.'.'.'.'.].{.'.'.'.'.'.{.].}.].].'.'.'.].'.'.'.'.'.'.'.'.'.].'.'.'.'.'.].].].'.'.'.].'.'.'.].].].'.'.'.'.'.].'.'.'.].'.].'.'.].'.'.].'.'.'.'.'.'.'.'.'.'.'.'.'.'.'.'.'.'.'.'.'.'.'.{.'.'.'.'.'.'.'.'.'.'.'.].'.'.'.{.'.].'.'.'.'.'.'.'.'.'.'.'.'.'.'.'.'.'.'.'.'.'.'.'.'.'.'.'.'.'.{.'.'.'.].'.'.'.'.'.].'.'.'.].].].'.'.'.{.'.'.'.'.'.'.'.'.'.'.'.'.'.'.'.'.'.'.'.'.'.'.'.'.'.'.'.'.'.'.'.'.'.'.'.'.R.'.'.'.'.'.'.'.'.G.P.'.'.'.'.'.'.'./././.'.'.'.'././.'.'.'.'.'.'.'.'.'.'.'.'.'.'.'.'.'.'.'.'.{.'.'.'.'.'.'.'.'.'.'.'.'.'.'.'.'.'.'.'.'.'.'.'.'.'.'.'.'.'.'.'.'.'.'.'.'.'.'.'.'.'.'.'.'.'.'.'.'.'.'.'.'.'.'.'.'.'.'.'.'.'.'.'.'.'.'.'.'.'.'.'.'.'.'.'.'.'.'.'.'.'.'.'.'.).",
"Y.Y.G.G.Y.Y.Y.Y.).Y.Y.Y.).Y.Y.'.Y.'.Y.Y.'.Y.Y.'.).Y.).Y.'.'.R.G.'.R.G.G.Y.R.'.G.R.R.P.G.Y.Y.Y.G.Y.Y.Y.G.R.G.Y.R.G.G.P.G.'.G.Y.G.R.R.G.G.G.P.G.G.Y.Y.P.G.R.P.P.JXUXUXUXLXP.Y.'.R.P.'.G.'.'.R.'.P.'.'.'.'.'.'.'.'.'.P.R.R.'.R.'.'.'.R.R.'.'.'.'.'.'.'.'.R.'.'.'.'.'.R.P.P.R.R.'.R.'.P.R.R.R.R.R.R.R.P.P.P.P.P.P.P.R.R.P.P.'.R.R.R.R.R.'.R.'.'.'.R.'.R.P.'.'.'.'.'.'.'.'.'.'.'.'.'.'.'.R.R.'.R.R.'.'.R.R.R.R.'.R.R.'.R.R.'.R.'.R.P.R.R.R.P.P.P.R.'.P.P.'.R.'.'.R.'.'.'.'.R.P.P.R.R.R.R.R.P.'.'.P.'./.P.5X5XP.'.R.P.'.R.'.'.'.P././.P.P.P.P./.'.P.P.R.'.P.P.P.P.P.P.P.P.P.P.'.R.P.P.P.P.P.R.P.P.P.P.P.P.P.P.P.P.'.P.P.P.R.P.R.R.'.R.'.R.R.P.P.P.'.R.'.'.'.'.'.'.'.'.'.'.'.P.'.R.'.'.'.'.R.'.'.P.'.'.'.'.'.R.'.'.'.'.'.'.'.'.'.].'.'.'.'.].'.'.'.'.'.'.'.'./.'.'.'././.'./.'./.P.'.'.'.'.'.'.'.'.'.'.'.'.'.'././.'.'.'.R.'.'.'./././.'.'.'.P./.P.'./././.'.'.'.'.'.'.'.'.'.'.'./././.'.'.'.].].].'.'.'.'.'.'.].'.].P.'.'.'.'.'.'././.'.'./.'.'.R.'./.'.'./.'.'./.'.'.'.'.'./.'.].'./.'.'.'.'.'.'.'.'.'.'././.'.'./.'.'.'.'.'.'.'.'.'.'.'./.P.'.'.'.P.'./.'.'.'.'.'.'.'./.P./.'./.'.'.'.].'.'.'.'.'.'.'.'.'./././.'.'.'.'.'.P.'.'././.'./.'.P./.'././.'.'.'.'.'.'.'.'.].P./.'.'./.'.P.P.P.'.P.'.'.'.'.'.P.'.'.'.'.'.'.'.'.'.'.'.'.'.'.'.'.'.'.P.P.'.'.'.'.'.P.'.'.'.'.'.'.'./.P.'.'.P.'.P.'.R.'.R./.P./.P.'.G.P.'.G.P.P.'./.P././.P.'./.P.'.P./.].P.P.'.'./.'.'.'.'.'.'.'.'.'.'.P./.P.'.'./.'.'.'./.'.'.'.'./.'./.'./.'.'.'.P.'.'.'.'.'.R.'./.'.R.'.'.'.'.'.'.'.'.'.'.'.'.'.'.'.'.'.'.'.'.'.'.'.'.'.'.'.'.'.'.'.'.'.'.P.Y.'.'.'.'.'.'.'.'.'.'.'.'.'.Y.'.'.Y.'.'.Y.",
"Y.Y.R.R.'.'.'.'.).).).'.'.'.'.R.).Y.'.'.R.'.'.Y.R.'.).Y.'.'.'.'.'.'.'.G.Y.Y.G.R.R.R.R.Y.Y.Y.P.P.Y.R.Y.Y.Y.R.R.G.G.G.G.G.G.P.R.G.R.P.G.G.R.P.P.R.R.P.R.P.R.P.].UXUXIXUXUX].P.'.P.P.P.'.'.'.R.'.'.'.'./.P.'.'.'.'.'.P.R.'.'.'.'.'.'.'.'.R.'.'.'.'.'.'.'.'.'.'.'.'.'.'.R.P.'.R.'.'.P.P.'.'.R.R.R.R.R.R.'.R.P.R.R.R.R.R.P.R.'.'.'.R./.'.'.'.'.R.'.R.R.P.P.'.'.'.'.'.'.R.'.'.'.'.'.'.R.R.P.P.R.'.'.R.R.'.'.R.R.'.].'.].'.'.R.].].R.].].R.].P.P.P.R.'.P.'.].R././././.'.'.'.P.P.P.P.R.R.R.'.R.].'.'.P.'.P./.P.'./.'.'.'.R.'.P.'././.P.P.P.P.P.'.'.P.P.'.'.P.P.P.P./.P.P.P.P.P.'.P.'.P.P.P.P.P.P.P.P.P.P.P.'.P.P.P.].R.R.P.P.P.'.R.R.P.'.'.'.P.P.'.'.'.'.'.'.'.'.'.'./.].'.'.'.R.'.'.'.'.R.P.P.'.R.'.'.'.'.P.P.R.R.'.'.'.'./.'.'.].].'.'.'.'.'.'.'.'.P.'.'.'./.'.'././././././.P.P.'.'.'./././.'.'.'.'.'.'.'.'././.'.'.'.P.'.'.'.'.'./.'.'.'./.P.'.'.P./.P./.P././././././.'.P.'./././.'.'./.P.'.].'.'.{.'.].'.'.'.{.'.'.'.'./.'./././.'./.'.'.'.P.'.'.'./.'.P.P.'.]././.'.'./.'.'.'.'.].].'./.'.'.]././././.P.'.'././.'.'.'.P.'.'.'./.'.'./.P.'.'.'./././.'./.'././.'.P.P.P.P./.'.'.P.P.P.'.'.].'.].P.'.'.'.'.'.P.'.P.P.P././.'.P./.P./././.P.'.P./.'./.P.'.'.'.{.{.P.P.P.'.P.'.].].P.'.'./.'.'.'.'.P.P.R.'.P.'.P./.'.'./.'./.'.'.'.'.'.'.'.'.P.P.'./.'.'.'.P.P./.'.'.'.'.'.P././.'.'.'.'.'.R././.'.P.'././.G.'.P.G.G.R.'.'./.'./.'.P./.'.'./.'.'.P.P.'.'./.'.'.'.'.'.'.'.'./.'.].'.P./.'.'.'.'./.'./.'.'././.'./.'././.'.P./.'./.'.'.'.'.'.'.P././.P.'.'.'.'.'.'.'.'.'.'.'.'.'.'.'.'.'.'.'.)./.'.'.'.'.'.'.'.'.'.'.'.).'.'.).'.'.'.'.'.'.'.).'.R.'.'.R.P.'.G.).).",
"G.G.'.R.G.'.'.'.P.G.'.'.'.'.'.P.Y.Y.'.R.R.'.R.'.'.R.).Y.'.'.'.R.R.'.'.Y.G.G.).Y.Y.G.R.Y.Y.G.P.P.Y.Y.R.G.G.P.R.P./.G.G.P.'.P.P.P.P.P.'.R.P.P.'.P.R.P.P.P.R.P.P.PXUXUXUXPXP.R.R.R.'.P.'.R.'.'.'.'.'.P.'.P.P.P.P.'.R.P.R.'.R.R.'.R.R.R.R.R.'.R.R.'.'.'.'.'.'.'.'.'.R.P.R.'.R.R.'.'.R.R.'.].'.'.'.R.R.R.R.R.R.P.P.P.R.R.R.R.R.R.R.R.P.R.'.P.P.P.R.P.P.P.P.P.R.'.R.R.R.R.R.P.R.R.R.R.R.P.P.P.P.R.R.R.R.R.'.P.P.P.E.].R.R.R.R.R.R.].R.R.R.].P.P.P.R.P.P.R.'.'.P.P./.P.R.R.R.P.P.P.P.R.R.P.P.R.P.R.'.P./.'.].'.'.'.P.'.R.P.P././.'.'.P./.P.P.P.P.'.P.P.P.R.P.P.P.P.P.P./.P.P.P.P./.P.P.P.P.P.P.P.P.R.R.P.P.P.R.P.P.P.].E.R.].R.R.'.R.R.'.R.'.R.'.R.R.'.'.R.'.R.'.P.P.'.'.'.'.P.R.R.R.'.R.P.P.P.P.P.R.'.'.R.P.P.P.P././.'.P.R././.'.'.'.'.'.'.'.'.P.P.R.'.'.]./.'.'.'.R.P.P.P.P.P.P.P.'.]././.P.'.'.'.'.'.'.'.'.'.'.'.'.'.P.'.'./.'.'.P.P.P./.P.'.R.P.P.P.P.P.P.P././.P.'.P./.P.P.P./././.'./.P.P.P.'.'.'.].].R.'.'.'.].R.P.].'./.P./.P.P./.P.]./.P.R.R./.P.P.P.P.P.P.'././.'./.'./.'.'.P.].'.'.].'.'.].]./.'.'.P.'.'.P.'.P.P././././././.'.P.P.P.R.'.P.'.P.P./.P./.'.'.'.P.].P.'.P.R.R.P.P.'.'.'.'.R.P.'.R.].'.P.'.'./.P.P.'.P.P.R.P.P./.P.P.'.].P.P.P././.P.P.P.].'.P./.'.'.P.'.'.'.P.'.P.'.R./.P.P.P./.P.P.'.'.P.'.P.P.'.'./.'.'.'.'.'.'./.'.P.P.'.'.R.'.'.P./.P.'.'.'.'.'.P.'.P.'.'.P./.'.P.'./.P.P.P.P./.P.R.P.P.P.'.P.'.'./.R.'.P.P.P.P.'.P.'.P.P.'./.'.'.R.R.'.'./.R.'.'.R.P.].'./.R.'./.'.'.'.'.'.'.'.'.'.'.'.'./.P.'.P.'.'.'.R.'.'.P./.P.JXLX'.P.'.'.'.'.R.'.'.'.'.'.'.'..X'.R.'.G.'.'.'.'.'.'.'.'.'.'.'.'.'.'.'.R.Y.).'.'.'.'.'.G.Y.'.G.'.'.G.G.G.G.G.G.Y.",
"G.P.'.'./.P.'.'././.'.'.'.'.'./.P.'.'.'.'.R.'.'.'.'.R.'.'.'.'.'.'.'.'.'.'.'.'.'.'.'.'.'.R.'.'.R.'.R.R.R.'.G.'.'.'././.'.'.'.'.P.'.P.'.'.'./././.'.'.P.P.'.P.P.(.JXPXPX5X/.'.R.'.'.P.'.'.'.'.'.R.P.'.'.'.R.P.'./.'.R.].].].'.'.].].'.].].'.R.'.R.'.P.P.R.P.P.P.P.P.R.'.'.'.P.R.R.'.R.'.R.R.P.R.R.R.P.R.P.P.P.P.P.'.P.R.R.'.R.P.P./.P.P.P.P.P.P.R.R.R.].R.R.R.'.R.P.P.P.P.P.P.R.R.'.R.R.P.P.P.P.'.'.P.'.R.P.P.R.R.].R.P.P.R.R.].].].R.P.R.R.P.R.R.R.].].R.P.P.R.'.'.P.'.R.R.R.R.R.R.R.R.P.P.'././.'.P././.].'./.'.'.P./.'.'./.'.'.'.P.P.P.P.'.P.R./.P.'.'.].'.P.P.'.P.P.P.P.P.'.P.P.'.'.'.'.P.'.].'.R.E.E.].P.P.P.E.].].R.'.R.'.].'.R.R.'.'.R.'.R.P.P.R.R.'.P.'.].].R.P.'.R.P.R.R.'.R.].].'.P.'.'.'.R.P.P.P.P.'.'.P.P.'.P.'.'.'.'.'./.'.'.'./.P.].].P.].].R.].R.R.'.R.'.].].R.'.R.].].P.'.'.R.].'.'.'.'.'.].'.'.'.'.R.'.].'.P.'.P.P.P.P.].]./.'.P.'.P.P.P./.P.'.'.].].P.P.P.P.'.'.'./.]./.P.P.'.'.].'.R.'.].'.].].].].].].].].].'./.I.'.].R.R.'.R.].'.P.P.].P./.'.'./.'.'.'.'.]./.].'.'.].].'.].].].].].I.].'.].'.].R././.'./.'.'.'.P.'./.P.'./.P.].P.P./.'.'.'.'.'.'./.P.'.P././.P.P.'.'.'.'.'.].'.'.].'.].'.].].P.'.].'.R.P.P.'./.P.'.].].P.'./.]././.P.P.P.'./.].'./.'.'.P.].'.'.P.'.'.'.'.P.P./.P././.'.'.'.P.].].'.'.'./.'.'.'.R.'.'.'.'.'.'.'.'.'.'.'.P.'.'.'.'./.'.'.'.'.'.'.'.P.'.'./.P./.3X/.P.'.'.'.P.'.'.P./.'.'.'.'.'.'.P.'.'./.'./.'.'./.].'.'.'.R.R.P.P.'.'.'.R.'.'.'.'.'.'.'.'.'.'././.'.'.'.'.'./.'.'.'.'.'.'././.'./.'.'.P.JXLX'.'.'.'.'.'.'.'.'.'.'.'.'.Y.9..X'.'.'.'.'.'.'.'.'.'.'.'.'.'.'.'.'.'.'.'.'.'.'.'.'.'.'.'.P.'.P.R.'.'.G.G.G.G.Y.",
"'.'.'.'.'./.'.'.'.'.'.'.'.'.'./.'.'.'.'.'.'./.'.'.'.'.P./.'.'.P.'.'.'.'.'.R.'.'.'.'.'.R.'.'.R.P.R.R.'.R.'.R./././.'.'.P.'.'.'.P.P.'.'./.'.'././.'.R.'.R.P./.P.P./.P./.'.].R.'.P.'.P.P.'.].R.'.P.].R.].P.E.E.'.R.R.R.P.].E.E.].E.].].].E.].].E.].].P.].'.P.P.I.I.].].'.'.'.P.].R.R.R.P.P.P.P.P.P.P.P.P.P.P.P.P.P.P.P.P.'.P.P.P.P.P.P.P.P.P.P.P.P.P.P.P.P.P.P.P.P.P.P.P.P.P.P.P.R.P.P.E.].P.P.'.P.R.].P.P.P.P.P.P.P.I.'.P.R.R.R.].R.P.I.P.R.P.P.R.].].R.P.P.P.'.R.R.R.P.P.R.P.R.P.P.R.R.P.].'.'.P.P././.'./.'.]./.'././.P./.'.'./.'.'.P.P./.P.'.P.'.P.P.'././.'.P.'.'.P.P.P.P.R.P./.'.].P.P.R.'.R.'.E.].P.P.P.P.P./.I.E.E.P.P.R.E.'.R.P.P.R.R.R.P.R.P.R.R.R.'.].R.E.P.].P.R.P.P.P.R.'.].].'.R.R.].R.R.'.P.P./.R.R.'.P.P.R.'.R.'.R.'././.].R.R.].R.R.R.P.P.R.R.R.'.'.R.'.R.E.E.R.R.].].].E.P.'.].R.'.P./.].'.]./.P.].].I.I./.P.I.]./.P.P./.].]./.P.'.P./.P./.P.P.'.].].P.P.'.P.P.R.'.'.].P.].R.R.R./.'.].R.].].].].].].].P.].].].]./.P.].P.E.'.P.R.].'.E.P.P.P.].'././.'./.].'.P.P.].P.].].].]./.P.].].I.I./.P.'.R.].'.P.P././.'.].'.'./.P.'.].P.P.].'.P.P.'.P././.'.'.'.P.P.'.'.P.'.P.R.'.'.R.'.R.'.].].R.].].].].].R.R.].P.P.R.R.'.'.].].].].R.P.'.'.].'.].P.]./.].].]./.'.P.].P./././.'.'.'.R.P.'.'././.'.'.'./.'.'./.'.'.'.'.'.'.'.'.'.'.'.'.'.'.'.'./.'.'./.'.'./.'.P.'.'.'.'.'./.'.P.'./.].PXUXJXP.'.R.P.'.P././././.'.'.'.'.'.'.R.'.'.'.'.'.'.'.'.].'.'.'.R.'.R.R.R.'.'.'.R.'.R.'.'.'.'.'.'.'.'.'.'.'.'.'./.'.'.'.'.'.'.'.'.R.'.'./.P.'.P.P.'.'.'.P.'.'.'.'.'.'.P.oXn.l oX'.R.'.'.R.'.'.'.'.'.Y.'.P.'.'.'.P.'.'.'.'.'.'.'.'.R.'.'.P.'./.'.P.R.R.R.G.G.G.",
"'.'.'.'.'.'.'.'.'.'.'./.'.'.'.'.'.'.'.'.'.'./.'.'.'.].'./././.P.'.'.].P.'.'.'.'./.P.P.'.'.'.'.'./.'.'.'.'.'./././.'./.P.'.'.'././.'.'./.'./.'./.'.'.'.'.'./.'./.'.'.'.'.].R.'.R.'.'.P.'.I.].].I.I.].].].].].].].].P.P.P.P.R.E.].].].]./.].].].].I.].].].].]./.].].].].P.].].].].].].].]./.].].E./.I.I.P.P.P.P.P./.P./.P.].].E.I.I.E.].R.P.P.P.P.P.P.P.P.P.P.'.P.P.P.'.P./.P.P.R./.P.P.P.P.P.].'.].]./.P.P.P.P.P./.P.E.P.].I.].P.P.I.I.P.P.P.P.P.].R.P.P.P.P.'.P.R.P.P.P.R.P.E.P.P.P.'.'.].].].].'./.].].'.].].'.].P././.'.].'./.'.'./././.'././.'.'./.P.'.'.'./.'.'./.P./.P./.P.'.P.P.P.P.'.].'.'.].I.I./.P.P.P./././.P.P.R.].I.I.I.P.P.E.P.I.P.R.E.].P.I.I.].R.R.P.'.E.].P.P.P.R.R.].P.].R.'.R.].E.].P.'.'.'.R.].].].P.'.].'.R.].'./.P.'.].].'.'./.P.P.].R.].R.R.R.'.'.].].].].].].].].P.P.].].].E.].I.].P././.].].].]././.]./.].I./.P.].].].].P.E.]./.]./.'.P.'.P.]./.].'.'.'.].].].I.].].].].].E.].].].].].].].].P./.].].].'.].].].'.].].].I.].].].P.].].].]./.'.].]./.].].P.].].].].].]././.].]./.I.]./.'.].].]././././.].].].]././.'.]./.P.].'././.'.'.'.'.'.].].'.'.P.'.'.].'./.'.'.'.'.'.'.].].].].'.'.].].].'.P.R.P.].R.'.'.].].].P.R.].].'.].].].].].'.].].].].'.R.R.'././.]./.'.'.'.].].'.'.'.'.'.'.'.'.'.'.'.'.'.].'.'.'.'.'.'.'.'.'.'.'.'.'.'.'.'.'.'.'.'.'.'.'.'.'.'.'.'.'.].'.P.LXUXJXP.{.'.P.'./././.'.'.'.'.'.'.'.'.'.'.'.'.'.'.'.'.'.'.].].{.].{.'.'.'.'.'.'.'.'.'./.'.'.'.'.'.'.'.'.'.'.'.'.'.'.'.'./.'.'.'.'.'./.{.'.'./.'.'.'.'.'.'.'.'.{.'.'.'.R.oXn.h oXR.'.'.'.'.'.'.'.'.G./.'.P./.'.'.R.'.'.'./.'.'.'./.'.'.'.P./.'.'./.P.R.'.P.G.G.",
"'.'.'.'.'.'.'.'.'.'.'./././.'.'.'.'.].'././.'.'./.].'././.P./.'.]./.'./././.'.]./.P.'.P.'.'.'.'.'.P.'.'.'.P./././././.P.P.'.'.P.'.R.'././././.'.'./.'.'.].P.P.P.'.'.'.R.R.'.R.'.].P./.P.E.I.].I.I.I.].].].].].].I.].].].].E./.].].]./.I./.].].I./.I./.]./.I./././.].].I.I.I.]./.].].]./.].I./././.I./.P.P.P.P.P./.P.P.P.P.].E.E.].I.].].P.P.P.P.P.P.P.P.P.P.P.P.P.P.P.P.P.P.P.P.P.P.P.P.P.P.P.].].P./.P.P.P.P.P./.P.P.P.P.I.I.P./.I.P.I.P.P.P.P.P.P.P.P.P.P.P.P.P.P.P.P.P.P.P.P.P.P.P.'.P.].].].]./././.]./.].].I./.]./.]./.'././.P.'.P.P.P./.P.'.P.P././././././.P./././.P./.P.P.P.P.P.'.P./.].].P.I.P./.P././.P.]./.P.I.P.P.I./.P.P.P.I.I.I.P.].E.I.I.I.I.].E.].P.P.].R.R.R.P.P.P.P.P.E.P.I.R.R.P.E.'.].P.P.P.E.].].P.].].R.].].]./.P.R.].R.].P.R.'.P.P.E.R.R.P.P.R.].].].].].].].].].P.P.I.].]././.I.P././././.].]./.]./.I./././././.].].]./.].P.].].].'.P.P.P.P.].I.].].].'.].]./.P.P.].].I.].].I.].E.P.I.I.P.I.].P.E.]./.P.I.E.'.'.I.I.].].].].].].].].].'.].'.]./.(.JXLXqX].].].]./././././././.P././././.].]././././././.].]././.].].P./.].'.'./.'.'.'.'.'.'.'.'.'.'.R.].].].'.P.'.].'.'.].].].].].P.P.].].].P.P.R.R.'.'.].'.'.].P.P././.].].].].]./././.].].].]./.P.].'.].P././.'.'.'./.'.].]./.].'.'.'././.]./.'.].'.].'.].'./.].'.'.].].].'.'.]./.'.'././.'./././.'./.'.'.'.'.]./.P./.1XK.P.'.P.P./.P./.P././.'.'./.'.'.'.'.'.'.'.'.'.'.'.].'.].].].].].].].'.'.R.'.'.'.'./.P./.].'.].'.'.'./.'.'.'.'.'.'.'./.'./.'.'.'.'.'.'.'.'.'.'.'./.'.'.'.'.'.'.'.'.P.oXu.i XXG./.'.'.'./.'.'.P.'.'.'.'./.G.'.P.'.R.'.'./.'.'.P.'.'.'.P.'.P.R.'.'.P.P.P.G.G.",
"'.'.'./.'.'.'.P.'.'.'.'.'.'.'.'.'.'.'./.'.].'./././././.'./.'.].]./././.].'.].].'.'.].I.].'.].].P.P.'.R.'.P././././.].P./.].]./.].'.'.].]././.].].].].P.P.P.]././.P.'.'.R.P.P.].].I.].I././.].]./.I./.P././.].].].].].].].].].].]./././.].].].].].].]././.].]./.].].].].]./.].].]./.].].]././././././.I.I.I./.I././.].I.].P.].].].].].].'.R.P.P.P.P.P.P.P.P.P.P.P.P./.P./.P.P.P./.P./././.P./.P./././.P./.P.P././.P./.I././.I././././.I.I./.P.P.P./.].I./.I./.I.P.P.P.I.P.P.I.I.E.P.R.].].'.].].].].]./.].].].].]./.].].]./.]././.'.'././.P.].]././.P./././././././././././.P././.P.].]./.I./.I./.P.I././././././.P.]././././.I./.P.P.I./.I./.I././.P.].]./.].].].I.].P.].E.E.P.P.P.P.].].P.R.R.R.R.I.].].R.R.P.].].P.E.P.P.].R.].].R.P.].].].].'.].]././.]./.].P.P.].]./.].].].].].].].].].].].]./././.]./.].]././.]./.]./.]./././././././.].].].P.].].].].P.P.P.P./.P.].].].'.P.P.].I.].].].].].].].P./.P.I././.P.].].]././././.P.]././.].].]././.].].].]./.].].]././.3XUXUXJX].].].]././././././././././.].]././././.]./././.].].].]././././.].].].'.'.'.].].]./.].'.]./.]./.].].].].].].].].].].].].].].]./.].].'./.]./.].].]././.P.'./.].].].].]./.]./.].].]./.].]./.].].].].]././.]./.].].'.'.'.].].].'.]././.].'.].'.].].].P.].].].].'.].].].].].]./.]./././.].].'./././.]./.'.].'.'.].P./.P.].P./.P.]././././.'././././.].'././.].].].].].'./.'.]./.].].].].]./././.]./.].]././././.].].]./.].].].].].].].].]./.].'.].].].].'.'.].P.'.'.{.'.'.'.'.].'.].{.'.P.5Xq.y oX'.'.R.].R.'.'.'.'.'.P.'.'.P.P.'.'.'.'.'.'.'.P.'.'.'.P.'.'././.'.'.'.P.P.P./.R.",
"'.'.'./.'.'./.R././.'.'.'.'.'.'.'.'././.'././.'./././.P.]./.P./.].].]./.P./.]./.'.'.P.'.]./.'.P.R.'.P.P.].'././././.]./././.P./.].].]./././.].].].]./.P.P.P.].P.P.].P.].].P./.P././.I.].]./././.I.I./.'.].]./.].].].]././.].]././././././././././.]././.]././.].].].].]././.]./.].].].]./././././././.I.I.I./././.I.].].].].E.E.].E.].P.R.R.P.P.P.P.P.P./.P.P.P.P.P.P.P.P.P.P.P././.P./././.P.P.P.P./././.P.P.P./.P.P.I./.P./.I./././.P.P././.P.P.I.]./.P././.I./.P.P.P.P.P.I.I.P.P.].]./.].].].].].]././.].]./././.]./.]./././././.'././././.]./.I./.I./././././././.P./.P.P./.P.P.].R././.I.I.'.P./.P./././.P./././.]./././././.P./.P.P./.I.I.P.I.]./.'.'.'./././././.I.P.P.P.].P.I.I./.I.E.P.P.P./.I.].R.].P./.].].P.].E.P.].P.R.].P.P.].]./.].].].].].P./.P././././.].].].].].].]./.].].].].].].].]./.].]./././././.].'./.]././.]./././.'.'.'.'./.I.].].P.P.].].P.P.'.].'.P.'.R.]./.].].P./.].]././.].].].]./.P./.]././.]./.].P./.I.]./.].].].].]./.]./.].].].].]./.].3XqX3X/.].]./.]././././././.]./././.]././././.]./././././././././././.]./././.'./././.'./.].]./.'.].P.].].].].]./.]./.].].]./.].]./.].].].].].]./.].].].].]./.].].].].].].].]././.]././.].]./.]./.].].]./.]./././.].]././././.].].]./././.].].].].].]./././.].]././.].].].].].].].]././././.'.].'.]././.].].P.].'.P.].{.'.P.P.].P.P././.P././././././.].]./././.].]./.]./.]././.]./.].'./././.'././././.'.]./././.].]./././.].].].]./.]./.].'./.]./.].]./.]././.].].].].].'.P.].'.].'.'.].P.5X9.q oXR.P.'.R.R.'.P.'./.'.'.R.P.'./.'.'.'.{.5XP././.'.P.'.P.P.P./././.P.P.P./.P.P.'.",
"'.'.'.'.'.'.'.'./.'.'.'.'.'.'.'.'./.'.'.'./.]./.'./././.]././././.].]./././././.].'.'.P.P./././.'.P.].].].].]./.]././.P.P.P./.P.].]././././.].].]./.].P./././././././.P.].].].P./././.].]./././././.].].].].]./.]./././././././././.]./././.]././././././.].]./.].].]./././././././.]././././././././././././././.].].].].].].E.].].].P.'.'.R.R.P.P.].]./.P.P.P./././.P./././././././.P.]././././././././.P.P.P./.P./.P./././././././.P./.P./.P.P.P./.P./././././.P./.P./.P.P.P.P.P.].]././././.].].].].].].]./.E./.]././.]./././.'.]././././././././././././././././././.P.I./.I.P.'.P.P.].I.]./.P.].P././././././././.]././././././././././.P.P./.].'.'./././././.].].P.P./.P.].I.].I.].I.I.I.I.I././.].].].P.].].].].].].].P.'.'.].I././.].].].].]./././././.]./././.].].].].].].]./.].].].].].].].].].].]././././.].]./.'./.'.].].'./.'.'.'.'.P.I.I.].].P.P.].].P.P.].].].].].].]./.].]./.].].].].].]./.].]./././.P.].].].].].]./.P.].].].].].].]././.].]./.].].].]././.].].].].].].].].]./.(./././.]./././.]./././.].]././././././././././././././.]./.]././.]./.].].]././.].].]./.].].].].].].].].].].]./.].].].].].].].].].].].].].].].].].].]./././.].]./.].].].].].].].]./.]./././.].]././.]././.].]./././.].]./.].]./.].].]./.].].].].].].].].].].].].].].].].].].].].].].].].'.'..X'.]./.].].]./.]./.].].].].]./.].].].]././././.].].].]././././.].].'./././.'./.]././.'.]././././././.].]././.].].].].].].].].].].].].].}.].].].].].].].'.'.].].].].'.]./.GX@.q oX'./.'.'.R.'.'.].'.'.'.].'.'.'.R.{.LXLXUX}.P.].]././.]././.]./././.P././././.'.",
"'.'.'.'.'.].].'.P.'.].].'.'.].'.'.'.'.].].'.'./././.].'./.].]./././.].].].P.].P.P.'./.P./.P.P.P.'.P.].].].]./././././.P.].P.P.I.P././././.P./././.I.I.].].I.P./.(.I.P./.]./.(././.P./.P./././.I./.P./././././././.P./././././././././.]./././././././././././.].]././././././././.I./././././././././././././././.].].P./.P.E.P.P.].].P.I.P.P.P.I.P.P./.P.P.P./././././.P.P./././.P.P.P.P././.P././.P./.P.P./.P./././.P././././././././.P./.P.P././.P.P.P./././.P././.P.P.P.P.P.P.P.].]./.I././.].].]././.I./.I.].I./././././././././././.P./.I.I.I./././././.P./.I./.P./.P.I.(.I.I.P.P.P.P.].I.].'.P.P./.P.'././.P./././././././././././././.P.P.P./././././././././.].P.P.P.P.P.P.I././.I.I.I./.I.I.].I.P./.I.].I./.].].].].P.].P.P.]./.P.].].].]./././././././.]././././.].].]./././.].]././././././.]./.]./././.'.'./.'.'./.'.].].'.].'.'.'.P.P./.P.].R.R./.R.].P.P.].'.P.].].].]./.]./././././.].]././.].]./.P.]././.].].].].]./.P./.].].].].]././.]./.].].]./././.]./.]./././.].].].].].(./././././././././././.]./././././././././././././.P././././.]././.].]./.]./././.].]././.].].].].]./.]./.]./.].]././.].].]./.]./././.].].].]././.]./././././.].].(./.].].]./.]././././.(././.]./././././.]./.]./././.].].].].I.].].].]././.].]./././.].]././.].].].].].'.].].].]./.'.].'.].'.].].].].]./.P.].].P./.].].].]./.].].].]./././././.]././.].].].].]././././././././././././.].]./././././.].].]./.]./.].].].].].].]./.]./.].].]./.].I./.P.].'./.].]./.]./.P.GX .1 E.P.'.P.'.P./.].].].].P./././.P.P.'.HXLXLX]./././.].].P././.P.].P.P./.P.P./.P.'.",
"].'.'.'.].].].'./.'.].'.].].].].'.'.].].].].]././.'.].].]./.].].]./.].].].].].]./.].].].].'.].].].].].].].].]././.P./././././././.P././.P./././././././.]././././.P././.(./.].]./.P././././././././././././././././././././.(./.(./.].].]./././././././././././././././././.]./././././././././././././././././././././././././.].P.P.P.P.P./././.P./.P.P.P./././.P.P.P.P.P./.P.P.P.P././.P././././././.P.P./././.P.P././././././././././.P././.].]./.P./././././.P.P././.P.P././.P.].]././.].].]././.].]./.]./.]./././././././.]./././././././.(.I./././././././.I./././.I.I.].(.I.P.P././././.].]./.P././.]./././.P./.]./././././.]./././.P././././././././././././.]./.P.]././.P.I.I.I.I./.I./.I.I.]./.I././.]././.I.]./.].]./././.].]./././.]./././.]./.]./././.]./././.].]././././.]././././././.].]./././.].].].]./.'././.].'.].].].'.].].P.'.].].].].'.R.].'./.'.].'.'./.].'././.].]././.].].]./././.].]././.].]././.].]./././.].].].]././.P.]./.(./.].].]./././.].].].].]././.(.]./.].(.(././.(.(././.].]./.]./././././.]././././././././.P.]./././././.]./././././.].]././././.]./.].].]./././.]./.]./././.]./././././././.].].(./././.]./././.]./.].(.(.].]./.].]././.]./././././.].].(././.(.].(.(.(.].].}./.].]././.].].].].]././.].].I.]./././.].].]./././.]./.].].].].].].].].]./.].].]./.].].]./.]./.]./././.].].].]././././.].].]./.].].].].].]./././././././.]./.P.]./././././.]././././././.].].]./././././.].].]./.I./.P.].].]./.]./.(.].].].].]./.HX_ 9 oXR.P.P./.].].P./.P.P././.P././.].P.P.P././.]././././.]./.P.P.P.I././.P.P./.P.].",
"/.P././.].]./.P./././.]./.].].].]./.]./.].]././.].]././././.]./.]././.].]./.].]./.I.].].].]./.].].].].]././.].].P.P./././././.I./././.I./././././././.I./.(.(.(.(.(.(././././.(./.I./.I./././.I./.I././.I./././././.(./././././.(.(.(.(././././././././././././././.(./.I./.(./.(./.(././././././././.I.I.I./.I.I././.(.(.(.(./.I.I.I.P.I.I.I.I.I.I.I.I.I.I.I.I.I.P.I.P.I.I.P.I./.I.I.P.I.P.I.P.P.P.P.P./.I.P.P./.P./.P.P.P./.P./././.P./.P.P.P././.P././././././.P.I.I./.I./.P./././.I./././.]./.P.I.(.]./././././././././././././././././.].(././././.I.P./././././././.I.I.(./.I.I.P./././././././.P././.I.(.(././.].]./././././.I./././.(./.]./././././././././.(././.I.I.(./.I.P.P./.I.I././.I.I././.I.]./.I././././././././././.I.]././././././././.]./././././././././././././././.]././././././././.(./.].]./././././././.]./.P.].].]./././.].].]./.].P.'./.'.P.].]././././././.].].].].].]././././././././.]./.]./.]././.P./././.]./.I././././.(./.(.]././././.(.].(.]./././././././././././././././.].(././././././././.].]././.P./././././././././././././.P.]././.]././.]././.].(././././././././././././././././././././././././././././.(././././././././././././././././././././././././././.].(.(.].].]./.P.].I.]./.].].].P./.P././././.]././././././.P./././.].]././././.(././././././././././.]./././.]./.].].].]./././././.]./.P././././././.(././././././././.P././.P.P././././././././././.]./././././.]././.]././././.]./././././.].P./.].I.].P.GXY & R.5XP.E.I./.I./.P.P./.P./.P.P.P.P./.].].]./.]././././.I./.P.P.P./.P./.P.P.P./.P.",
"P.I././././././././././.P./././././././././././.]./././././.]././././.]././.].]././.(.(./././.I./.].]./././.].]./././././.(.(././././././.(.(.(.(.(.(.(.(.(.(.(./.(.(.(./.(././.(.^.(.(.].(.(./.(.(.(.(.(.(.(.(.(.(.(.(.].(.(./.(.(.(.(.(.(.(.(.(.(.(.(.(.(.#X(.(.(.#X#X(.(.(.(.(.#X#X#X#X(.(.(.(.(.(.(.I.(.(.(.(.(.(.(.(.(.(.(.(.(.(./.(.(.(.(.(.(.(.^.(.(.I.I./.(./.(.(.(.(.(.(.(./.I.I./././././././.(././.(./.(.(.(.(.(.(.(.(.(.(././././.I./.P./././././././././././.(././././././.(.(.(.(.(./.(.(.].(.(./.].].(./.(.(.(.(./.(.].(./.(.1X(././././././.]././././.I./././.(.I.I.I./././././././././.(.(.(.(.(.(.(.].(./.(./.(.(./.I././.(.].].(.(./././.(.(././.(.(././.(.(.]./.I.I.(.(./././././.(.I./.]././././././.(.(.(.(.(.(.(.].(.(./././././.].].]./././././.]./.(./.(./././.].].].]././.].(.].].(.].].(.(./././.]././.(./.I.I.].]./.I./././././././././././././././././.(./././././.].(././././.(.(././.].].(.(.].]././././.(.(././././././.(.(.(.(.(.(.(./.(.(.].(.(.].].(.].(.(./././.(./.(./.(.(./.I./././././././././././././././.I.(./.(.(././.]./././.]./.]./././.]./.].].(.(.].].(./././././.(./.(././.].]./././.]./././.(./.(.(./././././././.(./.(.(.(.].(.].(././././.]./.].].]./.(.(.1X(.(.JX5XI.]./.]./.].]./././././.I././././.].(.(.(././././././.(././.(././././././././.]./././././././.(./.].].].].]./././.]././.]././.]./././././.].(.]./././.(.(./.(././././././././././././.]./././././.]./.]././.(././././.].(.(.(.(./.].].]././.].]..Xl O D.q.9.6X/.I./.(././.].].].]././.(././.].]./././.]./././././.I././.I.P.P.P.P././.",
"/.I.I.I.I.P./././././.P.P.P./.P./.P././././././././././././././././././.(././.]./.I.I.(././././././.(././.I./.]././././././.(./.(././.(./././././.(.(.(.(.(.(./.(.(.(.(.(.(.(.(.(.(.I.(.(.(.(.(.(.(.(.(.(.(.#X(.(.#X#X#X#X#X(.(.(.(.#X#X#X(.#X(.(.#X#X(.#X#X#X#X(.#X#X#X#X#X(.(.#X(.#X#X#X#X(.(.#X(.(.(.(.(.(.(.(.I.#X(.(.(.(.#X(.(.(.(.(.(.(.(.(.(.(.^.(.(.(.(.(.(.(.(.(.^.(.(.(.(.(.I.(.^.(.(.(.^.(.(.I.(.(.I.(.(.(.(.(.(.(.(.(.^.(.(.(.I.(.(.I.I.(././.(.(.(.(.(.(.(.(.(.(.(.(.(.(./.(.(.(.(.(.(.(.(.(.(.(.(.(.(.(.(.(.(.(.(.(.(.(.(.(.(.(.(.(.(.(.(.(.(.(.(.(.I.(.(.(.I.(.I.(.I././././.(.(.(.I.(.(.(.(.(./.(.(.(./././.(././.(./.I.(./.I.(.(.(././.(.(.(.(./././.(./.I.(.(.]./././.(.(./.I.(././.(././.(./././.(././.(.(.(.(.(.].(.].(.(.(.]./././.(.(././././.]./.(.].].(.].].].].].].].].]./.].].(.].].]././.(.(.(.(.(.(./.(.].I.I.(./././.I.(./.(.(././.]./././.(.(.(.(.(./.I./././././././.(.(.(.(.(.(.(.(.(.(.(.(.].(.]./././.(./.(.(.(./././.(.(.(.(.(.(.(.(.(.(.(.(.(.(.].].(.].(.(.].(.(.(.(.(.(.(.(.(.].(.(.(.(.(.(.I./.I.(./.I.(.(.I.(./.].(.].(.]./.].(.(.]././.].(.].].].(.(.].].(.].].(./.].(.].(.(.(.].(.]./.]./.(.(.].(.(.(.(.(.(.(.].(.].].].(.].].].].(.].(.].(./.]./.(.(.(.].]./.(.(./.1X3XIXJXI.1X]./.].].I.(./.(.(.].(.(./.].(.(.(.].(.(./.(./.(.(.(.(.(.I.(.(.(.(.(././.(.(.(.(./././././.(.(.(.(.(.].(./.(./.(././.(././.].(.(./.].(./.(.(./.(.(./.]./.I.(.I.(./././././.(./.]./.].].]./.].]./.].].(././././.(././.(.].]./.].]./.]././.P.].R.q t HXY ^ rXP./.I.I.(.I.I././.I.I.I.(.I.].(.(.(.(.(.(.(.(././.I./.I.I./.I.P./.I.I.].",
"/./././.I.I./.I././././.P.P././././././././././././././././././.(./././.]././././././.(.(.(.].(.(././.(./.(./.(./././.(.(./.(.(.(.(.(.(.I.(./././.I.(.(.(.(.(.(.(.(.(.(./././.(.(.(.(.(.(.(.(.#X#X(.#X#X#X#X#X#X#X(.(.(.#X#X#X#X1X#X1X1X#X#X#X#X#X#X#X#X#X(.(.(.(.(.#X#X#X#X(.(.(.(.#X#X#X(.(.#X#X(.(.#X(.(.#X(.(.(.(.#X(.(.#X(.(.(.(.(.#X(.(.(.#X(.#X(.#X#X(.(.(.(.#X#X#X(.(.(.#XI.I.#X#X#X(.^.I.(.(.^.^.^.(.(.(.I.(.(.(.(.(.(.#X(.(.(.(.I.(.(.I.(.(.(.(.(.(.(.(.(.(.(.(.(.(.(.(.(.(.(.#X(.(.(.(.(.(.(.(.(.1X(.(.(.(.1X#X(.(.(.#X(.(.(.(.#X(.(.(.(.1X#X#X(.(.(.(.(.(.(.(.(.(.(.(./././././.(.(.(.(./.(.(.(.(.(.(.(.(./.(.(.].(.(.(.(.I././.(.(.(.I.(.(.(.(.(./.(.(.(.(././.(.(.(./.(.(.(.(././.(./.(.(././.(././.(.(.(.(.(.(.(.(.(.(.].1X].(.].].(.(.(.].(.].].(.].].(.].(.].].(.(.].].].].].].].(.(.(.].].].].(./.(.].].(.(.]./.].1X(.(.I.(.(.(.(.(.(.(.(.(.(.].(.(.(.(.(.(.(.(.(.(.(.1X(.]./.(.(.].(.(.(.(.1X(.(.(.(.(.(.].].1X(.(.(.(.(.(.(.(.(.(.(.(.(.(.(.(.(.(.(.(.(.].(.(.(.(.].].(.(.].1X#X(.(.].(.(.(.].].1X].].].].(.(.(.].(.].(.(.(.(.(./.(.1X].].].].].].(.].].(.].3X].].].].(.].].1X].].].(.].].].].(.(.(.].].].].].].(.].].].].(.].(.].].1X].].1X1X].].].].].].(.].(.(.].].(.(.(.1X(.(.].].(.].1X1X#XPXqX1X3X3X].1X].(.(.1X(.].].(.].].(.].(.].(.(.(.(.(.(.(.(.(.(.(.(.(.(.(.(.(.(.(.(.(.(.(.(.(.(.(.].(.(.(.].].(.(.(.(.1X(.(.]././.1X(.(.(.1X].(.(.(.(.1X(.(.1X].(.].(.(.(.(.(.(.(.].].].].].(./.(.].].].].(.].(.].].(.].(.].].].].(.(.].(.}.5X].P.5X}.t m PX9.^ 6XL.(.(.I.]./.(.I.I.I.(.(.(.(.(.(.(.(.(.(.(.(.(.(.(./.I./.(.I.I./.(./././.",
"/././.P.I././.I./.I./.I./.P.I././././.I././././././././././.(.(.(./.(.(.(.(./.I.(./.(.I.(.(.(.(.(.I.(./.(.(.(.(.(.(.(.I.(.(.(.I.(.(.(.I.(.I.(.I.I.I.I.I.(.(.(.(.(.(.(.(./.(.(.(.(.(.(.I.(.I.(.(.(.(.#X(.(.(.#X(.(.(.(.(.(.(.#X(.(.(.#X(.#X(.#X#X#X(.(.#X(.#X#X(.(.#X#X#X#X#X(.(.(.(.#X#X(.(.#X(.(.(.#X#X(.(.(.(.(.I.#X(.(.(.(.#X#X#X#X(.#X(.#X(.(.(.(.#X#X(.(.(.^.^.(.(.(.(.^.^.I.I.I.I.I.#X^.I.I.I.I.I.^.I.^.I.^.#X(.(.(.(.(.(.(.(.(.I.I.I.I.(.I.I.(.I.(.(.(.(.(.(.(.I.(.(.(.(.(.(.#X(.1X(.(.(.(.(.(.(.(.(.(.#X(.(.(.#X#X(.(.(.(.(.(.(.(.(.(.I.(.1X#X(.#X#X(.(.(.#X#X(.(.(.(.(.I.(.(./././.(./.(.(.(.I.(.I.(.(.(.(.(.(.].(.(./.(.(.(.(././.(.(.I.I.(.(.(.(.(.(.(.(.(.(./.I.(.(.(.(.(.(.(.I.(.I.(.(.(./.(.(.(.(.(.(.(.(.(.(.(.(.(.(.(.(.].].(.(.].1X1X].].].].(.].].(.].(.(.(.(.].(.].].].].1X(.].(.(.(.].].].(.(.(.#X(.#X(.(.(.(.(.(.1X(.].(.(.(.(.(.(.#X#X(.(.(.(.(.(.(.(.(.(.(.(.1X1X#X#X(.1X1X(.(.#X(.(.#X#X(.(.1X(.(.(.(.(.1X(.(.(.(.(.(.(.(.(.(.(.(.(.(.(.(.(.(.(.].(.(.(.(.(.(.(.(.(.#X#X#X#X1X#X(.1X(.(.1X(.(.1X(.(.(.(.(.(.(.(.(.(.(.(.1XI.(.(.1X].(.(.1X(.].(.1X1X].(.1X1X1X(.1X].1X].1X1X1X(.].].].].1X(.1X(.].1X1X(.1X(.1X(.].(.(.(.(.(.].(.].1X1X(.1X1X].].(.(.1X#X].(.1X(.1X1X1X(.(.1X1X(.1X3X1X1X3X1X3X#X1X1X].1X3X].1X#X(.(.(.(.1X(.#X#X(.(.(.(.1X(.(.#X(.(.(.(.(.(.(.(.(.(.(.(.(.(.(.(.(.(.(.(.(.(.(.(.(.(.(.(.1X(.(.1X1X].(.(.(.(.].(.(.].(.].(./.(.(.(.(.(.1X(.I.].].(./.(.(.(.(.(.(.(.].(.].].(.(.].].].1X(.].].(.].].].].(.].].(.]./.1XP.' P.].P.9.&   ^ B h 6XL.I./.(.I.(.(.(.(.I.(.I.(.(.(.(.(.(.(.(.(.(.(.(.(.I.(.I.(.(.(.I.I./.(.(.",
"I.(./.I./././.I./.I././.].I././././././.(.(.(.(./.(.(.(.(.(.(.].(./.(.(.].(.I./.(././.(.(.(.(.(.(.(.(.(.(./.(.(.I.I.(.I.I.(.(.I.(.I.(.^.I.^.(.(.^.I.(.(.(.(.(.(.#X(.(./.(.(.(.^.(.(.(.(.(.(.(.(.(.(.(.(.(.#X#X(.(.(.#X(.(.(.#X(.#X#X(.(.(.#X#X#X#X#X#X(.1X#X#X(.#X#X#X(.#X#X#X(.#X#X#X(.#X#X#X(.#X#X#X(.(.(.#X(.#X#X#X#X(.(.(.#X#X#X1X#X#X(.(.(.(.(.^.I.^.(.(.^.(.(.#X^.I.I.(.^.I.I.^.I.I.^.#XI.^.I.I.^.(.(.^.I.#X#X#XI.(.#X#X(.#X(.(.I.(.I.(.#XI.(.#XI.(.(.(.(.(.(.(.(.(.(.(.(.(.(.#X(.(.(.(.(.(.(.1X(.(.(.1X(.].(.#X#X1X(.(.(.(.#X(.(.(.#X#X(.(.].^.I.(.#X#X(.#X#X#X(.(.#X(.I.(.#X(.(./.(.(.I.(.(.(./.I./.(.(.(.(./.].1X(.(././.].(.I.(.(.(.(.(.(.(./.(.(.(.(.(.(.(.(.(./.(.(.(.(.(.I.(.(.(.(.(.(.#X(.(.(.(.(.#X1X1X(.(.(.].].(.(.#X(.(.(.(.(.1X].].(.].1X].].(.].1X(.].(.(.(.].1X(.(.].].1X#X].#X(.(.1X(.].(.].(.#X#X#X(.#X(.#X#X#X(.1X(.(.(.(.(.#X(.#X#X(.(.(.(.#X(.(.(.(.(.1X1X1X(.(.(.1X1X1X#X1X#X(.(.#X#X(.#X1X1X(.#X(.1X(.1X1X(.(.(.(.(.(.(.1X(.(.(.(.(.1X1X#X1X1X1X1X(.(.(.1X#X1X#X1X#X1X1X1X#X#X1X#X(.1X(.(.#X(.(.(.(.#X#X(.(.#X#X1X(.#X#X1X(.1X(.1X1X1X1X1X(.1X1X1X1X1X1X1X1X1X1X1X1X1X1X1X1X].1X1X].1X1X1X#X1X1X1X1X(.1X1X1X1X1X1X1X1X1X1X(.(.(.#X1X1X1X1X].1X1X1X1X].(.1X1X1X1X1X#X1X1X1X1X(.(.(.(.(.1X1X1X1X1X1X1X1X1X3X1X(.(.#X(.#X1X1X#X(.(.#X#X#X#X#X(.(.(.#X(.#X(.(.(.#X#X#X(.(.(.(.(.#X(.1X(.].(.(.1X1X1X1X1X1X1X1X1X1X1X(.1X1X(.1X(.(.1X1X(.].(.1X1X1X(.1X1XI.I.(.1X(.(.1X(.1X(.(.(.(.].(.(.1X1X1X(.1X1X].].1X1X#X(.].].].].(.(.1X].(.1X'.- ' 0XV.O.7 O _ q C rXL.#X(.#X#XI.#X(.(.(.1X(.(.(.(.#X#X(.(.(.(.(.#X(.(.(.(.(.I././.(.(.(./.(.",
"(.I././.I.I././.I.P./.].(.(.I.(././.].I.(.(.(.(.(.(.(.(.(.(.(.I.(.I.I.].(.I.I.I.I.I.(.I./.(.(.(.(.I.(.(././.^.(.(.(.(.(.I.I.(.I.I.I.(.I.I.I.(.I.(.I.I.(.(.(.(.(.(.(.(.I.I.I.I.I.I.(.^.(.(.(.(.(.(.I.(.(.(.(.(.(.(.(.(.(.(.(.(.(.(.(.(.(.(.(.(.#X#X#X#X(.(.(.#X(.(.1X(.I.#X(.#X#XI.#X#XI.(.(.(.#X#X#X#XI.(.(.#XI.(.#X1X#X(.(.(.(.#X#X#X#X(.^.(.(.(.(.^.^.#X(.^.(.(.#X(.I.I.I.I.I.I.I.I.I.I.I.(.I.I.I.^.I.I.L.I.^.I.I.#X(.#X(.#X#X#XI.I.I.I.I.(.(.I.(.(.(.I.I.(.I.(.(.(.I.(.I.(./.I.I.(.(.(.I.(.(.(.(.(.(.(.(.(.(.(.(.(.#X#X(.(.(.(.(.(.(.(.#X1X(.(.(.(.I.(.I.(.(.#X(.(.(.(.#X(.K.I.(.(.(.I.I.I.^.I.(.(.I./.I.(.].(.I.I.(.].(.(.I.(.(./.I./.(.(.(.(.(.(.(.(.(.(.(.(.(.(.].(.(.(.(.(.I.(.(.(.I.(.(.(.I.(.#X(.#X#XI.#X1X#X(.(.(.].].#X#X(.(.#X#X1X#X(.(./.(.(.(.#X(.#X(.(.1X(.(.(.(.1X(.#X(.#X#X#X#X#X(.(.(.(.#X].(.(.(.#X#X#X(.(.#X#X#X(.(.(.(.#X(.(.(.#X(.(.(.(.(.(.(.#X(.#X(.(.(.#X#X#X(.(.(.#X(.].1X#X#X#X(.(.#X(.#X1X1X1X(.1X(.1X#X1X#X(.(.(.].(.(.(.(.#X(.1X(.#X1X1X1X1X1X1X#X#X1X1X1X1X#X#X1X1X#X#X(.(.1X(.I.#X#X#X#X#X(.(.(.#X#X^.I.(.(.(.(.#X(.#X1X(.(.1X(.1X1X#X#X#X(.1X1X#X(.1X].1X1X1X1X1X#X1X#X1X1X1X1X1X#X#X1X1X1X1X(.#X#X1X1X#X#X1X1X1X#X1X(.(.(.1X1X1X1X1X1X1X#X1X#X1X#X(.#X1X#X#X#X#X#X1X#X1X#X1X1X1X#X#X1X1X].1X(.(.(.1X#X(.(.#X#X(.#X#X#X#X^.#X#X#X#X#X(.#X(.(.#X#X(.(.#X#X#X#X(.(.(.1X(.#X#X1X#X(.#X1X1X1X1X1X1X1X#X#X1X1X(.1X1X1X1X].(.1X(.1X1X(.].1X1X1X(.(.].(.I.].(.(.I.(.(.(.(.(.(.(.].(.(.#X(.(.#X(.(.(.(.(.(.(.^.(.(.].(.(.(.(.(.(.I.6XQ q /.JXO.  O Q   ^ rXJ.#X#XI.(.(.(.I.(.(.I.1X].I.I.(.(.(.(.I.(.(.#X(.I.(.(.(.(.I.(.(.(.I.(.(.",
"(.(.(.(./.I.].]./.I.].].(.I.I.(.(.I.(.(.(.I.(.(.(.(.I.(.(.I.(.(.1X(.1X(.(.I.].].1X(.1X(.(.(.1X(.(.I.(.(.(.(.(.(.(.(.1X#XI.I.I.I.(.I.I.(.I.I.(.(.#XI.I.(.(.I.I.I.I.I.(.(.(.I.I.I.(.I.(.(.(.(.(.(.(.(.(.(.(.(.(.(.(.(.(.(.(.(.(.(.(.(.(.(.(.(.(.(.#X(.(.(.(.(.#X(.#X1X(.(.#XI.#X#X(.#X(.^.#XI.#X#X#X(.(.I.#XW.#X#X#X#X#X(.^.#X#X#X#X#X(.^.^.#X#X#X#X#X#X(.#X(.(.^.I.I.I.^.^.^.^.^.(.^.^.^.I.I.(.(.I.I.#XI.6X6XI.^.#XI.^.I.I.I.(.I.I.I.I.W.(.I.#X#XI.(.#X(.I.I.(.(.(.I.(.(.(.(.(.I.(.I.(.(.(.(.(.(.#X(.1X(.(.(.(.(.(.(.(.#X(.(.(.(.(.(.(.(.(.I.(.(.#X#X#X(.(.(.(.(.#X(.(.(.(.#X(.I.#X(.#X#X(.I.(.(.(.(.(.(.(.(.(.(.(.(./.I.(.(.(./.(.].].(.(.(.(.(.(.(.(.(.(.(.(.(.(.(.(.(.].(.(.(.I.I.1X1X#X(.1X#X#XI.(.(.(.#X#X^.#X#X(.(.(.(.#X#X1X].(.(.#X#X1X#X#X(.(.(.(.(.#X#X].(.(.(.#X(.(.#X1X1X(.(.(.(.(.#X#X#X(.(.#X(.(.(././.1X1X1X#X#X#X#X(.(.(.(.(.(.(.(.#X#X^.(.(.1X(.].(.#X#X(.(.#XI.(.(.].(.#X#X#X#X1X].(.1X1X(.#X#X#X#X1X#X(.(.1X(.1X1X#X(.(.(.1X#X1X(.#X1X(.(.1X1X#X(.1X1X1X#X#X#X#X(.#X#X#X#X1X1X1X#X(.^.#X1X#XI.#X1X1X#X#X#X(.(.#X#X^.I.#X#X^.^.#X(.#X#X#X#X1X#X1X1X#X#X1X1X1X1X#X#X#X1X1X1X1X1X1X1X#X1X1X1X1X#X#X(.1X1X1X#X#X#X1X#X1X1X1X#X1X#X#X(.1X1X1X#X#X#X1X1X#X(.#X(.#X#X1X#X#X#X1X#X#X#X#X#X(.#X1X3X1X1X1X1X#X1X1X1X1X#X#X(.#X1X#X(.#X#X1X#X1X#X#X#X1X#X#X#X#X#X#X(.#X#X1X(.#X#X#X#X#X#X#X(.1X#X1X#X1X(.#X1X1X1X1X#X1X#X#X#X#X#X1X#X1X1X1X#X1X1X1X(.1X#X].I.1X1X1X#X1X1X1X1X1X1X1X(.(.(.#X#X(.(.(.(.(.(.1X(.(.#X(.(.1X(.1X#X#X#X].(.(.1X#X(.^.#X#X(.#X3Xl t G.@.+ , Q Y I.4X#X#X#X^.#X#X(.#X#X(.#XI.(.(.#XI.#X#X(.^.(.#X#X(.^.^.#X(.#X(.(.^.(.(.(.(.",
"(.1X1XI.(.(.(.1X(.I.I.(.I.I.(.I.(.I.I.I.I.(.(.I.I.I.#X(.(.I.(.(.1X1X1X(.I.I.1X1X].1X].(.(.(.(.(.(.(.(.(.(.I.(.(.(.(.(.#X(.I.I.I.(.I.#X(.I.I.(.(.I.(.I.I.(.(.(.I.(.(.(.#X#X#X#X(.(.(.I.(.(.(.(.(.(.I.(.(.(.(.(.(.#X#X#X#X#X(.(.(.(.^.(.(.(.#X^.(.^.^.(.(.#X(.^.I.^.(.#XI.(.#X(.W.I.I.#XI.^.(.I.W.^.I.(.I.I.#X#XI.^.I.#XI.#X#X(.#X#X#X#X#X#X#X#X#X#X#X#X^.(.#X(.I.^.I.I.I.^.^.#X(.^.^.^.I.(.(.I.I.^.I.I.I.PXPXL.I.I.I.I.I.^.I.I.I.I.I.(.I.^.I.(.I.I.(.#XI.(.(.(.(.(.(.^.I.(.(.(.(.(.(.(.(.(.#X(.(.(.#X#X(.1X(.(.(.(.(.#X#X1X(.#X(.(.(.(.(.(.(.(.I.#X#X(.#X(.(.(.(.(.(.(.I.(.(.(.(.(.(.#X(.(.(.(.(.(.(.(.I.(.(.(.(.(.(.(.(.(.(.(.(.(.1X1X(.(.(.(.(.(.(.(.(.(.(.(.(.(.(.I.(.].I.(.(.(.I.(.#X(.#X#X(.(.(.#X(.I.#X(.I.#X#X^.(.#X(.1X1X#X].#X(.#X#X(.#X#X(.(.(.(.(.(.#X].(.(.(.#X(.(.#X#X#X(.(.(.(.(.(.#X#X#X(.#X#X(././.(.(.1X1X1X#X#X(.(.#X(.(.(.(.(.#X1X#X^.(.(.].].].(.#X(.(.(.(.#X(.I.(.].(.(.#X#X(.#X#X(.#X(.#X(.#X(.(.(.(.(.(.(.(.1X#XI.#X(.#X1X#X#X#X(.1X#X1X#X#X(.1X1X#X#X#X#X#X#X#X#X#X#X#X1X#X#X#X(.(.1X#XI.(.#X#X#X#X#X#X#X#X#X(.I.(.#X(.I.#XI.#X(.#X#X#X#X1X1X#X#X1X1X#X#X1X#X1X#X1X1X1X#X#X#X1X1X1X1X1X#X#X(.#X1X1X#X#X(.1X1X1X(.#X#X#X#X(.#X1X#X1X#X#X#X#X1X#X#X#X#X#X#X#X#X#X#X#X#X1X#X#X#X#X#X#X1X#X#X#X#X#X#X#X#X#X1X#X#X1X#X#X#X#X#X#X1X#X#X1X#X#X#X#X1X#X^.#X(.#X(.I.^.#X(.#X#X#X#X#X#X#X1X#X1X#XI.#X#X1X1X1X1X#X#X1X1X1X#X1X#X#X1X1X#X#X#X1X1X1X(.(.(.(.#X#X#X1X#X1X#X#X1X1X1X1XI.#X(.(.(.(.#X(.(.(.#X(.I.#X^.(.#X#X#X#X#X#X#X#X#X#X(.#X(.(.(.H.#X_   q 9 O o y 4X>XQ.#X1X#X#X#XI.#X(.(.(.#X#X#X#X(.#X(.#X#XI.#X#X#X#X^.I.#XI.I.L.I.I.I.I.I.#X",
"(.(.#X(.(.(.(.(.1X#X#XI.I.I.#XI.#X#X#XI.I.W.(.(.(.(.#X#X1X#X(.(.(.#X1X1X(.(.1XI.I.I.(.(.1X1X1X(.(.(.#X#X#X(.(.(.(.^.#X(.(.(.#X(.(.I.#X#X(.(.(.(.(.I.(.(.(.#X#X(.#X(.(.^.(.(.#X#X(.I.I.#X#X(.^.(.#X#X#X(.(.#X#X(.^.^.^.#X#X#X#X#X#X#X#X#X#X#X#X#X#X#X#X#X#X#X#X#X#X#X^.I.#X#X#X#X^.#X#X^.#X#X#X#X^.^.#XI.#X#X#X#X#X#X#X#X#X#X#X#X#X#X#X#X#X#X#X#X#X#X#X#X#X#X#X#X^.#X#XI.#X#X#X#X#X^.#XI.I.^.I.I.I.I.#XW.2X#XL.#X#XI.#X^.#X#X#X^.^.#X#X^.^.^.^.L.^.#X(.I.(.(.#X(.#X(.#X#X(.(.#X#X(.(.#X(.#X#X#X(.#X(.#X#X1X1X#X#X#X#X#X#X1X1X1X#X#X#X#X(.#X#X#X(.#X#X#X(.(.(.(.(.#X#X(.(.(.I.(.I.^.I.^.I.(.(.(.(.(.(.(.(.#X#X#X(.#X#X#X(.(.(.#X(.(.(.(.(.(.(.(.(.(.(.#X(.(.(.(.(.(.(.(.#X#X(.I.#X#XI.#X#X#X#X#X#X#X#X#X#X(.#X#X^.1X#X#X(.#X#X#X1X#X#X(.(.(.#X#X#X#X#X#X(.#X#X(.(.(.1X#X#X#X#X#X#X(.(.#X#X#X#X#X#X#X#X#X(.#X#X(.(.].(.#X(.#X#X#X#X#X#X1X#X#X(.#X#X#X#X#X(.1X(.#X(.1X#X#X(.(.(.#X#X#X(.#X(.#X#X#X#X#X#X#X(.#X#X#X#X#X#X#X#X1X1X1X#X#X#X#X#X#X#X#X#X1X#X(.(.1X1X#X#X#X#X1X#X1X#X#X#X1X1X#X#X1X#X1X1X#X#X#X(.#X1X#X^.#X#X1X#X#X#X#X#X#X#X#X#X#X#X#X#X#X#X1X#X1X#X#X#X1X#X#X#X1X1X#X#X#X#X1X#X1X1X1X#X#X#X1X1X1X1X#X#X#X#X#X#X1X1X1X#X1X1X#X#X1X1X1X#X#X1X1X#X#X#X#X#X#X#X#X#X#X#X#X#X#X#X#X#X#X#X#X#X#X#X#X#X1X#X#X#X#X#X#X#X#X#X#X#X#X#X1X#X#X#X#X#X#X#X#X#X#X1X#X#X#X1X#X#X#X#X#X^.I.#X#X#X#X1X#X#X#X#X#X#X1X#X#X#X#X#X2X1X1X1X1X1X1X1X1X1X1X#X#X#X1X#X#X#X#X1X1X1X1X#X#X#X#X#X#X#X#X#X#X#X1X2X1X1X#X#X#X(.#X#X#X(.#X#X#X#X#X#X#X#X#X#X1X#X1X#X#X#X#X#X#X(.(.I.1X6XG.: O 4 s , l a.Q.7X4XrX9X#X#X#X#X#X#X#X#X#X#X#X#X#X#X#X#X#X#X#X#X#X#X^.#X#XI.#X#XI.#XI.W.#X",
"I.I.I.(.#X#X#XI.(.I.#XI.#XW.I.#X#XW.W.I.I.I.#X#X#X#X#X#X1X#X#X(.I.(.1X1X(.I.#X1X(.(.1X#X#X#X1X#X#X(.#X#X#X(.(.(.#X(.(.(.#X^.(.#X(.I.#X#X(.(.(.(.I.I.#XI.^.#X(.(.(.^.#X^.^.^.I.#X(.I.I.#X(.(.^.(.#X#X#X#X#X#X#X#X#X^.#X#XW.#X(.#X#X#X#X#X#X#X#X#X#X#X#X#X#X#X#X#X#X#X#X^.I.#X#XW.#X#X#X#X#X#X#X#X#X^.#X#X#XW.#X#X#X#X#X#X#X#X#X#X#X#X#X#X#X#X#X#X#X#X#X#X#X#X#X#X#X#X#X#XW.#X#X#X#XW.#XI.I.#X#XI.#XI.#X#XW.L.#XI.#XW.#X#XW.#X#X#X#X^.^.^.I.#X^.L.#XI.#X^.^.^.#X#X#X#X#X#X#X#X#X#X#X^.^.(.#X(.#X#X#X^.#X#X#X1X#X#X#X#X#X#X#X#X#X#X#X#X#X#X#X#X#X(.#X#X#X(.(.(.#X#X#X#X(.(.(.^.(.#X#XI.(.I.I.I.I.I.I.I.(.(.#X#X#X#X#X(.(.(.#X#X#X(.(.^.#X(.^.^.(.(.(.(.#X#X#X(.#X#X#X(.(.#X#XI.#X#X#X#X#X#X#X#X#X#X#X#X#X#X(.#X#X#X1X#X(.#X#X#X#X#X#X#X(.(.1X#X#X#X#X#X#X#X#X#X#X(.#X#X#X#X#X#X#X#X(.(.#X(.#X#X#X#X#X#X#X#X#X#X#X#X1X#X(.#X#X#X#X#X#X#X#X#X#X#X#X#X#X#X#X#X#X#X#X#X#X#X#X#X#X#X#X#X#X#X(.(.#X#X#X#X#X#X(.#X#X#X#X#X#X#X#X#X#X1X1X#X1X#X1X#X#X#X#X#X#X#X#X#X#X#X#X#X#X#X#X#X1X#X#X#X#X1X#X#X#X#X#X#X#X#X#X#X#X#X#X#X#X#X#X#X#X#X#X#X#X#X#X#X#X#X#X#X#X#X#X#X#X#X#X#X#X#X#X1X1X1X#X#X#X#X#X#X1X#X#X#X#X#X#X1X#X#X#X#X2X#X#X#X1X1X#X#X#X#X#X#X#X#X#X#X1X#X#X#X#X#X#X#X#X#X#X#X#X#X#X#X#X#X#X#X#X#X#X#X#X#X#X#X#X#X#X#X1X#X#X#X#X#X#X#X#X#X#X#X#X#X#X#X#X#X#X#X#X#X#X#X1X#X^.#X#X#X#X#X#X#X#X#X#X#X#X#X#X#X#X#X#X#X#X#X#X1X1X1X#X1X1X1X#X1X1X1X#X#X#X#X#X#X#X#X#X#X#X1X#X1X#X#X#X#X#X#X#X#X#X#X#X#X#X1X1X#X#X^.#XI.#X#X#XI.#X#XW.#X#XW.#X#X#X#X#X#X#X#X#X(.#X#XI.^.i.l O.HXB o w O 0 f.6XC.G.l 9.9X#X#X#X#X#X#X#X#X#X#X#X#X#X#X#X#X#X#X#X#X#X#X#X#X#X#X#X#X#X#X#XW.",
"I.I.#X(.#X#X(.#X#XI.W.#X#X#X#XW.#XI.#X#XI.I.#X#X#X#X#X#X1X#X(.#X#X(.1X1X1X(.1X#X#X#X1X#X#X#X#X1X#X#X#X#X#X#X#X#X#X#X^.#X#X^.#X#X(.(.#X#X#X#X#X#X(.#X#X#X#X#X#X#X^.#X#X#X#X#X#X#X#X^.#X#X#X^.#X#X#XI.^.^.#X#X#X#X#X#X#X#X#X#X#X#X#X^.I.#X#X#X#X#X#X#X#X#X#X#X#X#X#X#X#X#X#X#X#X#X#X#X#X#X#X#X#X#X#X#X#X#X#X#X#X#X#X#X#X#X#X#X#X#X#X#X#X#X#X#X#X#X#X#X#X#X#X#X#X#X#X#X#X#X#X#X#X#X#X#X#XI.#XI.W.W.#X#X#X#X#X#X#XW.#X#X#X#X#X#X#X#X#X#X#X#X#X#X^.L.#X^.^.^.^.^.#X#X#X#X#X#X#X#X#X#X#X#X^.#X#X#X#X#X#X#X#X#X#X#X#X#X#X#X#X#X1X1X#X#X#X#X#X#X#X#X#X#X#X#X#X^.#X#X#X#X#X#X#X#X#X#X#X#X#X#X#X#X#X#X#X#X(.(.#X#X#X#X#X#X#X#X#X#X#X#X(.#X#X#X#X(.(.(.(.#X#X#X#X#X#X#X#X#X#X#X#X#X#X#X#X#X#X#X#X#X#X#X#X#X#X#X#X#X#X#X#X#X1X#X#X1X1X#X#X#X#X#X#X#X1X#X#X#X#X#X#X#X#X#X#X#X#X#X1X#X#X1X1X1X1X1X#X#X#X#X#X1X#X#X#X#X#X#X#X#X#X#X#X#X#X#X1X#X#X#X#X1X1X#X#X#X#X#X#X#X#X#X#X#X#X#X#X#X1X#X#X#X#X#X#X#X#X#X#X#X#X#X#X#X#X#X#X#X#X#X1X#X#X#X1X1X#X#X#X#X2X#X#X#X#X#X1X#X#X#X#X#X1X#X1X2X2X#X#X#X1X#X2X#X#X#X2X2X2X$X$X#X1X#X#X#X#X#X#X#X#X#X#X#X#X#X#X#X1X#X#X#X2X#X#X#X#X#X#X#X1X#X1X1X1X1X#X#X#X1X1X1X1X#X#X#X2X#X#X#X#X#X2X2X2X2X1X#X1X#X#X#X#X#X#X#X1X#X#X1X#X#X#X#X#X#X#X#X#X#X#X#X#X#X$X$X$X#X#X#X#X#X#X#X1X#X#X#X#X#X1X2X1X1X1X1X#X#X1X1X1X1X#X#X#X#X#X#X#X1X1X#X#X#X#X#X#X#X#X#X#X#X#X#X#X#X#X#X#X#X#X#X#X#X#X#X#X#X#X#X#X#X#X#X#X1X1X1X1X#X1X#X#X#X#X#X#X#X1X#X#X#X#X#X#X#X#X#X#X#X#X#X1X1X#X#X#X#X#X#X#X^.I.I.#XW.#XI.#XW.1X#X2X#X#X#X#X#X#X#X#X#X#X#X#X#X#X#X^.qX^   ; Q HXY > > Y JXQ O 0.+ b rX#X#X2X#X#X#X#X#X#X#X#X#X#X#X#X#X#X#X#X#X#X#X#X#X#X#X#X#X#X#X#X#X",
"(.(.(.#X#X#X#X#X#XI.W.#X#X#X#X#X(.I.#X(.#XI.W.#X#X#X#X#X#X#X#X(.#X#X#X#X#X#X#X(.#X#X#X#X#X#X#X#X#X#X#X#X#X^.#X#X#X#X#XI.#X#X#X#X#X#X#X#X#X#X#X#X#X#X#X#X#X#X#X#X#X#X#X#X#X#X#X#X#X#X#X#X#X#X#X#X#X#X#X#X#X#X#X#X#X#X#XW.#X#X#X#X#X#X#X#X#X#X#X#X#X#X#X#X#X#X#X#X#X#X#X#X#X#X#X#X#X#X#X#X#X#X#X#X#X#X#X#X#X#X#X#X#X#X#X#X#X#X#X#X#X#X#X#X#X#X#X#X#X#X#X#X#X#X#X#X#XW.#X#X#X#XW.#X#XW.#XW.#XW.W.W.I.#X#XL.#X#XL.#X#XW.I.#X#X#X#X#X#XW.#X#X+X#X#XL.#X#XI.#X#X#X#X#X#X#X#X#X#X#X#X#X#X#X#X#X#X#X#X#X#X#X#X#X#X#X#X#X#X#X#X#X#X#X#X#X#X#X$X$X#X#X#X#X#X#X#X#X#X#X#X#X#X#X#X#X#X#X#X#X#X#X#X#X#X#X#X#X#X#X#X#X#X#X#X#X#X#X#X#X#XW.#X#X#X#X#X#X#X(.#X#X#X#X#X#X#X#X#X#X#X#X#X#X#X#X#X#X#X#X#X#X#X#X#X#X#X#X#X#X#X#X#X#X#X#X#X#X#X#X#X#X#X#X#X#X#X#X#X#X#X#X#X#X#X#X#X#X#X#X1X#X#X#X#X#X1X#X#X#X#X#X#X#X#X#X#X#X#X#X#X#X1X#X#X#X#X#X#X#X#X#X#X#X#X#X#X#X#X#X#X#X#X#X#X#X#X#X#X#X#X#X#X#X#X#X#X#X#X#X#X#X#X#X#X#X#X#X#X#X#X#X$X#X#X#X#X#X#X#X$X#X#X$X$X$X2X$X1X2X#X#X$X$X2X2X2X2X#X#X#X#X#X#X#X#X#X#X#X$X$X$X$X#X#X#X#X#X#X#X#X#X#X#X#X$X#X#X#X#X#X#X#X#X#X$X#X#X1X#X#X#X1X#X1X#X1X#X$X#X#X#X1X#X#X#X#X#X#X$X#X#X#X#X#X$X#X2X2X#X$X#X$X#X2X2X2X#X2X$X#X#X#X#X#X#X#X#X#X#X2X2X$X#X#X#X$X$X$X#X#X#X#X#X$X#X#X#X$X#X#X#X#X#X#X#X1X#X#X#X#X#X#X#X#X#X#X#X#X#X1X#X#X#X#X#X#X#X#X#X#X#X#X#X#X#X#X#X#X#X#X#X#X#X#X#X#X#X#X#X#X#X#X#X#X#X1X#X#X#X#X#X#X#X#X#X#X#X#X#X#X1X#X#X#X#X#X#X#X#X#X#X#X#X#X1X1X#X#X#X#X#X#X#X#XW.#X#XW.W.W.#X#XI.I.W.6X2X#X#X#X#X#X#X#X#X#X#X#XW.#X1X].C h   C C . o ' PXh O 0.= + 4X#XW.#X#X#XW.#X#X#X#X#X#X#XW.#X#X#X#X#XW.#X#X#X#X#X#X#XW.W.W.#X#X",
"#X#X#X#X#X#X#X#X#X#X#X#X#X#X#X#X#X#X#X#X#X#X#X#X#X#X#X#X#X#X#X#X#X#X#X(.#X#X#X#X#X#X#X#X#X#X#X#X#X#X#X#X#X#X#X#X#X#X#X#X#X#X#X#X#X#X#X#X#X#X#X#X#X#X#X#X#X#X#X#X#X#X#X#X#X#X#X#X#X#X#X#X#X#X#X#X#X#X#X#X#X#X#X#X#X#X#X#X#X#X#X#X#X#X#X#X#X#X#X#X#X#X#X#X#X#X#X#X$X#X#X#X#X#X#X#X#X#X#X#X#X#X#X#X#X#X#X#X#X#X#X#X#X#X$X#X#X$X$X$X$X#X#X#X#X#X$X#X#X#X$X#X#X#X#X#X#X#X#X#X#X#X#X#X#X#X#X#X#X#X#X#XW.#X#XW.#X#X#XW.W.#X#X#X#X#X#X#X#X#X#X#X#X#X#X#X#X#X#X#X#X#X#X#X#X#X#X#X#X#X#X#X#X#X#X#X#X#X#X#X#X#X#X#X#X#X#X$X2X$X$X#X#X#X$X#X#X#X#X#X#X#X#X#X#X#X#X#X#X#X#X#X#X#X#X#X#X#X#X#X#X#X#X#X#X#X#X#X#X#X#X#X#X#X#X#X#X#X#X#X#X#X1X#X#X#X#X#X#X#X#X#X#X#X#X#X#X#X#X#X#X#X#X#X#X#X#X#X#X#X#X#X#X#X#X#X#X#X#X#X#X#X#X#X$X#X#X#X#X#X#X#X#X#X#X#X#X#X#X#X#X#X#X#X#X#X#X#X#X1X#X#X#X#X#X#X#X$X$X$X#X#X#X#X#X#X#X#X1X#X#X#X1X1X#X#X1X1X1X#X#X2X#X#X#X#X#X#X#X#X$X#X#X#X#X#X#X#X#X#X#X#X#X#X#X#X2X#X#X#X#X#X$X$X$X#X#X$X$X#X#X#X2X$X$X$X$X$X#X2X$X$X$X#X#X#X$X$X2X2X$X$X2X$X2X2X2X$X#X#X$X2X2X2X#X$X$X$X$X#X$X#X#X#X#X#X$X#X#X$X$X$X$X$X$X$X#X$X$X#X$X$X#X#X$X$X#X#X$X$X$X2X$X$X#X#X$X#X$X$X#X#X2X#X$X$X2X#X$X$X2X$X2X2X$X$X2X$X$X$X$X2X4X4X4X$X$X#X#X#X#X2X#X2X2X$X$X$X$X$X$X$X$X#X#X$X$X$X2X2X2X#X$X$X$X2X$X$X$X#X$X$X$X$X#X$X2X$X$X$X$X#X#X#X#X#X#X$X#X#X2X2X#X#X#X$X$X$X#X#X$X$X2X#X#XW.#X#X#X#X#X$X$X#X#X#X#X#X#X#X#X#X2X$X#X#X2X#X#X#X#X#X#X#X2X#X$X#X#X1X2X#X#X#X#X#X1X#X#X#X#X#X#X#X1X#X#X#X#X#X$X#X#X#X#X#X#X#X#X#X#X#Xd.7.^ Y ^ e.3X1X#X#X1X#X1X#X#X1X1X1X1X#X4X2XH.h   O = & q C - o 9.9.Y 2X$XQ.#X#X#X#X#X#X#X#X#X#X#X#X#X#X#X#X#X#X#X#X#X#X#X#XW.#X#X#X#X#X",
"#X#X#X#X#X#X#X#X#X#X#X#XW.#X#X#X#X#X#X#X#XW.#X#X#X#X#X#X#X#X#X#X#X#X#X#X#X#X#X#X#X#X#X#X#X#X#X#X#X#X#X#X#X#X#X#X#X#X#X#X#X#X#X#X#X#X#X#X#X#X#X#X#X#X#X#X#X#X#X#X#X#X#X#X#X#X#X#X#X#X#X#X#X#X#X#X$X#X#X#X#X#X#X#X#X#X#X#X#X#X#X#X#X#X#X#X#X#X#X#X#X#X#X#X#X#X$X#X#X#X#XQ.#X#X#X#X#X#X#X#X#X#X#X#X#X#X#X#X#X#X#XQ.$X$X$X$X#X$X$X$X+X+X$X$X#X$X$X$X$X$X$X$X$X$X#X#X#X$X$X$X#X#X#X#X#X#X#X$X#XW.#X#X#XQ.#X#XW.$X#X#X$X#X$X#X#X#X#X#X#X#X#X#X#X#X#X#X$X#X#X$X#X#X#X#X#X#X#X#X#X#X#X#X#X#X#X#X$X#X$X#X#X#X$X$X$X#X$X2X$X$X$X$X2X$X$X$X$X#X$X#X$X#X#X#X#X#X#X#X#X#X#X#X#X#X#X#X#X$X#X#X#X#X#X#X#X#X#X#X#X#X#X#X#X#X#X#X#X#X#X#X#X#X#X#X#X#X#X#X#X#X#X#X#X#X#X#X#X#X#X#X#X#X#X#X#X#X#X#X#X#X#X#X#X#X#X#X#X#X#X#X$X#X#X#X$X#X#X$X#X#X#X#X$X#X#X#X$X#X#X#X$X$X#X#X#X#X$X$X#X#X#X#X$X#X#X#X$X$X$X$X2X$X$X#X$X#X$X#X#X#X#X#X#X#X#X#X#X2X#X#X#X#X1X#X#X#X2X#X#X#X$X#X#X#X$X#X#X#X#X#X#X#X#X#X#X$X$X2X$X#X#X$X$X#X$X$X$X#X$X#X$X#X$X$X$X$X%X$X$X#X$X$X$X#X#X#X#X$X$X$X$X$X$X$X$X$X2X$X2X#X#X4X4X2X2X#X$X$X2X$X$X$X2X$X$X$X2X$X$X+X$X$X$X$X$X#X$X#X$X$X$X#X#X$X$X#X$X$X#X#X$X4X$X#X$X#X$X$X$X$X$X$X2X2X2X2X2X$X#X#X2X2X2X2X$X$X2X$X$X2X%X$X$X4X2X#X#X#X#X#X2X#X$X2X2X$X$X$X2X$X$X#X$X#X$X$X$X$X$X%X2X#X#X#X2X$X$X#X#X$X$X$X$X#X$X$X$X$X$X$X$X#X$X#X$X$X$X#X$X$X$X$X#X#X$X$X$X$X$X$X#X$X#X$X$X#X#X#X#X$X$X#X$X$X$X#X#X#X#X#X#X#X$X$X2X#X2X2X2X#X$X#X$X$X#X#X#X#X$X#X$X#X#X#X2X#X#X1X1X#X#X#X#X#X#X#X1X#X#X#X#X#X#XW.#X#X#X#X#XQ.#X#X#XW.1XC.^ l ^ 3X1X#X1X#X1X#X#X#X#X1X#X1X#Xf.f.a.B - & ; .   + + 5XUXwXQ.+XQ.#X+XQ.+X#X#X#X#X#XQ.#X#X#X$X$X#X#X#X#X$X$X#X$X#X$X#X#X#XQ.$X",
"#XW.L.I.#X#X#X#X#X#X#X#X^.#X#X#X#X#X#X#X#X#X#X#X#X#X#X#X#X#X#X#X#X#X#X#X#X#X#X#X#X#X#X#X$X#X#X#X#X#X#X#X#X#X#X#X#X#X#X$X$X#X#X$X#X#X#X#X#X#X#X$X$X#X#X#X#X#X#X#X$X#X$X#X#X+X$X#X#XW.#X+X$X#X#X$X$X#X#X$X$X#X#X#X$X#X$X$X$X$X$X$X$X#X#X$X$X$X#X#X$X$X$X$X9X$X$X$X#X$X$X#X$X#X#X+X+X#X$X$X$X$X$X$X$X$X#X#X$X$X$X$X#X+X4X$X+X+X$X$X$X$X$X+X$X$X$X$X$X$X$X$X+X$X$X$X$X$X4X$X#X$X$X$X$X#X#X#X#X#X$X#X$X#X#X#X$X#X#X#X$X$X$X$X$X$X$X$X$X$X$X#X#X$X#X$X$X#X#X$X$X#X$X$X$X$X$X$X$X#X$X$X$X$X#X$X$X$X$X$X$X#X$X$X$X$X2X4X$X#X$X$X2X$X$X$X$X$X2X$X$X#X#X#X#X#X#X$X$X$X#X#X#X#X$X$X$X$X#X#X#X#X$X#X#X#X#X#X$X#X#X#X#X#X#X#X$X#X#X#X#X#X#X#X#X#X$X#X$X#X#X$X#X#X#X#X#X#X#X#X#X#X#X$X$X#X#X#X#X#X#X#X#X#X#X#X#X#X$X$X$X#X#X$X$X#X$X$X$X$X$X$X$X#X$X$X$X#X#X#X$X$X#X#X2X$X$X#X$X$X$X$X$X$X$X$X$X$X$X$X$X$X2X2X$X$X$X$X#X#X$X#X$X#X2X#X2X1X2X#X#X#X#X1X#X#X#X$X2X$X$X$X#X$X2X2X#X#X2X2X2X$X$X$X2X$X2X$X$X#X$X$X$X$X$X#X$X#X#X$X$X#X$X$X$X$X$X%X$X$X$X$X4X2X$X$X$X$X2X$X$X2X2X2X$X$X$X%X4X$X$X#X$X$X$X2X4X4X2X$X$X$X2X2X$X$X$X4X%X$X$X$X$X$X#X$X$X$X%X%X$X$X$X$X$X#X2X#X$X#X$X2X#X$X$X$X$X$X$X$X$X$X$XrXJXrX2X$X$X$X2X2X$X2X4X2X$X$X2X2X4X$X2X4X4X4X$X$X4X$X$X4X4X4X2X#X$X2X2X$X$X#X$X2X2X$X$X$X$X$X$X#X$X$X2X2X$X$X$X$X$X$X$X$X4X$X$X$X2X2X$X2X2X2X2X2X%X$X$X$X2X$X$X$X$X$X$X$X$X$X$X$X$X#X$X2X2X#X$X$X$X$X$X$X#X#X#X#X#X#X#X#X2X$X2X$X$X2X$X2X2X2X$X$X2X#X2X#X2X2X#X#X$X$X2X$X$X$X2X1X1X#X2X#X$X#X#X#X$X#X#X#X#X#X#XW.#X#X#XQ.#X#X#X#X1X2X6XO.t 9.6X#X1X#X#X1X#X#X#X#X#X#X2X#Xa.f.KX^ % $ i B h E + ^ 7XW.+X#X#XQ.+X$X$X#X#X$X$X$X$X$X$X#X#X#X#X#X$X$X$X$X$X#X$X$X$X#X#X$X",
"#XW.W.W.#X#X#X#X#X#X#X#X#X#X#X#X#X#X#X#X#X#X#X#X#X#X#X#X#X#X#X#X#X#X#X#X#X#X#X#X#X#X#X$X$X$X#X#X#X#X$X$X#X$X#X#X#X#X$X#X$X+X#X#X$X+X$X+X$X#X+X+X$X#X#X#X$X#X#X#X#X#X#X+X$X+X+X+X#X+X+X#X+X+X+X+X+X$X+X#X+X#X#X+X$X+X+X$X$X+X$X$X$X#X$X$X$X$X$X#X$X$X+X7XPX7X+X+X$X#X$X$X+X+X+XQ.#X+X$X+X$X$X$X$X$X$X$X$X+X$X$XQ.+X+X$X$X+X$X$X+X$X$X$X$X$X+X$X+X$X$X$X+X$X$X$X$X$X#X#X$X$X#X$X+X#X#X#X#X$X+X#X+X#X#X$X#X#X$X$X#X$X+X$X$X$X$X$X+X$X$X$X#X+X$X#X$X+X#X$X+X$X$X#X+X$X$X$X$X$X$X$X$X$X#X$X$X$X$X$X#X$X$X$X$X$X$X$X%X$X#X$X$X$X$X$X$X$X$X$X$X$X$X#X#X#X#X#X$X$X$X$X#X$X#X#X$X#X$X#X#X$X#X$X$X#X#X#X#X$X#X#X#X#X#X#X#X#X#X#X#X#X#X#X#X$X#X$X#X$X$X$X#X#X$X$X$X$X#X#X#X#X#X#X$X$X$X$X$X#X$X#X#X#X#X#X#X$X$X$X$X#X#X$X#X$X$X$X#X$X#X$X$X$X$X$X$X$X#X$X#X#X$X$X$X$X$X$X#X$X#X$X$X#X#X$X#X2X$X$X2X$X$X2X2X$X$X$X#X$X#X#X#X$X$X$X$X#X#X#X#X2X#X#X#X2X#X2X$X$X$X$X#X2X2X2X2X#X#X2X#X$X$X$X#X#X2X$X#X$X$X$X$X#X$X$X$X#X+X$X$X$X$X$X%X$X+X$X$X%X$X$X$X2X2X$X#X2X$X$X$X$X$X$X$X$X$X$X$X%X$X$X$X$X#X$X$X2X4X$X#X$X$X$X2X2X$X$X$X$X$X+X+X$X+X$X#X$X$X$X$X$X$X2X#X#X$X#X$X$X#X$X$X$X#X$X$X$X#X$X$X#X$XrXIXUXPX#X2X$X$X$X2X$X4X4X$X2X2X2X2X2X%X4X2X4X%X%X$X$X$X2X2X%X2X#X#X2X$X$X$X$X$X$X$X$X$X$X$X$X$X$X#X$X#X#X$X2X2X%X$X$X$X$X2X%X2X$X$X$X$X2X$X2X$X2X$X$X$X$X$X$X$X$X$X$X2X2X$X$X$X$X$X#X#X#X$X$X#X#X#X#X$X#X#X#X#X#X#X#X#X$X#X#X$X$X#X2X$X2X$X2X$X$X#X$X2X#X#X$X$X#X#X$X$X$X$X$X$X#X#X2X#X2X2X#X#X#X#X#X$X#X#X#X#X#XW.W.#X#X#X#X#X#XQ.Q.W.$XP.m P 3X#XW.1X1X#X1X#X#X#X#X#X#XW.f.f.^.B % . 9.PXQ m   u.7XW.Q.Q.#XQ.#X$X$X#X+X#X$X$X$X#X#X#X#X#X#X#X#X#X$X$X$X#X#X#X$XQ.$X#X",
"#X#X#X#X#X#X#X#X#X#X#X#X#X#X#X#X#X#X#X#X$X#X#X#X#X#X#X$X$X#X#X#X#X#X$X#X#X#X#X#X$X#X#X$X$X$X$X#X#X#X$X$X$X$X$X$X#X#X$X$X$X+X#X#X$X#X$X$X$X+X$X+X#X+X$X+X+X+X+X+X$X+X#X+X$X+X+X$X+X$X$X+X+X$X+X+X+X+X+X+X+X+X$X$X+X$X$X+X$X+X+X$X+X+X$X$X$X$X$X$X$X$X$X$X7X$X$X$X$X+X$X$X$X$X$X+X+X$X$X$X$X$X$X$X$X$X$X$X$X$X$X$X+X$X$X+X$X$X$X$X$X$X$X$X$X$X$X$X$X$X$X$X%X$X$X+X4X$X$X$X$X$X$X$X+X$X$X$X$X+X+X+X$X$X+X+X$X+X$X+X+X$X$X$X$X$X$X+X$X$X$X+X$X$X+X$X$X$X$X$X$X$X$X$X$X$X$X$X$X$X$X$X#X#X$X$X$X$X$X$X#X$X$X$X$X$X$X$X$X$X2X$X$X$X$X$X%X$X$X$X$X$X$X$X#X$X$X#X$X$X$X$X$X$X$X$X$X$X#X#X$X#X#X#X#X$X$X#X$X#X#X#X$X#X$X#X$X$X$X$X$X$X#X#X$X$X$X$X$X#X$X$X2X$X$X$X$X$X$X#X$X#X$X#X#X#X#X#X$X$X$X$X#X#X#X#X$X$X$X$X#X#X$X$X$X$X$X$X$X$X$X$X$X$X$X#X$X$X$X$X$X$X2X$X$X$X$X$X$X$X2X2X$X#X$X$X2X2X#X#X$X$X$X2X$X$X$X$X$X$X2X$X$X#X#X#X2X$X$X$X2X$X$X2X2X$X$X$X$X$X$X$X2X2X2X2X#X1X2X$X$X$X$X#X#X#X#X$X2X2X$X$X$X2X$X$X$X$X$X$X$X$X%X%X$X$X$X$X$X$X%X$X%X$X$X$X$X#X$X$X$X$X$X$X$X2X%X2X%X4X$X$X2X$X2X$X2X2X$X2X%X%X2X2X$X$X$X$X$X$X$X$X$X$X$X$X$X$X$X#X$X$X$X$X$X$X$X$X$X$X$X4X#X$X2X$X$X$X$X$X$X$X9XPXIXJX$X4X4X2X$X2X4X$X$X$X2X4X2X2X%X2X%X%X4X2X4X$X$X2X$X#X$X$X$X$X2X2X2X$X2X$X$X$X$X#X#X$X$X$X$X$X$X$X2X$X$X$X$X$X2X$X2X$X$X#X#X$X2X2X%X$X2X2X$X#X$X$X2X$X$X$X$X$X$X$X2X2X2X$X$X$X$X$X$X#X$X$X#X$X2X#X$X$X#X$X$X#X$X$X$X$X#X#X#X2X4X2X2X2X2X$X2X4X2X$X#X#X2X#X2X$X2X$X2X2X$X$X$X$X2X$X2X$X$X#X$X#X#X#X#X#X#X#X#X#X#X#X#X#X#X#X#X#X#X#X#X4X^ t C.#XI.#X#X#X1X#X1X#X#X#X#XL.$XY . - 7 O i B   . ^ JXQ.Q.Q.Q.+XQ.#X#X$X$X$X#X$X$X$X#X#X#X$X$X#X#X$X#X$X$X+X$X$X#X+X$XQ.+X",
"#X+X#X#X#X#X#X#X#X#X#X#X#X#X$X#X#X#X$X$X$X#X#X#X$X#X$X$X#X$X#X#X$X#X$X$X$X#X$X#X#X$X2X#X$X$X$X#X#X#X$X$X$X$X$X$X$X$X$X$X+X#X$X$X#X$X+X$X+X+X$X+X$X+X$X+X$XtX7XQ.+X+X$X#X+X$X$X+X$X+X+X$X$X+X$X+X+X+X+X$X$X+X$X+X$X+X$X+X+X+X$X+X$X+X$X$X$X+X$X$X$X+X$X+X+X+X$X+X$X$X$X$X$X$X$X$X$X$X$X$X$X$X$X+X$X+X+X$X$X$X$X$X$X$X$X$X$X$X$X$X$X$X$X$X$X$X$X$X$X$X$X$X+X$X$X+XQ.+X$X#X$X$X$X$X+X+X$X+X+X+X$X+X+X+X#X+X+X+X$X+X$X$X$X$X$X+X$X+X$X+X$X#X+X$X$X+X$X+X$X$X$X+X$X$X$X$X$X+X$X+X$X+X$X#X$X$X$X+X$X$X$X$X$X$X$X$X$X$X$X$X$X2X%X$X$X$X$X$X$X$X$X$X$X$X$X$X$X$X$X$X$X$X$X$X$X#X$X$X#X$X$X$X#X#X$X$X$X$X#X#X#X+X$X$X$X$X$X$X$X$X$X#X$X#X#X$X$X$X#X#X$X$X$X$X$X$X$X$X$X#X$X#X#X#X$X#X$X#X#X#X$X#X#X#X$X#X$X$X$X#X$X#X$X$X$X$X$X$X$X$X$X$X$X$X#X#X$X$X$X$X$X$X$X$X$X$X$X$X$X$X$X2X$X#X#X$X$X2X#X#X$X$X$X$X$X#X$X$X$X4X4X$X#X$X$X$X$X$X2X$X$X$X4X$X$X$X$X$X#X#X$X$X$X2X$X$X$X#X2X2X$X$X#X$X#X#X$X$X$X$X$X$X$X$X$X$X$X$X$X$X$X$X%X$X4X$X$X$X$X$X$X$X$X$X$X$X$X2X$X$X$X$X%X2X%X$X2X%X%X$X$X$X$X$X$X$X$X$X2X$X2X%X2X$X2X$X$X%X$X+X$X$X$X$X$X$X$X$X$X$X$X$X2X$X2X$X$X$X$X$X$X$X$X$X$X$X2X$X$X$X%X$X$X$X4X$X4X4X4X$X2X#X$X$X#X$X2X2X4X2X2X2X2X$X2X$X$X2X$X$X2X%X$X$X2X$X$X$X2X$X$X$X$X#X#X#X$X$X$X$X$X$X$X$X2X$X#X#X$X$X$X2X#X2X$X$X$X$X$X2X$X2X$X$X$X$X2X$X$X$X$X2X$X$X$X$X2X2X2X2X$X$X$X#X#X$X$X#X2X2X$X$X$X$X$X$X$X$X$X$X$X$X$X#X$X$X4X4X2X2X2X2X2X2X2X#X$X#X#X2X$X2X$X2X2X2X$X$X%X$X$X2X2XQ.$X$X#X#X#X#X#X#X#X#X#X#X#X#X#X#X#X#XQ.#X#X#XW.4X^ t V.JX9X4X4X#X#X#X1X#X#X#X$Xf.+X9.0 < e > o - B i.JXQ.W.Q.+XQ.Q.+X+X#X+X+X+X$X+X+X#X#X$X#X#X#X#X+X#X#X#X+X$X+X#X+X$X#X$X#X",
"#X#X#X#X#X#X#X$X$X$X$X$X$X$X$X$X$X#X$X$X$X#X#X$X$X$X$X$X$X$X$X$X$X$X$X$X$X$X$X$X$X$X$X$X$X$X$X$X$X#X$X$X$X$X$X$X$X$X$X$X$X+X$X$X$X+X$X+X$X$X$X+X$X$X+X$XPXUXUXyX$X+X$X+X+X+X$X$X+X+X$X$X$X$X+X$X$X$X$X+X+X+X$X$X$X$X$X$X$X$X$X$X$X$X$X+X+XQ.+X+X+X+X+X$X$X$X$X$X+X$XQ.$X$X$X;X;X;X$X;X$X$X$X$X$X$X$X+X+X$X$X$X$X;X$X$X$X$X$X$X$X;X$X$X@X$X$X$X$X$X$X$X+X7XPXPXKX%X$X$X+X+X$X$X+X+X+X+X+X$X+X+X+X+X+X+X$X+X+X+X+X$X$X$X$X+X+X$X+X$X+X$X+X$X$X+X$X$X+X$X$X$X$X$X$X$X+X$X$X$X+X+X$X$X+X$X$X$X$X$X$X$X$X$X$X$X$X$X$X$X$X%X%X$X$X$X$X$X$X$X$X$X$X$X$X$X$X$X$X$X$X$X$X$X$X$X$X$X$X$X$X4X$X#X$X$X$X$X$X#X#X$X+X$X$X$X$X$X$X$X$X$X$X$X$X$X$X$X$X#X$X$X$X$X$X#X$X$X$X$X$X$X#X#X$X$X$X$X#X#X#X#X$X$X$X$X$X$X$X#X#X$X$X$X$X$X$X$X$X$X$X$X#X$X$X$X#X$X$X$X$X$X$X$X$X$X$X$X$X$X$X$X$X$X$X$X$X$X$X#X$X$X$X$X$X$X$X$X#X$X$X$X$X$X$X4X$X$X$X%X$X%X$X$X$X$X$X$X#X$X$X$X$X$X$X$X$X$X$X$X$X$X$X$X2X2X$X%X$X%X$X2X$X%X$X$X$X$X$X$X$X$X$X$X4X4X$X$X$X$X$X$X$X$X$X4X$X4X4X4X$X$X$X$X4X%X$X$X%X4X%X4X$X2X2X$X$X$X2X$X$X4X%X$X$X$X%X%X$X$X$X%X$X$X$X$X$X$X$X$X$X$X$X$X$X%X$X$X$X2X$X$X%X%X$X$X#X$X$X$X$X%X$X%X$X4X4X4X$X$X4X4X$X4X$X$X$X%X$X%X4X4X2X%X$X2X2X$X$X$X%X4X%X$X$X4X$X$X$X$X$X$X$X$X$X$X$X$X$X$X$X2X2X2X$X$X$X#X#X$X$X$X%X$X$X2X2X4X2X$X$X%X%X2X$X$X$X%X$X$X$X$X$X$X$X$X$X%X%X2X2X2X$X4X$X$X2X2X$X2X2X4X$X$X$X$X$X$X$X$X#X#X$X2X2X4X$X4X4X2X$X4X2X2X#X#X2X4X$X2X2X$X4X4X$X$X$X4X4X%X4XtXIXIXrX$X$X$X$X$X#X#X#X#X#X+X+X#X#X#X#X#X#X#X#X+X$X#X4Xq.m U B ' 9.P.6X9XW.#X#X$X#X%X%XW.eXd.& , 4 < l {.JXW.Q.+XQ.Q.+X$XQ.$X+X+XQ.+X+X+X#X#X$X$X+X$X+X$X$X+X+X+X+X$X+X+X+X$X$X$X+X",
"#X#X#X#X#X#X$X$X$X$X+X+X$X$X$X$X$X#X#X$X$X#X#X$X$X$X$X$X$X$X$X#X$X$X$X$X$X#X#X#X#X#X$X#X$X$X#X$X$X$X$X$X$X$X$X$X$X$X$X$X$X$X$X$X$X$X+X+X$X+X$X+X$X$X+X$XPXUXUXUXwX@X+X+X+X+X$X+X+X+X$X+X$X+X$X$X$X$X+X@X+X+XQ.$X$X$X$X+X$X$X$X$X$X$X$X+X+X$X$X+X$X$X$X$X$X$XQ.$X$XQ.$X$X$X$X$X@X$X;X$X;X$X$X$X$X$X$X$X$X$X$X$X$X$X$X$X+X$X$X$X$X$X$X$X@X$X$X$X+X$X$X+X>XPXUXUXUXKX$X+X$X+X+X$X$X+X+X$X+X+X+X+X+X+X+X+X+X+X+X$X+X$X$X+X+X$X+X+X+X+X$X$X+X$X$X$X$X$X$X$X+X$X$X$X$X$X$X$X+X$X+X$X+X$X+X+X+X$X$X$X$X$X$X$X$X$X$X$X$X$X$X$X$X%X$X$X$X$X+X$X$X$X$X$X$X$X$X$X$X$X$X$X$X$X$X$X+X#X$X+X#X$X$X#X$X$X$X$X$X$X$X$X+X$X$X$X$X$X#X$X$X$X$X$X+X+X$X$X+X$X$X$X$X$X$X$X$X$X$X$X$X$X$X$X#X$X$X$X$X$X#X$X#X$X$X$X$X$X$X$X$X$X$X$X$X$X$X$X$X$X$X$X$X$X$X$X#X$X$X$X$X$X$X$X$X$X$X$X$X$X$X$X$X$X$X$X$X$X$X$X$X$X$X$X$X$X$X$X$X$X$X$X$X%X%X$X$X$X$X$X$X$X$X$X$X$X$X$X$X$X$X$X$X$X$X$X$X2X$X$X$X$X$X2X$X$X$X4X4X$X$X$X$X$X$X$X$X$X$X$X$X$X$X$X$X4X%X$X$X$X$X$X$X$X$X$X$X$X4X$X$X%X$X%X%X%X$X$X$X$X4X%X4X4X$X$X$X$X%X%X4X$X$X$X$X%X2X$X$X$X%X7X%X$X$X$X$X$X$X$X$X$X$X$X$X$X$X$X$X$X$X$X%X$X$X$X+X$X$X$X+X$X$X%X%X4X4X4X$X4X+X%X$X$X$X4X$X$X%X%X$X%X4X2X2X2X$X$X$X$X$X4X$X#X$X%X$X$X$X$X$X$X$X$X$X$X$X$X$X#X$X$X%X$X$X$X$X2X$X$X$X$X%X$X$X2X$X$X2X$X$X$X$X$X$X$X$X$X$X$X$X$X$X$X$X$X$X%X2X2X2X$X2X$X$X$X$X2X$X$X4X4X$X$X$X$X$X$X$X$X#X$X$X2X2X$X$X4X2X$X2X2X4X2X#X2X#X#X2X2X2X4X$X%X%X4X$X$X$X$XwXUXUXUXUX9X#X$X$X#X#X#X#X#X#X#X+X#X#X+X#X#X#X#X#X+X+X$X#XB 1 k t l 1 7 l t.HX4XW.W.1Xf.f.PXPX2X= 1 4 O - O.2XL.W.+XQ.Q.+X+X+X+X+X$X+X+X+X+X+X$X+X$X+X$X+X$X+X$X+X+X$X+X$X+X+X$X$X$X$X",
"#X+X#X+X+X+X$X+X+X$X+X+X$X$X$X+X$X#X$X$X$X$X#X$X$X$X$X$X$X#X$X$X$X#X$X#X#X#X$X$X#X#X#X#X$X$X$X$X$X$X$X$X$X$X$X$X$X#X$X4X$X+X$X+X$X$X$X$X$X$X$X+X$X$X$X+X7XPXIXPX$X+X+X+X+X+X$X+X$X$X$X$X$X$X$X$X$X+X$X$X$X$X$X$X$X$X$X+X$X$X$X$X$X$X$X$X$X$X$X;X$X+X$X$X$X$X;X$X+X$X;X$X$X@X$X$X$X$X$X@X$X$X;X$X$X;X;X$X$X$X$X$X$X+X$X$X$X$X$X$X$X$X$X$X$X@X$X$X$X$X+X7XUXUXIXUXIX%X+X$X$X$X$X$X$X$X$X$X$X$X$X$X$X$X$X$X$X+X$X+X+X+X$X$X$X$X$X$X$X$X$X+X$X$X$X$X$X+X$X+X$X$X$X$X$X$X$X#X+X$X$X$X$X$X$X$X$X$X$X+X$X$X$X$X$X$X$X$X$X$X%X$X%X%X>X$X$X$X$X$X$X$X$X$X+X$X$X$X$X$X$X$X$X$X$X$X$X%X$X#X$X$X$X$X$X$X$X$X$X$X$X$X$X$X$X$X#X$X$X+X$X$X$X+X$X$X$X$X$X$X$X$X$X$X$X$X$X$X$X$X$X$X$X$X+X$X%X$X$X$X$X$X$X$X$X$X$X$X$X$X$X$X$X$X$X$X$X$X$X$X$X#X$X$X$X$X$X2X$X+X#X$X4X$X$X%X$X$X$X$X$X$X$X$X%X$X$X$X$X$X$X$X$X$X$X%X4X$X$X$X$X$X$X$X%X$X$X$X$X$X$X$X$X$X$X$X$X4X7X$X$X$X%X2X2X2X2X$X4X$X$X$X2X$X$X$X$X$X4X4X$X$X$X$X2X$X$X$X$X$X$X$X$X$X4X4X4X$X$X$X$X%X4X$X%X$X4X$X$X$X4X$X4X$X$X%X4X$X4X4X%X4X%X4X4X$X%X4X7X7X%X$X$X$X4X4X4X$X$X$X$X$X$X$X$X$X$X$X$X$X$X$X$X$X$X$X$X$X$X$X$X$X$X$X$X$X$X$X%X$X$X$X%X$X$X$X4X7X%X$X7X%X$X%X4X$X%X%X2X4X4X4X4X4X$X$X4X$X$X$X$X$X+X$X4X$X$X$X$X$X4X$X$X$X$X$X2X$X#X$X$X#X$X$X$X$X4X$X$X$X%X%X$X$X$X$X$X2X$X$X%X$X$X$X%X$X$X%X$X$X%X$X%X$X$X%X$X$X4X$X2X$X$X$X$X$X$X$X4X$X2X$X$X$X4X$X$X$X$X$X$X$X$X#X#X$X4X$X2X2X4X4X2X$X2X$X$X$X$X4X4X$X%X4X4X$X$X4X$XtXUXUXUXUX9X$X$X$X+X$X$X#X$X#X+X#X#X$X+X+X+X#X$XQ.$X$X$Xa.^ q.1X#X1Xs.9.B 1 l i.rX#XrXe.0 ^ ^ B 8 p $ q V.F.J.W.Q.$X@XQ.+X+X+X+X+X+X$X$X+X$X$X$X$X$X$X$X+X$X+X$X+X+X$X$X$X$X$X$X$X$X+X",
"+X#X+X+X+X+X+X+X$X+X+X+X$X$X$X$X+X+X#X$X$X#X$X+X$X$X$X$X$X#X$X$X#X#X#X#X#X$X$X$X$X#X$X$X$X$X$X$X$X$X$X$X$X$X$X$X$X#X$X7X$X+X+X+X$X+X$X$X$X$X+X$X$X#X+X+X+X+X+X$X@X@X+XQ.+X+X@X+X$X$X$X@X$X@X$X$X$XQ.$X$X$X$X$X$X+XQ.$X+X$X@X$X$X$X+X$X$X$X+X+X$X+XQ.+X+X$X+X$X+X$XQ.$X$X+XQ.$X$X$X$X$X@X$X@X$X$X$X$X$X$X$X$X$X$X@X@X$X$X$X$X$X$X$X$X$X$X$X+X$X$X+X+X+X$XPXUXUXUXPX$X@X+X+X+X$X$XQ.$X$X+X$X$X$XQ.$X$X$X$XQ.$X$X$X$X+X$X$X$X$X+X+X$X$X$X+X$X+X$X$X+X#X+X$X+X$X$X+X$X+X#X#X$X$X$X$X$X+X$X$X$X$X$X$X$X$X$X$X$X+X$X$X$X$X$X$X$X$X$X$X;X$X$X$X$X+X$X+X$X+X$X$X$X$X$X$X$X$X$X%X$X$X$X+X$X+X$X#X#X#X$X$X+X$X$X$X$X$X$X+X$X+X+X$X$X$X$X+X$X$X$X$X$X$X$X$X+X$X$X$X$X$X$X$X$X$X$X+X$X$X$X$X$X$X$X$X+X+X$X$X$X$X$X+X$X+X$X$X$X+X$X%X$X$X$X$X$X$X$X$X$X$X$X+X$X$X$X$X$X$X$X$X$X$X$X$X$X$X$X%X$X$X4X$X$X$X%X$X$X$X$X2X$X$X$X$X$X$X4X$X$X$X$X$X$X$X$X$X+X$X$X4X%X$X$X$X$X%X2X2X$X$X4X$X$X$X$X$X$X$X#X$X$X$X%X$X$X$X$X$X$X$X$X$X$X+X$X$X$X$X%X$X$X$X$X$X$X%X$X$X$X$X$X$X$X$X$X%X4X4X4X$X$X9X4X$X4X%X4X4X$X$X%X%X$X$X4X$X%X%X%X$X+X+X$X$X$X$X$X$X$X$X$X$X$X$X$X+X+X+X$X$X$X$X$X$X$X$X$X$X$X+X$X4X$X$X$X$X$X$X%X$X$X$X$X%X4X$X%X%X$X$X4X4X4X4X4X%X4X4X4X$X$X$X$X$X$X$X$X4X$X$X2X$X$X$X%X$X$X$X$X$X#X#X$X$X$X+X$X$X$X4X%X$X$X$X$X$X$X$X$X$X$X$X$X$X%X$X$X$X%X$X$X$X$X$X$X$X$X$X$X$X$X$X%X#X$X$X$X$X$X$X$X$X$X$X$X$X$X4X$X$X$X$X$X$X$X$X2X$X$X%X$X$X4X$X2X$X$X$X#X#X$X$X2X$X2X%X$X$X$X$X%X%XJXIXIXKX$X$X+X$X$X+X+X+X#X#X#X+X+X#X+X+X+X+X+X+X#X#X+X$XrX4X#XW.Q.$X7X7XL.Y q ^ rX#XJX' 1 l q > 7 . Y IXJX2XQ.Q.Q.Q.$XQ.Q.Q.$X+X$X$X$X$X$X$X$X$X$X$X$X$X$X$X+X+X$X+X$X$X$X$X$X$X+X+X",
"+X+X+X+X+X+X+X+X$X+X+X$X$X$X$X+X+X+X$X$X$X$X$X$X$X$X$X+X$X$X$X$X$X#X$X#X$X#X$X$X$X$X$X$X$X$X$X$X$X#X$X$X$X$X$X$X$X#X$X$X$X#X#X+X$X$X$X$X$X+X$X+X+X+X+X+X+X+X+X+X$X+X+X$X$X$X$X+X+XQ.+X$X$X+X+X$X$X$X$X$X;X$X;X@X@XQ.$X$X$X@X$X+X+X+X$X+X+X@X+X+X@X@X+X$X$X+X$X$X$X@X$X$X$X$X$X$X$X$X;X$X$X$X$X;X;X$X@X@X$X$X;X;X$X$X$X;X$X$X$X$X$X$X$X$X$X$X$X@X$X$X$X@X>XKXIXPX>X@X$X$X$X$X@XQ.$X@X$X$X$XQ.@X$X$X$X$X@X+XQ.$X$X;X$X;X$X$X+X+X+X$X$X$X$X$X$X$X$X$X$X$X$X$X$X$X$X%X$X$X$X$X$X$X@X$X$X$X$X$X$X$X$X$X$X$X$X$X$X$X$X$X$X$X>X%X$X$X$X$X+X$X+X$X$X+X$X$X$X$X$X$X+X$X$X$X$X$X+X$X+X$X$X$X$X$X$X$X$X$X$X$X$X$X$X$X$X$X$X$X+X$X$X$X$X$X$X$X$X$X$X$X$X$X+X$X+X$X$X$X$X$X$X$X$X$X$X$X$X$X+X+X+X$X$X+X+X$X$X$X$X$X$X$X$X$X$X$X$X$X$X$X$X$X$X$X$X$X$X$X$X%X$X%X$X$X$X%X+X%X%X%X$X%X$X%X$X$X$X$X%X%X%X4X$X$X$X$X%X4X$X$X$X$X%X$X$X%X$X$X$X%X$X$X$X$X$X$X$X$X$X$X+X$X$X$X$X4X2X4X%X%X$X$X$X%X$X4X$X$X$X%X$X$X%X%X$X$X$X$X$X%X7X$X+X$X4X4X$X%X$X$X$X4X%X$X$X$X$X%X$X%X%X$X$X4X$X4X$X$X$X4X$X$X%X4X2X$X$X$X$X7X$X7X%X%X%X$X%X4X$X%X$X%X$X%X$X$X$X$X$X$X$X$X+X$X$X+X$X>X$X$X$X$X$X$X$X>X$X%X$X$X7X$X$X$X%X$X%X%X$X%X$X$X%X%X%X7X%X%X4X4X4X4X4X4X%X4X$X$X$X$X$X4X$X$X$X$X$X$X$X4X%X4X$X$X$X%X$X$X$X$X$X%X$X$X$X$X$X4X%X$X$X$X$X$X%X4X$X4X$X$X$X%X$X$X$X+X$X$X+X$X$X$X4X$X%X$X$X%X$X$X$X$X$X$X$X4X$X4X$X$X$X$X$X4X$X$X$X$X$X$X$X$X$X%X$X%X%X4X%X$X%X4X%X4X$X$X$X$X$X2X$X$X4X4X%X$X%X4X$X%X$X$X4X4X$X$X$X$X$X$X$X$X$X$X#X#X+X$X#X$X+X$X$X+X$X$X$X$X$X#XQ.#X+X+XW.Q.W.$XtXI.C A.PXyXe.0 C Q 2 , o e.UX9.^ 7X;X$X+X$X$X$X$X@X$X;X$X$X$X$X$X;X;X$X$X+X$X$X$X$X$X$X$X$X$X$XQ.$X$X$X$X",
"+X+X+X+X+X+X+X+X+X+X$X+X$X$X+X+X$X$X+X+X$X$X$X$X$X+X+X+X$X+X+X$X$X$X$X+X+X$X$X+X$X+X$X$X$X$X$X+X$X$X+X+X$X+X$X$X$X$X+X$X$X$X$X$X+X$X$X%X$X$X+X+X+X$X+X+X+X$X$X+X$X+X$X$X$X$X+XQ.Q.Q.$X+X+X+X$X@X$X$X$XQ.$X$X$X$XQ.Q.$X$X$X+X+X+X$X$X$X$X$X$X$X$X$X$X$X+X$X$X$X@X$X;X$X$X$X$X$X+X$X$X$X$X$X$X$X$X$X$X$X$X$X$X$X$X$X$X;X$X;X$X@XQ.$X$X$X$X;X$X$X@X$X$X$X$X@X$X$X$X@X@X@XQ.$XQ.Q.Q.@X@X$X$X$XQ.Q.Q.$X$X$XQ.+X+X$X$X$X$X$X$X$X$X$X$X$X$X$X$X$X$X$X$X;X;X$X$X$X$X$X$X;X$X$X+X$X$X$X+X+X+X+X$X$X+X+X+X$X$X$X$X+X$X$X$X$X$X;X$X$X;X$X$X$X$X$X$X$X$X$X$X$X;X$X$X$X+X$X$X$X$X$X$X$X$X;X$X$X$X$X$X$X$X+X$X$X$X+X+X$X$X$X+X$X$X$X$X$X+X$X$X$X$X$X+X$X$X$X+X#X+X+X$X$X$X$X$X$X$X$X$X$X$X$X+X$X$X+X$X$X$X$X$X$X$X$X+X$X$X$X$X$X$X$X$X$X+X$X$X$X$X$X+X;X;X;X$X$X$X>X$X$X%X$X$X$X+X$X$X$X$X$X+X$X$X$X%X%X$X$X$X%X$X$X$X$X$X4X$X$X$X4X$X$X$X$X$X$X$X$X$X$X$X$X$X$X$X$X$X$X$X$X4X4X4X$X$X$X$X$X$X$X$X$X$X$X$X$X$X$X$X$X$X$X$X;X$X$X$X$X7X%X$X$X$X4X$X$X%X$X$X$X$X$X%X$X$X%X$X%X$X$X$X%X$X$X$X$X$X$X$X$X$X$X$X$X$X%X$X%X$X$X$X$X$X7X%X$X$X$X$X$X$X$X$X$X$X$X$X$X+X+X$X$X$X$X+X$X$X$X$X$X;X$X$X$X$X+X+X$X$X$X$X%X$X$X$X%X+X%X$X%X$X$X4X4X4X4X%X%X$X$X$X$X$X$X$X$X$X+X$X$X$X$X$X$X$X$X$X%X$X$X$X$X+X$X$X%X%X$X+X$X$X$X$X$X$X$X$X%X$X$X$X$X$X%X$X$X$X%X;X>X$X$X+X+X@X$X+X%X+X$X$X$X7X7X4X$X$X4X$X$X$X$X$X$X$X$X$X$X$X$X$X$X$X$X$X%X$X%X$X$X$X%X$X%X$X%X%X%X$X$X$X$X$X$X$X$X$X%X$X$X$X$X$X$X%X%X$X$X$X%X$X$X+X+X%X7X$X$X#X#X#X$X$X+X+X$X+X$X+X$X$X$X+X+X+X+X+X+X+X$X@XQ.7X^ - 1 P.PXL.a.^ 1 4 6 O C Y   C tXQ.$X+XQ.$X$XQ.$X$X$X$X$X$X$X$X$X;X$X$X$X$X$X$X$X$X$X$X$X$X$X$X$X+X$X$X",
"+X+X+X#X+X+X+X+X+X$X$X+X$X$X$X$X$X$X$X+X$X+X$X+X+X+X+X+X$X$X$X$X$X$X$X+X+X$X$X$X+X$X$X$X$X$X$X$X$X$X$X+X$X$X$X$X$X$X$X$X$X$X$X$X$X+X$X$X$X$X$X$X$X$X$X$X$X$X$X$X@X$X$X$X$X$X$X$X+X$X$X$X+X$X$X$X;X$X$X+X+X@X$X$XQ.$X;X;X$X+X$X$X;X;X;X;X$X$X;X;X$X$X$X$X$X$X$X$X$X$X;X;X$X$X$X$X$X;X;X$X;X$X$X$X$X;X;X$X$X$X;X$X$X$X;X;X;X$X@X@X$X;X;X$X;X;X$X$X$X$X;X;X;X@X$X$X;X;X$X@X$X$X$X$X+X+X$X$X$X$X$XQ.$X$X$X$X$X+X$X$X$X$X$X$X$X$X$X$X$X$X;X$X$X$X$X$X$X$X;X;X;X;X;X$X$X@X$X$X;X$X$X$X$X+X$X$X$X$X$X$X$X$X$X$X$X$X;X$X$X;X>X>X%X$X$X$X$X$X$X$X$X$X$X$X;X;X$X$X$X$X$X$X$X;X;X$X;X;X;X$X;X$X$X+X+X$X7X7X7X$X$X$X$X$X$X$X$X$X%X+X+X+X$X$X$X$X$X$X$X$X$X$X$X#X$X+X$X$X$X$X$X$X$X+X$X$X$X$X;X$X$X$X$X$X$X$X$X$X$X+X$X;X$X$X$X$X;X;X$X$X$X$X$X$X$X$X$X$X$X$X$X$X;X;X$X$X$X7XeX7X$X$X$X$X$X$X$X$X$X4X%X$X$X$X4X$X$X$X$X$X4X$X%X$X$X$X$X$X%X$X$X$X$X$X$X$X$X$X7X$X4X$X$X$X$X$X4X$X$X$X%X$X%X$X$X$X$X$X$X%X;X$X$X$X%X$X%X;X;X$X$X$X$X$X$X$X;X>X>X$X7X%X>X7X7X$X$X$X%X$X7X$X;X$X$X$X7X%X7X%X7X$X%X7X4X%X7X>X4X7X%X$X>X$X$X$X>X$X+X$X%X%X$X%X$X$X$X$X$X$X$X$X$X$X$X+X$X+X+X$X$X$X$X$X$X+X$X$X$X$X+X$X$X$X$X$X$X$X$X$X$X$X$X$X$X$X$X$X4X$X%X%X%X$X$X$X%X$X$X$X$X$X+X+X$X$X$X$X%X$X$X$X$X$X$X$X$X$X$X$X$X+X$X$X$X$X$X$X$X$X$X$X%X$X$X%X%X$X%X$X%X7X7XQ.f.L.tX8X7X$X+X+X$X$X%X+X$X$X7X7X$X$X7X$X4X%X$X$X$X$X$X$X$X%X4X%X%X$X$X%X%X%X%X%X%X$X$X%X4X$X%X$X%X%X4X$X$X$X2X4X%X$X$X$X4X$X$X$X%X$X$X$X%X$X$X$X%X$X$X$X$X$X+X+X$X+X$X$X+X+X#X$X$X+X+X$X$X$X+X+X$X+X+X+X+X+X+XyX^ O v l l B ^.s.1 3 8 > O O   7.tXQ.$X$X$X$X$X@X$X@X$X$X$X$X$X@X$X$X$X$X;X$X;X$X$X$X$X$X$X$X$X$X$X$X$X$X",
"+X#X+X#X+X+X+X+X$X$X+X$X+X+X$X$X$X+X$X$X+X+X+X+X$X+X$X+X$X$X$X$X$X+X$X+X+X$X$X+X$X+X$X$X$X+X$X$X+X$X$X+X+X$X$X$X$X$X$X$X$X$X$X$X$X+X+X+X$X$X$X$X$X$X$X$X$X$X$X$X@X@X$X$X$XQ.$X$X$X$X$X$X$XQ.$X$X$X;X$XQ.Q.$X;X$X@X$X;X;X@X@X$X$X$X;X;X$X$X$X$X;X$X$X$X;X;X$X;X$X;X$X;X;X$X$X$X;X;X;X;X$X$X;X$X$X;X;X$X$X$X;X;X$X$X$X$X$X$X$X;X$X;X$X;X;X;X$X$X;X;X$X$X$X$X;X;X@X;XQ.;X$XQ.$X$X+X$X$X$X$X$XQ.@X+X$X$X;X$X$XQ.$X;X$X$X$X$X;X$X$X;X;X;X;X;X$X;X;X$X$X$X;X;X;X;X;X;X$X$X$X$X$X$X$X$X$X$X$X$X$X$X;X;X;X;X$X$X$X$X;X;X$X$X;X$X$X$X$X$X$X$X$X$X;X$X$X$X$X$X;X$X;X$X$X$X$X$X;X$X;X$X$X$X$X$X;X$X;X;X;X;X$X$X$X$X$X$X$X$X$X$X$X+X+X$X+X$X$X+X+X$X$X$X$X$X$X+X$X$X$X$X$X$X$X$X$X@X$X$X$X$X$X;X$X$X;X$X$X$X$X$X$X+X$X;X$X$X$X$X;X$X;X$X$X$X$X$X$X$X;X$X$X$X;X$X$X;X>X$X7XIXUXIXwX+X$X+X$X$X%X$X$X$X$X$X$X$X$X$X4X$X%X$X$X$X$X$X$X$X%X$X$X$X$X$X$X%X$X$X$X$X$X4X$X4X$X$X$X$X$X$X%X$X$X%X$X$X$X$X$X$X%X$X$X$X$X$X$X$X$X$X$X$X$X$X$X$X$X$X;X>X>X$X>X%X$X%X4X%X7X$X$X%X$X7X7X$X%X$X$X$X>X%X%X%X7X$X%X%X$X7X7X%X%X$X$X$X$X$X$X$XQ.$X>X$X%X$X$X$X$X$X+X$X$X$X$X$X$X$X+X+X$X+X$X$X+X+X$X$X$X$X$X$X$X$X$X$X$X$X$X$X$X$X$X$X$X$X%X+X$X$X$X$X%X$X$X$X$X$X$X$X$X$X$X+X+X+X$X$X$X$X$X$X$X$X$X$X$X$X$X+X$X$X+X#X$X$X$X$X$X$X$X$X$X$X$X$X$X$X$X$X$X%X7Xe.C C U x ~ ^ ^ K.tX7X$X$X$X7X%X+X+X+X%X$X$X%X%X$X$X$X%X$X$X$X$X$X%X%X$X$X$X$X4X%X4X%X%X$X$X$X$X%X$X$X$X$X%X4X%X%X%X$X$X$X$X$X$X$X%X$X$X$X$X$X$X$X$X$X$X$X+X+X+X+X$X+X#X+X$X$X+X#X+X+X+X$X$X+X+X$X$X+X+X+X$X+X+X$XW.7XH.; v u.t + $ - 6 2 , 2 = . - d.8XQ.$XQ.$XQ.Q.$X$X$X$X$X$X$X$X$X$X$X$X$X$X;X;X;X$X$X$X$X$X$X$X$X$X$X$X$X",
"+X+X+X+X+X+X+X+X$X+X$X$X+X+X$X+X$X$X$X+X+X$X$X$X$X$X$X$X$X$X+X$X$X+X$X$X$X$X+X$X$X$X$X$X$X$X$X$X$X$X$X+X$X+X$X$X$X$X$X$X$X$X$X$X$X+X+X+X+X+X$X$X$X$X$X$X$X$X$X$X$X$X$X$X@X@X$X$X$X$X$X;X$X@X$X$X$X$X$X$X$X;X>X;X$X$X;X@X@X$X;X$X$X$X$X;X;X;X;X;X;X$X;X;X;X$X$X;X;X;X;X;X;X$X;X;X$X@X$X$X;X$X;X;X;X;X;X;X;X;X;X;X;X$X$X$X;X$X;X;X;X;X;X;X;X;X;X;X;X;X;X$XQ.Q.Q.;X;X$X$X@X@X@X$X$X$X$X$X$X$X$X$X$X$X$X;X;X;X$X$X;X$X$X$X$X;X;X;X;X;X;X;X;X;X;X;X;X$X$X;X;X>X;X;X;X;X;X;X$X$X$X$X;X;X;X$X$X$X$X$X$X$X$X$X$X;X$X;X;X;X$X$X$X$X$X$X$X;X;X>X;X;X;X$X$X$X$X$X;X;X;X$X$X$X$X$X$X;X;X;X$X$X$X;X>X>X;X;X$X$X$X%X$X$X;X;X;X;X$X$X$X;X$X$X$X+X+X+X$X$X$X$X$X$X$X$X$X;X$X;X;X$X$X$X$X;X$X$X$X$X$X$X$X;X$X$X$X$X$X$X+X;X;X$X$X$X$X;X;X;X;X$X;X;X$X;X;X$X;X;X;X;X$X$X;X>X$XPXUXPXUXPX+X>X$X$X$X$X;X;X;X$X$X$X$X;X$X$X$X%X$X%X$X$X$X%X%X%X$X$X$X$X$X$X$X$X$X$X$X$X$X7X$X%X4X4X%X4X4X$X$X%X$X$X$X$X$X;X;X%X$X%X%X%X$X$X$X$X$X$X;X>X;X;X7X$X$X$X$X>X;X>X7X$X$X7X7X$X4X%X$X7X$X$X;X7X$X$X>X7X%X$X$X%X7X7X%X4X%X%X>X7X;X$X$X7X$X$X$XQ.$X7X$X7X$X;X7X$X$X+X$X$X$X$X$X$X$X$X$X;X$X$X$X$X+X$X$X$X$X;X;X;X$X$X$X$X$X$X$X%X;X$X$X4X%X%X$X$X$X%X$X4X$X%X>X$X$X+X$X$X$X$X+X$X$X$X$X$X$X$X$X$X$X$X$X$X%X$X$X$X$X$X$X%X$X$X$X$X$X4X%X%X$X$X$X$X$X$X$X>X$X#Xa.W.7XyXq., x ^ ^ ^ I.tX$X$X$X$X4X$X$X%X$X4X%X4X$X4X%X$X$X$X$X$X$X$X$X$X$X$X%X4X$X%X%X%X%X%X%X%X4X%X%X%X$X%X$X$X$X$X%X$X4X4X$X%X;X>X$X$X$X4X$X$X$X%X$X$X+X+X$X$X$X%X$X+X$X>X$X$X$X$X+X$X$X$X$X$X$X$X$X$X$X$X$X$X+X$X$XrXC $  .F a r 6 8 > 3 * - ' K.2X>X;X$XQ.Q.7X8X$X$X$X$X@X$X;X;X;X$X$X;X@X;X;X;X;X;X;X$X$X$X$X;X$X;X$X$X$X",
"$X+X+X+X+X+X+X$X+X$X+X+X+X+X+X$X$X$X+X+X$X+X$X$X$X$X$X$X$X$X$X+X$X$X$X$X$X$X+X+X$X$X$X$X$X$X$X$X$X$X$X$X$X$X$X$X$X$X$X$X$X$X$X$X$X$X$X$X$X$X$X$X$X$X$X@X$X$X$X$X@X$X@XQ.@X@X$X$X;X;X;X@X$XQ.@X@X@X$X$XQ.@X;X;X>X$X$X$XQ.$X$X;X;X$X;X;X$X;X;X;X$X$X;X;X;X;X$X;X;X;X;X;X;X;X;X;X;X;X$X;X;X$X;X;X;X;X;X;X;X;X;X;X;X;X;X;X$X$X;X;X;X;X;X;X$X;X;X;X;X;X;X$X$X;X@X;XQ.;X;X$XQ.@XQ.$X$X$X$X;X@X$X@X$X$X$X@X$X;X;X;X;X;X$X$X$X$X;X;X;X;X;X;X;X;X;X;X;X;X;X;X;X;X;X;X;X;X;X$X$X;X$X;X;X$X$X;X;X$X$X$X$X$X$X$X;X$X;X;X;X;X;X$X;X;X;X;X;X$X;X;X;X;X;X;X$X$X;X$X$X;X;X;X;X$X;X$X;X;X$X;X;X;X$X$X;X;X;X;X;X;X%X%X$X$X;X$X$X;X;X;X%X$X$X$X$X$X$X$X;X$X$X$X$X$X$X$X$X$X$X;X;X$X$X$X$X$X$X$X$X$X$X$X$X$X$X;X$X$X$X$X$X$X$X$X;X$X$X$X$X$X;X;X$X$X$X$X;X;X;X$X$X;X$X$X;X$X>X$XtXUXUXUXNX@X$X$X$X$X$X$X;X;X;X$X$X$X$X$X$X$X$X$X%X$X$X$X$X;X$X$X$X$X$X$X$X$X$X$X$X$X$X$X$X$X%X%X%X7X7X%X$X$X$X$X7X;X$X$X7X$X$X$X$X%X%X$X$X$X$X%X$X$X$X;X7X$X;X$X$X;X;X;X7X7X$X$X;X7X>X$X$X$X$X$X7X$X%X$X7X$X>X$X7XNXyX7X%X%X%X$X$X;X7X>X7X$X$X$X$X$XQ.$X$X7X$X7X;X;X;X$X$X$X$X$X$X$X$X$X$X$X$X;X;X$X$X+X$X$X$X$X$X$X$X$X$X$X$X$X$X$X;X$X$X$X$X4X$X$X$X$X$X$X%X%X$X$X$X$X+X+X$X$X$X+X+X$X$X$X$X$X$X$X$X$X$X+X%X$X%X$X$X$X$X$X$X$X$X$X$X$X$X$X$X$X$X$X$X$X%X$X$X$X$X7X7X@X@XW.9.H.>X$Xe.^ a.7X$X$X$X$X7X$X$X$X$X7X$X$X7X$X$X$X$X$X$X7X>X$X%X%X4X$X$X%X$X4X7X$X4X$X%X$X%X$X%X%X$X$X$X$X4X$X4X$X$X%X$X$X$X$X$X$X$X$X$X$X$X$X$X+X$X$X$X$X$X$X$X$X$X$X$X+X$X$X$X$X$X$X$X$X$X$X$X+X$X$X$X+X$XQ.7X(.q - t h h 6 4 * 2 # i JX>XQ.;X;XQ.Q.tX#Xd.$X$X$X$X;X;X$X;X;X;X$X$X;X$X$X$X$X;X$X;X$X$X$X$X$X$X$X$X$X",
"$X$X+X+X+X+X$XQ.W.+X$X+X$X$X$X$X$X$X$X$X$X$X$X$X$X$X$X$X$X$X$X$X$X$X$X$X$X$X+X$X%X$X$X;X$X$X;X$X;X$X;X$X$X$X$X$X$X$X;X$X$X$X$X$X;X$X;X$X$X$X$X$X;X;X;X@X$X;X;X;X$X;XQ.@X;X@X@X@X;X;X;X&X;X;X;X;X;X@X$X$X@XQ.&X@X$X;X;X;X;X;X;X;X>X;X;X;X>X>X;X;X;X;X>X;X;X;X;X;X;X;X;X;X>X;X>X;X;X;X>X;X;X;X;X;X>X;X;X;X$X;X;X;X;X>X;X;X;X;X;X;X;X;X;X;X;X;X>X;X;X;X>X$X;X>X;X;X;X;X;X;X;X@X@X&X;X;X$X@X;X$X;X;X$X$X;X;X;X;X;X;X$X$X;X$X;X;X;X;X$X;X;X$X;X;X;X;X>X;X;X;X;X;X;X;X>X;X;X;X;X;X;X;X$X;X;X;X$X;X>X;X;X;X;X$X;X;X;X;X;X;X>X>X>X;X;X;X;X;X;X;X$X;X;X;X;X;X;X;X>X;X;X;X;X;X;X;X;X;X>X;X;X$X$X$X;X;X7X7X7X%X;X$X;X;X;X$X$X%X%X;X;X;X$X$X$X%X%X$X$X$X$X$X$X$X$X$X$X$X$X$X;X;X;X$X;X;X$X$X$X;X$X$X;X;X;X;X;X;X;X$X;X$X;X$X$X;X$X$X$X$X$X$X$X;X;X$X%X;X;X;X$X;X;X;X>X$X>XNXPXKX$X$X$X$X$X$X$X$X$X$X%X;X;X$X$X;X;X$X$X%X%X$X$X;X$X$X;X$X;X$X$X;X$X$X;X$X;X;X$X$X$X$X7X%X7X7X%X7X7X$X;X>X7X;X+X+X7X7X7X$X>X$X$X%X7X;X;X$X;X$X$X$X>X>X7X7X7X7X4X$X7X7X$X$X>X;X7X7X7X%X7X>X7X%X>X7X7X$X%X$XNXUXUXtX$X%X%X>X7X$X$X$X$X$X>X$X>X$XQ.;X>X$X$X$X>X$X;X$X$X$X$X$X$X$X$X$X$X$X$X$X$X$X;X$X$X$X$X;X$X$X$X$X;X$X$X$X;X$X$X;X;X$X$X+X$X$X7X7X$X$X$X;X7X%X$X$X$X+X$X$X+X+X+X$X$X$X$X$X$X$X$X%X$X$X$X%X%X$X$X%X%X%X$X$X$X$X$X$X$X$X%X%X$X$X$X$X%X$X$X;X>X$X$X$X$XQ.;X;X@X@X8X+Xf.;X;X>X;X$X7X>X7X$X%X%X%X$X4X%X>X$X7X>X7X$X$X%X7X%X7X7X4X$X7X7X%X$X$X%X4X$X%X%X7X>X$X$X7X$X7X%X%X$X$X7X;X$X$X$X>X$X$X$X7X$X$X$X;X;X7X$X$X;X$X$X$X$X$X$X$X$X$X$X$X$X$X$X$X$X$X$X$X$X$X$X$X$X+XQ.$X7Xd.^ B - - $ = 2 4 % q L.a.f.@X$XtXPXi.- - 7X;X$X$X;X;X$X$X$X$X$X$X$X;X;X$X$X;X$X$X$X;X$X$X$X;X;X;X$X",
"$X+X$X+X+X+X$XQ.Q.$X$X$X$X$X$X$X$X$X$X+X$X$X$X+X$X$X$X+X$X$X$X$X$X$X$X$X$X$X$X$X$X%X;X$X;X;X$X;X$X$X$X;X;X$X$X$X$X;X;X;X$X$X$X;X;X$X$X$X$X$X$X$X;X;X;XQ.Q.@X;X;X;X@X;X@X@X;X@X@X&X&X;X;X;X;X>X;X@X@X@X&X;X;X;X;X;X;X>X>X>X;X;X>X;X;X;X;X;X;X;X;X;X;X>X;X;X;X;X;X;X;X;X;X;X>X>X;X;X&X;X;X;X;X;X;X;X;X;X;X;X;X;X>X;X;X;X;X;X;X;X;X;X;X;X;X;X;X;X;X>X;X;X$X;X&X;X;X;XQ.;X;X;X;X;X;X&X&X&X@X;X;X;X;X;X$X;X;X;X&X;X>X&X&X;X$X;X$X;X;X;X;X;X;X;X;X;X;X;X;X;X;X;X;X;X;X;X>X;X;X;X$X;X;X;X;X;X;X;X;X>X;X;X$X;X;X;X;X;X;X;X;X>X>X;X$X;X;X;X;X;X;X;X;X;X;X;X;X$X;X;X;X;X;X;X;X;X;X>X;X;X;X$X;X>X>X7X;X;X;X$X$X$X;X;X;X;X$X$X$X;X;X;X;X$X$X$X$X%X;X;X$X;X$X$X;X;X$X$X$X;X$X;X;X$X;X;X;X$X$X$X$X$X$X;X;X;X;X;X;X;X;X;X$X;X;X$X;X;X$X$X$X%X$X$X$X$X>X;X%X;X$X;X$X;X;X$X;X$X$X>X>X$X;X>X$X;X$X$X$X$X$X;X$X;X;X%X%X%X%X%X$X;X$X;X;X$X$X$X$X;X;X;X$X;X;X$X;X;X;X;X$X;X$X$X;X;X;X;X;X;X>X>X$X$X$X$XQ.7X7X7X;X;X$X%X;X$X%X;X$X$X$X$X$X$X$X%X7X7X;X$X$X;X7X;X$X$X%X7X7X$X;X>X;X;X$X7X;X$X$X>X$X>XyXyX7X$X>X>X$X;X%X;X$X>X$X>X$X;X$XQ.;X;X$X$X$X$X;X;X;X;X$X$X$X$X$X$X$X$X$X$X$X$X;X$X$X$X$X;X$X$X$X$X$X$X$X$X$X$X$X;X$X$X$X$X+X+X$X$X$X$X$X$X$X7X%X%X%X$X$X$X+X$X$X$X$X$X$X$X$X$X%X%X%X%X$X$X%X%X$X$X$X%X$X$X$X%X$X$X$X$X$X$X$X$X$X$X$X$X$X;X;X$X;X;X;X$X$X$X$X$X@X$X$X;X;X;X$X;X$X$X$X;X$X;X$X4X$X$X;X$X>X;X;X$X$X$X$X>X;X>X;X$X$X$X%X>X$X>X$X$X%X>X$X;X7X$X$X;X$X$X%X;X$X;X$X$X$X7X$X$X$X$X;X$X;X;X$X$X7X;X7X;X$X$X$X$X$X+X$X$X$X$X$X$X$X$X$X$X+X$X$X$X$X$X$X+X7X7X$X$XW.W.tX$XV ' e.- & = * $ C.L.+XPXP.9.C 7 < B 7X@X@X$X@X$X$X@X$X$X$X$X$X;X$X$X$X$X$X;X;X$X$X@X@X;X$X$X;X",
"$X$X$X$X$X$X$X$X+X$X$X$X$X$X$X$X;X$X$X$X$X$X$X$X$X$X$X$X$X$X$X$X$X+X$X$X$X$X;X$X$X$X$X;X;X;X;X$X$X$X$X;X;X7X>X;X;X$X;X;X$X$X;X;X;X$X$X$X;X@X;X$X;X$X@X@X&X@X&X&X;X;X;X&X;X;X@X@X&X&X;X;X;X@X&X@X@X&X;X;X;X;X>X;X;X;X;X>X>X;X;X;X;X;X>X;X;X;X>X;X;X>X,X>X:X;X;X;X:X;X;X;X;X;X;X;X;X&X;X;X;X;X;X;X;X;X;X;X>X;X;X;X;X;X;X;X;X;X;X;X;X;X&X;X>X;X;X;X;X;X;X;X;X&X;X;X;X&X;X&X;X;X;X&X&X&X;X;X;X&X&X&X;X&X@X&X;X&X;X>X;X&X;X;X;X;X;X;X;X;X;X;X;X;X>X>X;X;X;X;X>X;X;X;X;X$X;X;X;X;X>X>X>X;X;X;X>X;X;X;X;X;X;X;X;X;X;X>X>X>X>X;X;X;X;X>X>X;X;X;X>X;X;X;X;X;X$X;X>X;X;X;X;X;X;X;X>X;X;X;X;X>X>X>X7X>X;X$X$X$X%X;X;X;X;X$X$X$X;X;X;X$X$X$X;X$X;X;X;X;X;X;X;X;X;X;X;X;X;X;X;X$X;X;X;X;X;X;X;X$X;X;X;X$X;X;X>X;X;X;X;X;X>X>X;X;X;X;X7X;X7X;X>X$X$X$X>X;X>X;X;X;X;X;X;X;X>X$X>X;X>X;X>X7X7X;X%X$X$X$X$X$X;X>X7X;X;X;X;X;X;X;X%X;X$X;X;X;X;X;X>X;X;X;X;X>X>X>X;X>X>X;X;X;X;X;X>X;X;X;X;X;X;X;X;X;X$X$X;X;X;X>X7X;X;X$X;X>X$X$X$X$X;X>X;X$X$X$X>X;X>X;X>X;X7X;X$X$X$X$X;X$X$X$X>X;X$X%X>X;X$X$X$X;X>X>X>X>X>X7X7X7X;X>X7X;X;X$X;X7X7X>X>X;X;X;X>X;X>X;X;X$X$X$X;X$X$X;X>X;X>X;X>X$X$X$X;X$X$X$X>X;X;X;X;X$X;X;X;X$X$X$X>X$X$X>X7X$X%X$X$X$X$X$X$X$X$X$X$X$X$X$X%X$X$X$X$X$X$X$X$X$X$X$X%X$X$X$X$X$X$X%X7X%X%X$X$X$X7X$X;X$X$X$X;X$X$X>X>X;X;X$X;X$X$X$X$X$X$X$X;X$X;X;X;X$X7X;X$X$X$X>X>X%X7X$X$X$X>X>X7X$X$X$X$X>X>X>X7X;X$X$X%X>X%X>X7X;X$X>X;X$X7X;X;X;X7X;X;X$X;X;X7X7X;X;X>X;X$X$X;X;X$X$X;X$X>X$X;X$X;X;X;X$X$X$X$X$X;X$X;X$X>X$X$X$X$X$X$X$X$X;X;X$X7Xd.C.rXKX7Xf.g.>X8.@XJX- & 2 > . ^ 5Xu.O.5 + W 1 q L.$X@X;X;X@X;X$X$X$X$X;X;X$X@X$X;X;X$X$X$X@X$X;X$X&X;X;X$X;X",
"$X$X$X$X$X$X$X$X$X$X$X$X$X$X$X$X;X$X;X$X$X$X$X$X$X$X;X$X$X;X$X$X$X$X$X$X;X;X;X;X$X$X;X;X;X;X;X$X;X;X;X$X$X>X;X;X$X$X;X$X;X$X;X;X;X$X;X$X;X;X$X;X;X;X;X@X&X&X&X@X;X&X&X;X&X;X@X&X;X&X&X;X&X&X;X;X;X;X&X;X;X;X;X;X;X;X;X;X;X;X;X;X>X>X;X;X,X;X;X>XeXeX8X;X;X;X;X;X:X:X;X;X;X;X;X&X;X;X&X;X;X&X:X;X;X;X;X;X;X;X;X;X;X;X;X;X;X;X;X;X;X;X;X;X;X;X;X&X;X&X:X;X;X;X;X&X;X&X&X&X&X&X&X&X&X&X&X&X&X;X;X&X&X&X&X;X;X;X;X;X&X&X:X&X;X;X;X&X;X;X;X@X;X;X;X>X;X;X;X;X;X;X;X;X;X;X;X;X;X;X;X;X>X>X;X;X;X;X;X;X;X;X;X;X;X;X>X>X>X>X>X;X;X;X>X>X>X;X;X;X;X;X;X;X;X;X>X;X;X;X;X;X;X;X;X;X;X;X;X;X;X>X>X>X>X>X;X;X;X;X;X;X;X;X;X$X;X;X;X;X;X;X;X$X$X;X;X;X;X;X;X;X;X;X;X;X;X;X;X;X$X;X$X$X;X;X;X$X;X;X;X$X;X$X;X;X;X;X>X;X;X;X;X7X;X;X>X;X;X;X;X>X>X;X$X$X;X;X;X;X;X;X;X;X>X;X;X>X>X;X;X$X;X7X;X;X;X$X$X$X;X;X;X;X;X;X$X$X$X;X;X;X7X>X7X7X7X;X;X;X;X;X;X$X;X;X>X;X>X;X;X>X;X;X;X;X;X;X;X;X;X;X>X;X;X>X;X;X;X;X;X;X>X>X;X;X;X;X;X$X;X7X7X;X;X;X;X;X;X;X;X;X;X;X;X;X;X;X;X;X>X;X;X;X;X$X>X;X;X>X>X;X>X;X;X;X;X;X;X;X;X;X>X;X;X;X>X;X7X7X7X>X>X;X;X;X;X>X;X;X;X$X;X$X;X$X;X;X>X;X>X;X;X;X@X$X>X$X$X$X;X>X>X$X;X$X;X;X;X;X$X$X>X7X;X$X;X;X$X$X;X$X$X$X$X$X$X$X$X$X;X$X$X$X$X$X$X$X$X$X$X$X$X$X$X$X$X$X$X$X$X;X%X%X$X$X;X$X$X;X7X;X7X;X;X;X>X;X;X;X;X$X;X$X;X$X;X$X$X$X$X$X;X;X$X;X$X;X>X>X>X$X>X;X$X>X;X$X>X;X;X;X;X$X>X;X;X>X%X;X;X$X7X$X>X;X;X>X;X$X;X;X;X;X>X;X;X;X;X$X;X;X;X7X;X$X;X;X;X$X;X$X$X$X$X;X;X7X;X;X;X;X;X;X;X;X;X$X$X;X;X;X$X$X$X$X$X$X$X$X;X$X;X$XKX^ O B Y ].JX7.MX*XnXd.  & * * & = 6 O , e t ^ ^ d.eXQ.@X;X$X@X@X;X;X$X$X;X;X;X;X&X;X;X$X@X$X;X;X@X;X&X&X;X$X;X",
"$X$X;X$X$X@X$X$X$X$X$X$X$X$X$X$X$X$X>X$X$X$X$X$X$X;X;X;X;X;X;X$X;X;X;X$X;X;X;X;X$X;X;X;X>X>X;X;X;X>X>X;X$X@X;X;X;X;X>X;X>X;X;X;X;X;X;X;X;X;X;X;X;X;X;X;X;X;X&X&X&X&X;X&X&X&X&X&X;X&X;X&X&X;X;X;X;X;X;X;X;X;X;X;X>X;X;X;X,X:X,X:X:X;X,X,X,X>X>XeXPXIXNX>X;X>X,X;X,X:X:X;X;X:X:X;X:X;X&X&X:X:X:X:X:X:X:X;X:X:X:X:X;X:X,X;X;X:X;X;X;X;X:X&X:X;X;X;X;X;X;X;X&X&X;X;X;X&X&X&X;X&X&X&X&X;X;X&X;X;X;X;X;X;X;X;X;X;X;X:X&X;X;X;X;X;X;X;X;X;X;X;X,X&X;X;X;X;X;X;X,X;X;X;X;X;X;X;X;X;X;X;X;X>X;X;X;X;X;X;X;X;X>X;X;X;X>X;X>X>X>X:X:X;X>X>X>X;X>X;X;X;X;X;X;X;X>X>X:X;X;X;X;X>X>X;X;X:X:X;X:X,X>X>X>X>X>X;X;X>X>X>X;X;X;X;X>X;X>X;X;X;X>X;X;X;X>X;X;X;X;X;X;X;X;X;X>X>X>X;X;X;X;X@X;X;X;X;X;X;X;X;X;X;X;X;X;X;X;X;X>X;X:X>X;X;X>X;X;X;X>X;X;X$X;X;X;X;X;X;X;X>X;X;X;X;X>X:X;X;X>X;X;X;X;X;X;X;X>X;X>X>X;X;X;X;X;X;X>X;X;X;X;X;X>X;X;X;X;X;X;X;X;X>X>X;X@X>X>X>X;X;X;X>X>X>X>X>X>X;X;X>X>X>X>X>X>X>X,X>X>X>X>X>X;X;X>X>X;X;X>X,X8X>X>X>X>X;X;X>X>X>X>X>X>X>X>X>X>X>X>X>X>X;X;X;X>X;X>X;X;X>X>X;X>X;X;X>X;X;X;X;X>X>X;X>X7X;X7X;X;X;X;X;X>X;X>X>X;X;X;X;X;X;X;X;X>X;X$X@X;X;X>X;X@X$X>X;X;X$X;X$X$X$X;X;X;X;X;X;X$X$X>X>X;X;X;X;X;X;X;X;X>X;X;X;X$X$X$X$X;X;X;X;X;X$X;X;X;X;X;X;X;X$X;X;X;X$X$X;X;X$X$X$X;X;X;X$X;X$X;X$X;X$X$X$X;X;X;X;X;X;X$X$X;X;X;X;X;X;X;X;X;X;X;X;X>X;X>X>X>X;X7X>X;X;X;X>X>X;X;X;X;X;X;X;X>X>X7X7X7X7X>X>X>X;X>X>X;X;X;X;X7X;X>X;X>X>X;X;X>X;X;X;X;X;X;X;X$X$X$X;X;X;X;X;X;X;X;X;X>X;X;X;X>X$X$X$X;X>X;X;X;X$X;X;X>X;X$X$X$X$X$X$XtXs.1 1 + q m . H.yXd.Y $ , = % , = 3 e , ,   C PX@XQ.&X;X;X;X;X;X;X;X;X;X;X;X;X&X&X&X&X@X@X;X&X&X&X;X&X&X;X;X;X",
"$X$X$X$X@XQ.$X;X$X$X$X$X$X$X$X@X$X;X;X@X@X$X;X;X;X;X;X;X;X;X;X;X;X;X;X;X&X&X;X;X;X;X;X;X>X;X:X;X>X;X;X>X;X;X;X;X>X;X;X;X;X;X;X;X;X;X;X;X;X;X;X&X;X&X;X;X;X&X;X&X;X&X&X&X&X&X;X;X&X&X;X&X&X&X&X&X&X;X&X&X&X;X;X:X;X;X:X;X;X:X:X;X;X;X,X;X:X;X;X;X;XbXbX;X:X:X,X,X,X:X:X;X,X;X:X;X&X:X&X&X:X:X:X:X:X:X:X:X:X:X:X:X:X;X:X:X:X&X;X;X;X&X&X;X&X&X;X&X;X&X&X&X&X&X;X;X;X&X&X&X&X&X&X&X&X&X&X&X&X;X;X;X;X&X&X&X:X;X:X:X&X&X;X;X;X;X;X;X;X;X:X&X;X:X;X;X:X;X;X;X;X;X;X;X;X;X;X;X;X;X;X;X;X;X;X;X;X;X;X;X;X;X;X;X;X;X;X;X;X;X:X:X:X;X>X>X;X;X>X;X;X;X;X;X;X;X;X:X;X;X;X;X;X;X>X;X;X:X:X&X:X,X:X>X;X;X>X>X>X>X>X>X>X>X>X;X>X>X>X>X:X;X;X>X;X;X>X;X;X;X:X;X;X;X>X;X;X;X;X;X;X:X:X&X;X;X;X;X;X;X:X;X;X:X:X:X>X;X;X;X;X;X;X:X;X;X>X>X;X;X;X;X;X;X;X;X;X;X;X;X:X;X>X;X;X;X;X:X>X;X;X;X;X;X:X;X>X;X>X>X;X;X>X;X>X;X>X>X>X>X;X$X$X;X;X;X;X;X>X;X;X;X>X7X8X>X>X;X>X,X;X;X>X;X>X>X>X>X>X;X>X;X>X>X>X;X>X>X>X,X>X;X>X;X;X>X>X>X;X;X>X>X>X>X>X;X>X>X;X;X>X>X>X>X>X>X>X>X>X>X>X>X>X>X>X>X>X>X>X>X>X>X>X;X;X;X;X;X;X;X;X;X;X;X>X;X;X;X;X>X7X;X>X;X;X>X;X>X;X;X>X;X;X;X;X;X;X;X;X@X;X;X;X;X@X@X;X;X$X;X;X$X$X;X;X;X;X;X;X;X;X$X;X>X;X;X;X;X;X;X;X;X;X;X;X;X;X;X;X$X;X;X;X;X;X;X;X;X;X;X;X;X;X;X;X;X;X;X;X;X;X;X;X$X>X;X;X;X;X;X;X;X;X;X;X$X$X$X;X$X;X;X;X;X;X;X;X;X;X;X;X;X;X;X;X;X;X;X>X;X;X>X;X>X>X;X;X;X;X;X;X;X;X;X>X;X;X;X>X;X7X;X>X>X>X;X;X;X;X;X;X;X7X;X;X>X;X;X7X;X;X;X;X$X;X;X;X;X;X;X;X;X;X;X;X;X;X;X;X;X;X>X>X$X$X$X;X;X@X$X;X$X;X;X$X;X$X;X$X$X$X;X>X$X$X7Xe.Y 6 6 e 6 1 - . . = % % # * > > . h ' 0 d.>Xg.&X&X;X@X$X;X;X&X;X;X;X;X&X&X&X&X&X@X&X&X&X;X;X&X&X&X;X&X;X&X",
";X$X;X;X$X$X;X;X;X$X;X;X;X;X$X;X;X;X;X@X;X;X;X;X;X&X;X;X;X;X;X;X;X;X;X;X;X;X;X;X;X;X;X>X,X;X;X;X>X>X>X;X;X;X>X;X;X;X;X;X;X;X;X;X;X;X;X;X;X;X&X&X;X;X;X;X;X&X&X;X;X&X&X&X&X&X;X;X&X&X:X&X&X&X&X&X&X&X&X&X&X&X&X&X&X;X:X:X;X&X&X;X:X:X;X&X;X;X,X;X;X&X:X:X,X;X,X,X:X&X:X:X,X:X,X:X:X,X&X&X:X:X:X:X,X:X:X:X:X:X:X:X:X:X:X&X&X&X:X&X:X&X&X&X:X:X&X&X:X:X;X&X&X;X:X&X:X&X;X:X;X&X&X;X&X:X;X;X;X;X:X:X:X;X&X:X:X:X:X:X&X:X:X;X;X&X:X:X:X;X,X&X;X:X:X:X:X&X:X;X:X&X;X;X;X;X&X;X;X&X:X;X;X;X:X:X:X;X;X;X:X:X:X:X:X;X;X:X:X;X:X:X:X:X>X:X:X:X:X:X;X;X;X;X:X;X:X:X;X;X:X:X;X;X:X:X:X:X:X&X:X,X,X:X,X:X:X,X>X>X>X>X>X;X:X>X>X>X>X:X;X;X:X;X:X>X>X;X&X:X:X:X:X;X:X:X>X:X>X:X;X,X:X;X>X;X;X;X;X;X>X:X:X;X>X>X>X>X>X:X:X;X;X:X;X;X,X:X:X>X>X>X:X:X:X:X:X:X:X:X:X:X:X>X:X;X:X:X,X:X:X:X>X,X>X>X,X>X>X$X;X;X>X>X>X;X;X;X;X;X;X;X>X>X>X;X>X>X>X>X>X;X;X;X;X;X&X;X;X;X:X>X>X>X>X>X>X>X;X>X>X>X>X>X;X>X;X:X,X;X;X>X,X>X>X>X>X;X;X>X,X;X>X>X>X>X>X>X>X>X>X>X>X>X>X>X>X>X>X>X,X>X>X>X>X>X>X>X>X>X>X>X>X>X;X>X>X>X>X>X>X;X;X>X>X>X;X8XeX>X8X>X>X>X>X>X>X;X;X;X>X;X;X;X>X;X;X;X;X;X>X;X;X;X;X$X;X@X@X;X>X;X;X;X;X$X;X;X;X;X>X;X;X;X;X;X>X;X;X;X;X;X;X;X;X;X;X;X;X;X;X;X;X;X;X;X;X;X;X;X;X;X;X;X;X;X;X;X;X;X;X;X;X;X>X;X;X;X>X;X;X;X>X;X;X$X;X;X>X;X;X;X;X;X;X;X;X;X;X;X;X;X;X>X>X>X>X>X>X>X>X>X>X>X>X>X>X>X;X>X>X>X>X>X7X;X>X>X>X>X7X>X7X>X>X;X;X;X>X;X>X>X>X;X;X>X>X>X7X;X;X;X;X;X>X;X>X>X>X;X>X;X;X;X>X;X7X>X;X;X;X;X;X$X;X;X>X;X$X$X7X>X;X;X;X$X$X;X;X;X>X$X;X;X;X$X7XPX' O 4 a , , & - 2 * * * # & 5 y 4XIXL.%X@X&X;X;X;X;X;X;X;X;X;X&X&X&X&X&X;X&X&X&X&X&X&X&X;X;X;X;X&X;X;X;X",
";X;X&X@X;X$X;X;X;X;X;X&X;X;X;X;X>X;X;X@X;X;X&X;X;X;X;X;X;X;X;X;X;X;X;X;X;X;X;X;X;X;X>X;X>X;X;X;X>X>X;X;X;X;X;X;X;X;X;X&X;X;X;X;X;X&X&X&X;X&X;X&X&X:X;X&X&X&X&X&X&X&X:X&X&X&X;X&X&X:X;X&X&X&X&X:X&X&X&X&X&X&X&X&X&X&X&X&X&X&X;X;X;X:X:X;X,X:X,X,X,X:X,X:X:X:X:X:X:X:X:X:X:X:X:X:X:X&X:X&X:X:X&X:X:X:X:X&X:X:X:X:X:X:X:X&X:X&X&X:X&X&X&X&X:X&X:X&X&X:X&X&X:X:X:X:X:X:X:X:X&X&X&X&X&X:X:X&X:X&X:X:X:X:X:X&X:X:X:X&X:X:X:X&X&X&X:X:X:X:X:X:X:X:X:X&X:X:X:X&X:X&X;X;X;X&X;X;X;X;X;X&X&X&X;X;X:X:X:X;X:X:X:X:X:X:X:X:X:X:X=X&X:X,X:X;X:X:X:X:X:X:X:X;X:X:X:X:X;X:X:X:X:X:X:X:X:X:X:X&X,X:X;X,X,X:X:X:X>X>X,X,X>X:X,X>X>X>X:X;X;X:X;X;X;X,X;X&X;X:X:X:X:X:X;X:X,X,X,X;X:X;X:X&X;X:X&X&X:X;X:X:X:X;X:X;X:X>X,X:X;X;X:X;X:X:X:X:X>X;X:X;X:X:X;X:X:X:X:X:X:X:X:X:X:X;X:X;X:X,X,X:X,X,X;X;X,X,X>X;X>X>X>X>X>X>X>X;X;X;X>X>X>X8X;X:X>X>X>X>X>X;X:X;X:X:X,X;X;X;X:X;X>X>X>X:X>X;X>X;X>X,X>X;X;X;X>X>X:X;X>X;X;X,X>X;X;X;X>X,X>X;X;X,X>X,X>X>X>X>X,X,X,X>X,X,X,X>X,X,X,X,X>X>X,X>X,X>X>X>X>X>X>X>X>X>X>X>X>X>X>X>X>X;X>X;XeX8X,X:X;X;X>X>X>X>X>X;X;X;X;X;X;X&X;X;X;X&X;X;X;X:X;X@X;X;X;X@X@X;X;X;X;X$X;X;X;X;X;X;X;X;X;X;X>X;X;X;X;X;X;X;X;X;X;X;X;X;X;X;X;X;X;X;X;X;X;X;X;X;X;X;X;X;X;X;X;X;X;X;X;X;X>X;X;X>X;X;X;X;X;X;X;X;X;X;X:X;X>X;X@X;X;X;X;X;X;X;X;X;X>X;X>X>X>X>X>X>X>X>X>X>X>X;X,X>X>X>X>X>X>X>X>X>X7X7X>X>X>X>X>X>X>X>X;X;X>X>X;X>X;X7X>X$X;X;X;X>X;X;X>X;X>X;X;X>X>X>X;X;X;X>X>X;X;X>X>X>X;X;X>X>X;X;X>X;X;X>X>X;X;X;X;X$X;X;X>X$X;X;X;X$X;X>X$X>XQ.>X6Xe.l . C 0 B C . % & > . B 1Xf.tXg.g.@X@X@X;X&X;X&X&X&X;X;X&X&X;X&X;X;X&X;X;X&X;X&X&X&X&X;X;X&X;X&X&X;X",
";X@X@X@X@X;X;X;X;X;X;X;X;X;X;X;X;X;X;X;X;X;X;X;X;X;X;X;X;X;X;X;X;X;X;X;X>X;X;X;X>X>X;X;X,X;X;X;X>X>X;X;X;X;X:X;X;X&X;X&X;X&X;X&X&X&X;X&X&X:X&X&X;X:X&X&X&X&X:X&X&X&X:X&X&X&X:X&X;X&X:X&X&X&X:X&X&X&X&X&X&X&X&X&X&X&X:X&X&X&X:X&X:X:X:X:X,X:X:X&X&X:X:X:X:X:X:X:X:X:X,X:X:X&X&X&X&X:X:X&X:X:X:X:X:X:X:X:X*X:X:X:X:X:X:X:X:X:X:X&X:X:X&X&X:X:X:X&X:X:X:X:X:X:X:X:X:X&X:X:X:X:X:X:X:X:X:X:X&X:X:X:X;X:X:X:X:X:X:X:X,X:X:X:X&X:X:X:X:X:X,X:X:X:X&X:X:X&X:X&X:X:X:X;X;X:X:X:X;X&X;X&X:X;X:X;X:X:X:X:X:X:X:X:X,X,X:X:X:X:X&X:X,X:X:X:X:X,X,X:X,X:X:X:X:X:X:X:X:X:X,X:X,X:X:X:X:X,X,X:X,X,X;X:X,X,X:X:X,X,X,X,X:X:X,X,X:X,X:X;X;X:X,X;X:X,X;X;X:X:X:X:X:X:X:X:X,X,X,X:X,X:X:X;X:X:X;X;X:X:X:X:X;X:X:X:X:X>X,X:X;X:X:X:X:X:X:X:X:X:X,X:X:X:X:X:X,X:X:X:X:X:X,X:X:X:X:X:X,X,X,X:X,X,X:X,X,X,X,X:X,X,X,X,X,X,X>X;X,X,X,X;X>X;X,X,X,X,X,X>X:X,X:X:X:X:X,X,X,X,X:X;X,X,X,X:X:X:X:X:X,X,X:X:X:X>X8X,X:X,X,X;X,X,X,X;X;X;X,X,X,X;X;X,X,X,X,X,X,X,X,X,X,X,X,X,X,X,X,X,X,X,X,X>X,X,X,X,X,X,X>X>X>X>X,X,X>X>X>X>X>X>X>X;X;X;XeX>X;X;X:X:X>X>X>X>X>X;X,X;X:X,X;X;X;X,X>X;X>X;X;X;X;X;X>X:X,X;X:X;X;X;X:X>X>X>X>X;X;X;X:X;X;X;X;X;X:X;X;X;X;X;X;X;X>X;X;X;X>X>X;X;X;X;X>X;X;X;X>X;X>X>X;X>X>X>X>X;X;X>X>X;X>X;X>X>X;X;X;X;X>X>X>X;X;X>X>X;X>X;X&X>X>X;X:X;X>X>X:X>X>X>X>X>X>X>X>X>X>X>X8X>X>X;X,X>X>X,X>X>X>X>X>X>X>X>X>X>X>X>X>X>X>X>X>X;X7X>X>X>X>X7X>X;X>X;X>X;X7X>X>X>X;X>X>X;X>X;X;X>X>X>X>X>X>X;X$X;X>X>X>X>X;X>X>X;X>X>X>X$X$X$X>X>X;X>X>X;X>X;X>X>X$X>X>X$XQ.7X8.IX9XB tXg.wXe.  & = > . B KXg.;Xf.g.:X;X@X@XQ.&X&X;X;X;X;X;X;X;X;X&X&X;X;X:X:X:X&X&X&X;X;X;X:X;X;X;X;X",
"&X&X&X&X;X;X;X;X;X&X;X;X;X;X;X;X;X;X;X;X;X;X;X;X;X;X;X&X;X;X;X;X;X;X;X;X;X>X;X;X;X;X;X;X:X;X;X;X;X>X,X;X;X:X,X;X;X&X;X;X&X&X&X&X&X&X&X&X:X&X&X&X:X&X&X&X:X:X:X:X&X&X&X&X:X&X&X:X:X&X&X&X:X&X&X&X&X&X:X&X&X&X:X:X:X:X:X&X&X&X:X:X:X&X:X;X&X:X&X&X&X&X:X:X:X:X:X:X-X:X:X:X:X:X:X:X:X&X:X:X:X:X:X:X:X:X:X:X:X:X:X:X:X:X:X,X:X:X:X:X:X:X:X&X&X:X:X:X:X:X&X:X:X:X:X:X:X&X&X&X:X:X&X:X:X:X:X&X:X;X:X:X:X&X:X:X:X&X:X:X&X:X:X&X:X:X:X:X,X:X:X:X*X:X:X:X:X&X&X:X:X&X:X;X;X;X;X;XeXnX,X&X&X;X;X:X:X:X:X:X:X:X:X:X:X:X:X,X:X:X:X:X:X,X:X:X,X*X,X,X:X:X,X:X:X:X,X:X*X:X:X:X:X,X:X:X:X:X:X:XbX:X;X,X,X,X,X,X,X,X,X,X,X:X,X:X:X:X:X;X;X:X:X:X:X:X:X;X:X:X:X:X,X:X:X;X:X:X:X,X:X,X;X;X:X;X:X;X;X:X,X:X:X;X;X:X:X;X:X:X:X:X:X:X:X:X,X:X:X:X:X:X:X:X:X:X,X:X,X;X:X,X,X,X:X:X,X:X,X:X:X,X,X:X:X,X,X:X,X,X,X:X,X,X:X:X,X:X;X:X:X;X:X;X;X:X;X,X,X:X:X;X,X:X;X;X;X:X:X:X:X:X:X:X:X:X:X;X>X,X,X,X:X:X,X,X>X,X;X;X,X>X;X,X,X;X:X,X,X,X:X;X;X,X,X,X,X,X,X,X,X>X>X>X,X,X,X,X,X:X,X,X,X,X,X,X,X,X,X>X>X;X>X;X>X,X>X;X>X>X>X>X>X;X;X;X>X>X;X;X:X;X>X>X>X>X,X;X;X;X:X;X:X;X;X,X,X;X;X;X;X;X:X;X;X:X:X,X,X;X,X;X;X>X;X:X;X>X>X;X;X,X:X&X;X;X;X;X:X;X;X;X;X;X;X>X;X;X>X>X;X;X;X;X;X;X;X;X;X;X;X>X>X>X>X>X>X;X;X;X>X;X;X>X>X>X;X;X>X;X;X>X:X;X:X;X>X;X>X;X&X;X;X>X>X>X>X>X>X;X>X>X,X8X,X;X>X>X>X,X,X>X>X;X;X>X;X>X>X;X>X;X;X>X;X>X>X;X>X>X>X>X>X;X>X>X>X7X>X;X>X;X>X>X;X>X>X>X>X>X>X;X>X;X>X>X;X;X>X>X>X;X>X>X>X>X;X;X>X>X>X;X>X;X;X>X>X;X;X;X;X;X>X;X;X;X;X>X;X>X;X;X>X$X%X%XPXd.d.KXtXg.,Xg.;XV . = & * % . d.$X>XQ.g.g.Q.:XbX8X;X&X&X&X;X;X&X;X&X&X;X&X&X&X&X:X:X&X&X&X;X;X;X:X:X,X;X;X",
";X;X;X&X&X;X;X;X;X;X;X;X;X&X;X;X;X;X;X;X;X;X;X;X,X;X&X;X:X;X;X;X;X;X;X;X,X;X,X;X;X;X;X,X:X;X,X:X:X;X;X;X:X&X&X&X&X&X:X&X:X&X&X:X:X&X:X:X&X&X&X:X:X&X&X:X:X:X:X:X:X:X:X:X:X:X:X:X:X:X*X:X,X&X&X&X:X:X:X:X:X:X:X&X:X&X&X:X:X:X:X:X:X:X:X:X:X&X:X:X:X:X:X:X:X:X:X*X,X:X:X:X:X:X:X:X:X,X,X:X:X:X:X:X:X:X,X,X,X-X:X-X-X:X,X:X,X:X:X:X*X:X,X:X:X:X*X:X*X&X:X:X:X:X:X:X:X:X,X:X:X:X:X:X:X:X:X:X:X:X:X,X:X:X,X:X:X:X:X:X:X:X:X:X:X:X:X:X:X:X:X:X:X:X,X:X,X:X:X*X*X:X&X:X:X&X;X:XIXUXBX&X;X:X;X:X:X:X:X:X:X:X:X:X:X:X:X:X:X:X:X:X,X:X:X:X,X*X,X:X:X:X:X:X:X:X,X,X,X*X:X:X,X:X:X:X,X,X,X:XaX:X:X,X,X:X,X:X:X,X,X,X,X:X:X,X:X:X,X:X:X:X:X:X:X:X:X:X:X:X,X,X:X:X:X,X,X:X,X,X,X:X:X,X,X:X,X;X:X:X,X,X,X,X:X;X;X:X;X:X:X:X:X,X:X:X,X:X:X:X,X,X,X:X:X:X,X:X:X:X,X:X&X:X,X,X,X,X,X,X,X,X,X:X,X,X,X,X,X,X,X,X,X,X,X,X,X,X;X;X;X,X,X:X:X:X,X,X,X,X:X:X:X:X:X;X:X:X&X:X:X,X,X:X:X,X,X,X,X,X,X,X:X,X,X,X,X,X:X,X,X,X,X:X,X,X,X,X,X,X,X;X,X,X,X,X,X:X,X,X:X,X,X;X,X,X,X,X:X,X,X,X,X,X,X;X,X>X>X>X>X>X,X>X>X>X;X;X>X,X>X;X:X,X>X;X,X:X:X:X:X:X>X:X,X:X:X;X&X&X;X&X:X:X,X,X;X&X;X;X:X:X,X:X:X,X,X;X:X:X:X:X:X;X;X;X:X,X,X:X:X,X,X;X:X;X:X,X,X;X:X;X;X;X:X;X>X>X;X;X;X>X>X;X;X>X>X;X>X>X>X;X>X>X>X;X>X>X>X;X:X;X;X>X>X>X:X:X>X:X:X,X>X;X>X:X,X,X,X,X;X>X,X;X,X,X,X,X,X,X,X,X,X,X,X:X>X,X,X,X>X:X,X,X,X;X:X>X>X>X>X;X>X>X>X>X>X>X>X>X>X>X>X>X>X>X>X>X>X>X>X>X>X>X>X,X>X>X>X>X>X>X>X>X>X;X>X>X>X>X>X>X>X>X>X,X>X>X>X;X>X;X;X>X>X>X>X;X;X>X>X>X;X>X>X;X>X>X>X>X;X>X>X;X;X#XO.y rXIX;X!.BXBXNXB . = = & > $ - 0 7.eXg.g.:X$Xe.d.7X:X&X;X:X&X&X&X:X:X:X&X&X&X&X&X:X:X&X&X&X:X:X;X:X;X;X:X",
";X;X&X&X&X&X;X;X&X;X;X;X&X&X;X&X;X;X&X;X;X;X;X;X;X;X;X&X;X,X;X&X;X;X;X&X;X;X;X;X&X&X,X;X:X:X:X:X:X;X:X&X&X;X&X&X:X;X&X&X;X:X:X&X:X,X:X,X:X:X:X:X:X:X:X&X:X:X:X:X:X:X:X:X:X:X:X:X:X:X,X:X:X:X,X,X*X&X:X:X:X&X&X*X&X&X:X:X:X:X:X:X*X:X:X:X:X:X,X:X:X:X:X:X:X:X:X:X:X:X:X&X:X:X&X&X:X:X:X:X:X:X:X:X:X:X:X,X-X:X*X:X:X:X,X:X*X:X,X:X:X-X:X:X:X*X:X&X!.*X*X:X:X:X:X:X*X:X:X*X:X:X:X:X:X:X:X:X,X,X,X:X,X*X:X*X,X:X:X*XaX,X,X:X:X:X:X:X:X:X*X*X,X:X*X:X-XaX:X&X-X*X:X&X&X&X&X&XBXIXnX&X&X&X:X:X:X:X:X:X:X:X:X:X:X:X:X:X:X:X:X:X:X:X:X:X:X,X:X,X,X*X,X,X,X,X,X:X,X,X,X:X:X:X,X:X:X,X:X:X:X:X,X:X:X:X*X&X:X:X,X,X,X:X,X:X,X:X:X:X:X:X:X:X:X:X:X:X:X:X:X:X:X:X,X,X:X,X,X,X,X:X:X:X,X,X:X:X:X:X,X:X,X,X:X:X:X:X:X:X:X:X,X,X,X:X:X,X,X,X:X:X:X:XeX8X:X:X,X:X,X,X&X:X,X:X,X,X,X,X,X,X,X,X,X:X,X,X,X,X,X,X,X,X,X,X,X,X,X:X,X,X,X,X:X;X:X,X,X,X,X:X:X,X:X:X:X:X,X:X:X:X:X,X,X:X,X,X,X,X,X:X,X,X,X,X,X,X,X,X:X,X,X,X,X,X,X,X,X:X,X,X:X:X,X,X:X:X:X:X,X:X,X,X,X>X,X;X,X;X,X,X,X:X:X;X;X,X,X>X>X>X;X;X:X;X:X:X,X,X,X,X,X:X>X,X:X;X:X;X;X:X:X:X:X:X;X:X:X:X:X;X;X;X;X,X;X;X:X;X;X:X;X:X:X;X;X;X;X;X;X:X;X;X,X;X,X;X:X:X:X:X,X;X:X;X;X,X;X;X8X8X;X;X;X&X;X;X;X;X;X;X>X>X,X;X>X>X>X;X;X>X;X,X,X,X:X;X:X:X,X;X;X:X:X;X:X:X;X:X,X:X:X;X:X>X,X;X:X,X,X;X:X,X,X;X:X,X,X,X,X,X,X,X,X,X,X,X,X,X,X:X,X:X>X,X,X;X,X>X>X>X>X;X>X>X>X>X>X;X>X>X>X:X;X;X>X;X:X;X>X;X>X;X>X,X>X;X>X;X:X>X;X>X>X>X;X;X>X>X>X>X>X>X>X;X,X;X;X;X;X;X>X>X:X>X>X;X>X;X>X;X:X;X>X>X>X;X;X;X>X>X;X&XbX9.  + O.I.W.PX^ V i : = * * $ = = = o 4 l B d.$XB - $ B 8X:X&X&X;X;X&X&X&X&X&X&X&X&X&X&X&X&X&X&X:X&X&X&X&X:X&X",
";X;X&X&X&X;X;X&X;X&X&X&X&X;X;X;X;X;X;X&X;X&X;X&X&X;X;X;X;X;X;X;X;X;X;X;X,X;X:X:X&X;X,X:X:X:X:X:X;X;X:X:X:X,X:X:X:X:X:X&X&X:X:X:X:X&X:X:X:X:X:X:X&X:X:X:X&X:X:X&X&X:X:X:X:X:X:X:X:X:X:X:X:X&X:XaX:X-X,X*X*X*X:X:X:X*X,X:X:X:X:X:X:X:X,X:X:X:X-X:X,X-X:X:X:X:X,X:X:X*X:X:X:X:X:X:X:X&X:X:X:X:X:X:X:X:X-X:X:X:X-X:X,X,X,X:X:X-X*X-X-X-X,X-X:X*X*X-X,X:X:X:X*X:X:X:X*X*X*X:X:X:X:X:X:X*X:X*X,X,X*X*X,X*X*X:X:X*XaX*X:X:X:X,X,X:X*X*X,X,X*X*X-X:X:X-X-X&X-X-X,X-X,X:X:X:X:X:X:X:X,X,X:X:X:X:X:X:X:X:X:X:X,X:X:X:X,X,X,X:X,X:X,X:X:X:X,X:X,X,X,X,XaX,X,X,X:X,X,X,X,X,X:X,X,X*X:X,X,X:X,X,XaX,X,X,X,X,X,X,X,X,X,X,X,X,X:X:X:X:X:X:X,X:X:X:X:X:X:X:X:X:X:X,X,X,X,X:X,X:X,X,X:X:X,X,X,X:X,X,X:X:X,X,X,X,X,X,X,X:X:X:X,X,X,X,X,X*X,X,X:X,X:XbXIXIXbX:X,X:X,X,X,X,X,X,X,X,X,X,X,X,X,X,X,X,X,X,X,X,X,X,X,X,X,X,X,X,X,X,X,X,X,X,X:X:X,X:X,X,X,X,X,X:X,X:X:X,X,X,X,X:X,X:X,X:X,X,X,X,X,X,X,X,X,X,X,X,X,X,X,X,X,X,X,X,X,X,X,X:X,X,X:X:X,X,X,X:X:X:X,X,X,X,X,X,X,X,X,X:X,X,X,X,X:X:X,X:X,X,X,X,X,X,X,X:X:X:X,X,X,X,X,X:X,X,X,X>X:X:X:X:X,X:X:X:X:X:X,X:X:X:X:X;X:X:X:X:X:X:X:X:X;X:X:X:X:X:X:X;X:X:X:X:X,X,X:X:X:X,X:X:X;X:X,X;X:X,X:X&X,X,X;X;X;X;X;X;X;X;X>X;X;X>X>X:X,X,X,X;X:X;X:X,X8X,X:X:X:X:X:X:X:X:X:X:X:X:X:X;X:X:X;X:X,X:X;X&X;X,X,X,X:X>X,X,X,X:X,X:X:X,X,X,X,X,X,X,X,X,X,X,X,X,X,X,X:X,X,X,X>X>X:X>X,X,X,X>X>X,X,X,X,X,X;X:X,X:X,X:X>X>X,X:X:X,X,X,X8X:X>X>X>XMXPXPXeX;X,X,X,X,X,X,X:X:X:X;X;X;X;X;X,X>X>X:X>X>X,X:X:X,X:X:X>X>X>X:X:X:X>X>X>X:X,XwXB - 7 $ q ' O o # & 6 2 % * = * 2 4 8 > $ - - 5 q   ^ MX:X:X:X:X:X&X&X&X&X&X:X*X:X*X*X&X*X*X:X:X:X&X&X&X:X:X",
";X;X&X&X&X;X;X;X;X;X;X&X&X;X;X;X;X;X;X&X&X&X&X&X;X;X;X;X;X&X;X;X;X;X;X,X:X;X:X&X:X;X:X:X&X;X:X:X;X:X&X:X:X&X:X&X&X:X:X:X&X&X:X:X:X:X:X&X&X:X:X&X:X&X:X:X:X:X:X:X:X&X:X:X:X:X:X:X:X:X*X,X,X&X&X:X,X:X:X&X&X:X:X&X:X*X*X:X:X:X:X:X-X:X:X,X,X:X-X-X:X-X:X:X:X:X*X:X:X:X:X:X:X:X:X:X:X&X:X:X:X:X:X:X:X:X:X:X-X-X:X-X-XaX-X-X*X-X-X-X*X-X-X:X:X:X-X*X*X:X:X:X:X:X:X:X:X:X:X:X:X:X:X*X:X:X*X:X*X*X*X*X*X*X*X:X*X:X:X,X:X:X,X:X*X,X*X,X,X*X-X-X-X:X,X-X-X&X-X:X-XaX*X*X,X:X,X,X*X*X,X:X:XaX,X:X,X,X,X:X,X,X,X,X,X,X,X,X,X,X,X,X:X:X:X:X,X:X,X:X,X:X:X,X:X:X,X,X,X,X,X,X,X,X,X,X,X,X-X*X:X,X,X,X,X,X,XaX,X,X,X:X:X,X,X,X,X:X,X:X:X:X:X*X,X:X:X:X:X:X:X:X:X:X:X,X,X,X,X,X,X,X:X:X,X,X:X:X:X:X,X:X:X:X:X,X,X:X:X:X,X*X:X,X,X*X*X*X,X:X,X,X:X,XIXIX,X,X,X,X,X,X,X,X,X,X,X,X,X,X,X,X,X,X,X,X,X,X,X,X,X,X,X,X,X,X,X:X,X:X:X:X,X,X:X:X:X:X,X,X,X,X:X,X,X:X:X:X,X,X,X:X:X:X:X,X,X,X,X,X,X,X,X,X,X,X,X,X,X,X,X,X,X,X,X:X,X:X:X:X,X,X,X,X,X,X,X:X:X:X,X,X,X:X,X,X,X,X,X,X,X:X,X,X,X,X,X,X,X,X,X,X,X,X,X:X:X:X:X,X,X,X,X,X,X:X,X>X:X:X:X:X:X:X:X:X:X:X:X:X:X:X:X:X:X;X:X;X;X:X;X;X:X:X:X:X:X;X:X;X;X:X:X:X:X:X:X:X:X:X:X;X,X:X:X:X;X;X;X;X&X;X:X:X:X;X:X:X:X;X:X:X:X;X;X;X;X:X:X:X:X;X;X:X,X:X:X:X:X:X:X:X:X:X:X:X:X:X:X;X;X&X:X:X;X;X:X&X;X;X>X;X:X;X,X,X:X;X:X:X:X:X,X,X,X,X,X,X,X,X,X,X,X,X,X:X,X:X:X,X:X:X,X:X,X:X,X:X:X,X,X,X,X;X:X;X;X:X:X;X:X:X;X:X,X;X,X,X,X,X:X>XNXIXUXUXNX:X,X:X:X,X,X:X:X;X:X:X:X;X:X;X;X,X,X:X:X:X;X:X:X:X:X:X:X:X:X:X:X:X;X;X:X:X;X>XyXY $ r t t 7 9 9 > , * 2 * % & = < $ = 9 6 t q i e.NX:X*X:X:X&X&X:X*X&X*X&X*X:X:X&X*X&X&X:X*X:X:X&X:X&X&X:X",
";X&X&X;X;X&X;X;X;X;X;X;X;X;X;X;X;X;X&X;X;X;X;X;X;X;X;X;X&X;X;X;X:X&X;X&X&X&X:X:X:X:X:X;X&X;X:X;X:X:X:X&X&X&X:X:X:X&X,X:X:X:X:X:X:X:X:X:X:X:X&X:X:X:X:X:X:X:X:X:X:X:X&X:X:X:X:X:X,X,X,X,XaX*X,X,X,X:XbXIX,X&X:X:X:X*X:X:X:X:X:X:X,X:X:X:X*X-X,X*X-X:X:X*X-X:X-X-X:X:X,X:X:X:X:X,X:X:X,X:X:X:X:X:X:X:X:X-X,X-X-X-XaXuXaX*X*X-X*X*X*X-X*X-X*X&X*X*X-X-X-X-X-X:X:X:X:X:X:X:X:X:X*X:X:X*XaX-X:X*X*X,X,X*X,X,X*X:X,X,X,X,X,X*X*X*X*X*X,X*X,X-XaX*X-X-X-X-XuX*X-X-X*X&X:X-X-X*X:X&X:X&X:X*X*X,X*X*X*X,X,X,X,X,X,X,X,X,X,X,X,X,X,X,X,X:X,X,X,XaXaX,X,X,X-X-X,X,X,X,X,X,X,X,X*XaXaX-X,X-X,X:X,X,X,X,X,X,XaX,X,X:X:X,X,X,X,X*X,X,X,X:X:X:X:X:X:X*X-X-X:X,X,X,X,X,X,X,X,X,XaX,X,X,X,X:X:X:X:X:X,X,X,X-X,X:X:X:X,X,X,X-X,X-X-X-X:X,XaX:X,X,X,X:X,X,X,XaXaX:X,X,XaX,X,X,X,X,X,X,X,X,X,X,X,X,X,X,XaX,X,X,X,X,X,X,X,X,X,X,X,X,X,X:X,X,X,X,X,X,X,X:X,X,X,X,X:X:X,X:X:X,X,X,X,X,X,X,X,X,X,X,X,X,X,X,X,X,X,X,X:X:X:X:X,X,X,X:X:X,X,X,X,X,X,X,X,X,X,X:X:X,X,X:X,X,X8X,X,X,X,X,X,X,X,X,X,X,X,X,X,X,X,X,X:X,X,X:X,X,X,X,X,X,X,X:X,X:X,X:X:X:X:X:X:X:X:X:X:X:X:X:X:X:X:X;X;X:X:X;X:X:X:X:X:X:X:X:X:X:X:X:X:X:X,X:X:X:X:X:X:X:X:X:X:X:X:X&X:X:X:X:X:X:X:X:X;X;X;X;X;X;X;X;X;X;X:X;X:X:X:X:X:X:X:X:X:X:X:X:X:X:X:X:X:X:X:X:X;X:X:X:X:X:X:X:X:X:X:X:X:X:X:X:X,X,X,X,XaX,X,X:X,X,X,X,X,X,X,X,X,X,X,X:X:X,X,X:X,X,X,X,X,X,X,X,X,X:X,X:X:X:X:X,X,X:X:X:X,X,X,X,X,X,X,X,X,X,X<X,X,X,XNXIXIXNX,X:X,X,X,X:X:X,X:X:X:X:X,X:X;X:X,X;X,X,X:X:X,X,X,X:X:X:X:X:X:X:X:X:X:X:X,X:X:X&X:XPXY & g c e 7 6 4 2 * = & = & $ # q B - q 1 C BXnX*X-X:X:X:X:X:X&X&X&X:X&X*X:X*X:X&X&X:X&X:X:X-X:X:X&X&X:X",
"&X&X;X;X;X&X&X;X;X&X;X;X;X;X;X;X;X&X&X&X;X&X;X;X;X;X;X;X;X&X;X;X;X:X&X&X;X:X:X&X&X:X:X;X:X;X;X:X;X:X:X&X:X:X&X,X&X:X:X:X:X:X:X:X:X:X,X:X:X&X,X:X:X*X:X:X:X:X:X:X:X:X:X:X:X:X:X:X:X:X,X*X*X,X,X:X,X&XBXUXbX&X:X:X*X-X:X:X-X:X:X:X:X*X*X:X:X:X*X*X:X:X-X-X-X-X-X*X-X:X:X-X-X:X*X:X:X:X:X,X-X:X:X:X:X:X-X:X-X-X-XaX&X-XaX*X*X*X-X-X-X*X-X*X-X-X&X&X-X-X-X-X-X-X*X:X:X:X:X:X*X:X,X:X,X:X*XaX,X:X*X*X,X*X*X-X,X*X:X:X,X:X-X,X*X-X,X*X,X*X-X-XaX-X-X-XaX-X-X-XaX-X-X-X-X,X-X*X-XaXaXaX&X-X*X-X-X-X*X*X,X,X,X,X,X,XaX,X,X,X,X:X,X,X,X,X,XaXaX-X,X-XaX,X-X-X-X-X,X,X,X,X,X-X,X*X,X,X-XaX,X,X,X*X,X,X*X,X,X,X,X:X,X,X,X,X,X,X,X,X,X:X:X:X:X:X*X-X-X-X,X-X,X,X:X*X,X,X,X,X,X,X:X-X,X:X:X:X,X:X:X,X:X*X:X:X,X:X:X,X,X,X,X-X*X:X,X,X:X,X:X:X,X:X,X,XaX,X,X,X,X,X,X,X,X,X,X,X,X,X,X,XaX,X,X,X,XaX,X,X,X,X,X,X,X,X,X:X,X,X,X*X:X,X,X,X,X,X,X,X,X,X,X:X,X:X,X,X*X:X,X*X*X,X,X,X,X,X,X,X,X,X,X,X,X,X,X:X,X,X,X,X:X:X,X,X,X:X,X:X,X,X,X,X,X:X,X:X:X:X,X:X:X:X,X;X;X8X8X,X,X,XaX,X,X,X,X,X,X,X,X,X,X:X,X:X,X:X:X:X:X,X:X:X:X:X:X:X:X:X:X:X:X:X:X:X:X,X:X:X:X:X:X:X:X:X:X:X:X&X*X:X:X:X:X:X:X:X,X:X:X:X:X:X:X:X:X:X:X:X:X:X:X,X,X&X&X&X;X&X:X&X:X&X&X;X&X&X;X&X&X:X:X&X:X;X;X;X:X:X:X:X&X:X:X&X:X:X:X:X:X:X:X:X:X:X:X:X:X:X:X:X:X:X:X:X:X:X:X,X:X:X:X:X:X,X,X:XaX,X,X:X,X,X,X,X,X,X,X:X,X,X:X:X:X:X:X:X,X:X,X:X:X,X,X,X:X:X,X,X:X:X:X:X:X,X,X,X:X:X,X,X,X:X:X,X,X:X,X,X,X:X,XnXnX,X:X:X:X:X:X:X:X:X:X:X:X,X,X:X:X:X:X:X:X:X:X:X,X,X,X:X:X:X:X;X:X:X:X:X:X:X;X:X:X;X&X,XtXC 5 q # . . = = % * # & & . - %X+XB 0   7.BX-X,X:X,X:X&X:X:X&X&X*X*X&X&X&X&X&X&X&X:X&X:X*X*X-X:X:X&X&X",
"&X:X:X&X:X;X&X&X;X:X:X;X&X&X;X&X&X:X:X:X&X&X:X&X:X:X;X&X;X:X:X;X:X:X:X&X:X:X:X&X&X:X:X:X,X:X:X:X:X:X:X&X:X:X,X,X:X:X,X:X,X:X:X:X:X:X-X*X:X:X-X,X*X:X*X:X:X:X,X:X-X,X,X-X:X:X:X:X,X:X:X:X*X*X,X:X,X,X,XbX:X,X*X:X:X*X-X-X*X-X-X-X-X-X-X:X-X-X*X-X:X:X-X:X-X*X-X-X,X-X-X:X:X-X-X-X,X-X-X-X*X*X-X-X-X*X-X*X-X-XaX-X!.*X*X*X-X*X*X*X-X*XaX*XuXuX-X:XuX-X-X-X-X*X,X*X*X-X-X:X,X,X,X,X:X-X,X,X,X,XaX-XaX,X-X-X,X,X:X-XaX,X,X,X,X,X,X,X*X,XaXaXuX-XuXuXaX-XuX-XuX-XaX,X-X-XaXaXaX-XaX-X-XaXaX-XaXaXaXaX-XaXaX,XaXaXuX,XuXaX-X-XaXaXaXaXaX-X-X-X-XaXaX-X-XsXaXuX,X,X,X,X-X-XaX*X*X,XaX-XaXaXaX*XaXaX,X-X,XaX,X:XaX,X,X,X,X-XaX*X,X,X,X-X:X-X,X-X-X-X,X-X,X-X-X-XaXaX,X,X,X,X,X-X,X,X,X,X,X,X-X:X*X*X,X,X,X,X,X,X,X,X,X,X*X*X,XaX,X,X,X,X,X,XaX,XaX,XaXaX,XaX,X,X,XaXaX,X,X,X,X,X,X,XaX,X,X-X,X,XaXaX,X,X,X,X,X,X,X,X,X,X,X,X,X,X,XaX,X,X,X,X,X:X,X,X,XaX*X,XaX,X,X,X,X,X,X,X,X:X:X,X,X,X,X,X,X:X,X,X,X,X,X,X,X,X,X,X,X,X:X,X,X:X,X,X,X:X:X:X:X&XaXnXPX7X#XW.$X,X8X,XaX,XaXaX,X,XaX,X,X,X,X,XaX,X,X,X:X:X,X:X,X-X,X,X,X:X,X-X-X-X-X-X-X-X-X-X-X-X-XaX*X-X-X,X,X:X:X:X:X:X:X,X,X:X,X:X:X:X:X:X:X:X:X:X:X:X:X:X:X&X&X:X:X:X:X:X:X&X:X:X&X&X:X:X&X:X:X:X:X:X:X:X:X:X;X:X:X:X:X:X:X:X:X:X,X:X:X:X:X&X:X:X:X:X:X:X:X:X:X&X:X:X:X:X,X,X:X&X:X,X,X,X:X:X:X:X,X:X,X,X,X,XaX,X,X,X:X,X,X:X,X,X,X:X,X,X,X:X:X:X:X:X:X:X:X:X,X,X,X,X,X,X,X:X:X;X:X:X:X:X,X:X,X,X,XeXeX,X,X:X:X:X:X:X,X,X:X:X:X:X:X:X:X:X:X:X:X:X:X:X:X:X:X:X:X:X:X:X:X:X:X:X:X:X:X;X:X:X:X:X:X:X:X:X:X&X:X7X4Xf.B ' ^ - $ & = & & =   B PX8.g.W.a.;X*X-X-X-X,X:X:X:X:X:X:X*X&X-X&X*X*X&X:X*X&X:X:X*X:X:X-X:X:X:X",
":X&X:X:X:X:X&X&X&X:X:X:X:X&X&X&X:X:X:X:X:X:X:X:X:X:X:X&X:X;X:X:X:X;X:X&X&X:X:X&X&X&X:X:X:X,X,X:X:X:X:X:X:X:X:X,X&X&X:X:X:X:X:X:X:X:X:X:X:X&X*X-X:X:X:X:X,X-X:X-X:X:X-X-X:X:X:X-X:X-X,X:X-X:X:X*X-X,X:X:X,X,X*X:X:X*X-X-X:X-X-X-X-X:X:X:X*X-X-X-X-X*X:X-X-X-X-X-X-X-X:X:X-X-X-X-X-X-X&X&X-X-X-X-X-X-XaXuX-X*X-XuX-XuXuX-X-X-X*X-X-X-X-XuX-X*X-X&X-XuX*X:X-X-X,X*X-X-X-X-X-X,X-X:X-X:X-X&X,X-X-X,X-X-XaX-X-X*X-X:X:X,XaX,X,X-X,X-X,X-XuXaXuX-XaXuX-XuXuX-X-X-XaX-X-X-X-XuXuX-X-X-XuX-X-X-X-XaXuXuXaXuXuXaXuXuXuXuXuX-XuXaXaXuXuXuXuX-XuXuXaXuXaX-X-XuXaXaXaX-X,X-X,X-XaX-X,X-X,X*XaX,X,XaXaXaX,X:X,X,X,X,X,X,X-X-XuX-X-X-X-X,X,X-X,X-X,X,X-X-X-X-X,X-X-X-X,XaXaX,X,XaX-X-X-X,X,X,X-X,X-X*X,X:X:X:X,X,X,X:X,X,X,X,X,X-X:XaX,X:XaX,X,X,X,XaX,X,XaXaX*X*XaX,X,XaXaXaXaX,X,X-X,XaX,X,X,X-X,X,X,X,XaX,X,X,X,X,X,X,X,X,X,X,X,X,XaX,X,X-X*X:X*X*X,X-X,XaX-X-XaX,X,X*X,X,X,X,X,X:X:X,X,X,X,X,X,X,X,X,X,X,X,X,X,X,X,X,X,X:X,X,X,X:X:X:X,X,X:X&X:XbXBXmXNXPXrXE.I.#X7X8X,X,XaX-XaX,XaX,X:X:X*X*XaXaX,X*X,X-X:X-XaXgXgXsXsXiXiXuXiXiXiXuXuXiXiXuXiXiXiXuXaXaXsXaXaXaXnXgX:X:X:X:X,X,X:X:XeXbX,X&X:X:X:X:X:X:X:X:X:X&X:X:X:X:X,X:X:X:X:X&X:X:X:X&X:X&X&X:X:X&X:X:X:X:X:X&X:X:X:X:X:X:X:X,X:X,X:X&X:X:X:X:X:X:X:X:X:X:X:X&X:X*X:X:X:X,X:X:X:X:X,X*X,X*X,X,XaX,XaX,X,X,X*XaX,X*X,X,X*X,X,X,X,X:X,XaX:X:X:X:X:X:X:X:X:X,X,X:X,X,X:X:X:X:X:X:X:X:X:X:X:X:X,X:XeXIXUXnX:X:X,X:X,X,X*X:X,X:X:X:X:X:X:X:X:X&X:X:X:X:X:X;X&X&X:X:X:X:X:X:X:X;X:X:X:X:X:X:X;X;X:X;X&X;X;X;X:X;XvX8X7XUXUXi . = & # & & # X d.;XeX>X!.=XuXhXmXaX*X:X-X:X:X:X:X*X*X&X:X*X:X*X:X*X-X&X:X-X:X&X&X*X:X:X",
":X:X:X:X:X:X:X&X&X&X:X:X:X:X:X:X:X:X:X:X:X:X&X&X:X&X:X:X:X:X:X:X:X:X:X:X:X:X:X:X:X:X:X:X:X:X:X:X:X:X:X:X:X:X:X:X:X:X:X:X*X:X:X:X,X:X-X-X-X*X-X:X-X:XaX-X-X-X,X-X-X:X:X-X-X-X-X-X,X-X,X,X,X-X,X,X,X-X,X,X,X-X,X,X-X:X:X:X:X:X,X,X-X:X:X-X,X-X*X-X,X-X-X-X:X-X*X-XaX-X*X-XaX-X-XaXuX-X-X-XaX-X-XuXaX-X-X-X-X-XuX-XaX-XaXuX-X-X-XaXaX-X-X-X-X-XuX-XuX-X*X-X-X-X-X,X-X-X-X-X-X-X-X-X,X-X*X-X-X-X,X-XaXuX-X-X-X-XaX-X-X,XaX-X,X-XaXaXaXuXaXaXuXuXaXuXaXuXaX-X-X-XuXuXuXuXuX-XuXuXuXuXaXuXuX-XuX-XuXaXaXaXaX-X-X-XaXaXaX-XaXsXaX-XuXaXaXuXaXaXuX-XsXuXuX-XaX-XaXaXuXaXaXuXuXaXaX-X-XaXgXaX,XaXaXaXaXaXaX,XaXaXaX,X-X-XaX-X-X-X-X-X-XaXaX-XuXaX-X-XuXaXuXuXaX-XaX-X-X,XaX,X-X-X-X-X,X,X,X,X,X,X,X,X,X,X,X,X-X,XaX,X,X,X,X,XaX,X,XaXaX,XaX,X,XaXaX,XaXaX,X,XaXaXaX,XaXaXaXaX,X,XaX,X,X,XaX,XaX,X,X,X,X,XaX,XaX,X,X,X,X,XaX,X,XaXaX,XaXaX,X,X-X,XaX,XaX,X-X,XaX,X,X,X,X,X,X,X,X,XaX,X,X,X,X,X:X,X,X,X,X,X,X,X,X,X,X:X:X,XaX,X,X,X,X:X,X:X*X:XnXVXDXmXNXJXPXrX3XP./.#X8XaX,XuXsXaXaX,X,X,XaX*XaXaXaXaXaXaXaX,XaXaXsXuXuXuXuXuXsXsXsXaXiXiXsXsXiXuXuXuXuXuXaXaXuXuXgXaX:X-X-X:X,X,X,XNXIXUXPX,X,X,X,X*X,X,X,X,X:X:X,X,X,X,X,X,X,X,X-X:X-X,X,X:X:X:X*X*X:X:X,X:X:X,X:X:X:X:X,X:X:X:X,X-X,X*X:X:X,X-X,X*X,X,X,X:X,X,X,X:X:X-X,X,X,XaX,X,XaX,X,XaXaXaXaXaX,XaXaX,X,XaXaXaX*XaXaX,XaX*X,X,XaXaXaX,X,X,X,X,X,X,XaX*X,X*X,X,X,X,X,X:X:X:X,X:X:X,X,X:X:X,X,X,XIXUXUXIX,X,X,X,X,X,X,X,X,X,X-X,X,X:X:X:X:X:X,X:X:X:X:X:X:X:X:X:X:X,X,X:X:X:X:X&X*X:X:X=X:X:X&X;X:X&X;X;X>XQ.W.8.8XPXPX0 o 2 & & & & = #   @ 7.NXbXBX>X9.7.&XaX-X,X:X-X:X*X-X*X&X*X&X-X-X&X-X-X:X:X:X:X&X*X&X:X-X",
"*X:X:X:X:X*X:X:X&X:X:X:X:X:X:X:X:X:X:X:X:X:X:X:X:X:X:X:X:X:X:X&X:X:X:X:X:X:X:X:X,X:X:X:X*X:X:X:X:X:X*X:X:X,X:X:X,X:X:X*X*X:X-X:X:X-X-X-X-X-X-X-X-X-X-X-X-X-X-X-X-X-X-X-X-X-X-X-X-X-X*X-X-X-X,X,X-X,X,X-X-X-X-X-X-X&X:X&X:X-X-X-X-X:X-X-X-X,X*X-X-X*X-X-X-X-X-X-X-X-X-X-X-XuX-X-X-X*XaX-X-X-X-X-X-X-X*X*XuX-XuX-X-X-X-XuX-XuXuX-XuXuX-X-XuXuX-XuX-X-X-X-X-X-X-X-X-X-X-X-X-X-X-X-X-X-X-X-XaX-XaX-X-X-X-XaXnXaX-XuXaX-XaXaXaX-XuXaXaXaXaXuXaXuXuXuXuXuXuX-XuX-X-XuXuXuX-X-XuXuXuXuXuXaXuXuX-X-XuXuXuXuXuX-X-XuXuXaXuXuXuXaX-X-XaX-XuXaXuXuXaXuXaXuXuXaXuXuXaXuXaXuXuXuXaXuXaX-XuXaXaXuX-XaXsXaXsXaXaXaXaXaXaX-XaX-XuXuXuX-XuX-XuXuXuXuXuXuXuX-XuXuXaXuXuXaXaXuXuX-X-XaXaX-XuXuX-XuXaX-X-XaX,XaX-XaX,X:X,X-XaX,X-X,X,XaXaX,XaXaXaXaX-XaXaXaXaXaXaX,XaXaX,XaX,X,X,X-XaX,XaXaX,XaX,X,XaXaX,X,X,X,X,X,X,X,X,X,XvXaXaX,X,X-X,X-X,XaXaXaXaX-XaX-X,X,XaX-X-XaX*X,XaX,X,X,X-X-XaX,X,X,X,X,X,X-X,X,X,X,X,X-X-X,X,X,X,X:X,X:X,XaX,X:X,X,X:X:X,XmXDXVXnXVX7X1XrXJXJX].G.G./.4X8XaX-XaXsX-XaX,X,XaXaXaXaXaXaXaXaX-X-X:X:X-X,X-X-X-X-XuXuXuXuX-X-XaXuX-X-X-X,X-X-X-X-X*X&X*X:X:X-X-X-X*XbXUXUXUXUXnX:X,X,X-X,X,X,X,X,X-X,X,X,X-X-X,XaX-X-X-X-X-X-X:X,X:X:X:X:X:X:X:X,X:X,X:X-X-X-XaX,X:X:X-X-X-X,X-X-X-X-X,X,X-X-X,X-X-X,X:XaX,X,XaX,X-XaX,X,X,XaXaX,X,X,X,XaX-X,XaX,X,XaX,XaX-X,XaX,XaXaX,X,X,XaX*X,X,X,X,X,X,XaXaX*X:X,X,X*X*X,X:X,X:X,X*X,X:X,X,X,X:X,X:XIXUXUXIX,X,X,X:X,X*X,X,X-X,XaX,X,X,X,X,X,X:X:X:X:X:X:X:X:X:X:X:X,X:X,X:X:X:X:X:X*X:X*X=X&X&X;X&X;X;X;X;X>XyXPX` 7.4XL.q # * * * % & * & O -   V f.7.B i   a.hX-X-X-X-X-X-X*X-X*X-X-X-X&X-X:X-X-X:X:X*X&X-X:X&X-X",
":X:X:X:X:X:X*X-X:X*X,X-X*X,X*X-X:X-X-X:X:X:X:X:X-X-X:X:X,X:X:X:X:X,X:X:X:X:X*X:X-X-X,X-X,X-X-X-X-X*X-X-X-X-X,X-X,X*X,X-X-X,X,X-X-X-X-X-X-X-XuX-X-X-X-X-X,X,X,X-X-X-X,X-X-X-X-X-X,XaXuX-X-X,X,X,X,X-XuX-X-X-XuX-X-X-XuX-XuX-XuX-X-X-X-X-X-X-XuX-X-XuXuX-XaXuXuXuXuXuXaX-XuXaXuXaX-X-XaXuX-XuXuX-X-X-XuXuXuXuX-XuXuXuXuXuXuXuXuXuXuXuXuX-XuXuXuXuX-X-XuX-XaXuX-X-X-X-XuX-X-XuXuX-X-X-XuXaXaXaX-XaX-X-X-XgXmXaXaXaXsXaXaXaXaXaXuXuXaXaXuXuXuXuXaXuXuXuXuXuXuXuXuXuXuX-XuXuXuXuXuXuXuXaXaXuXuXuXuXuXuXaXuXuXuXuXaXuXaXaXsXaXaXaXaXuXaXaXaXaXsXaXaXuXaXaXaXaXaXaXaXuXuXaXaXuXuXsXuXuXuXuXsXaXaXaXsXsXaXsXsXaXaXaXaXuXuXsXuX-X-XuXsXuXuXuXuXuXaXuXuXuXsXaXaXaXaXaXaXuXaXaXaXuXaXaXuXaXaXuXuXuXaXaXaXaXuX-XuX-XaXaX-X-XaXaXaXaXaXuXaXuXaXaXaXaXaXaXaXaXaXaXsX-XaXaX,XaXaXaXaXaXaXaXaXaXaXaXaXaX,X,X,X,X,X,XaXaXaXaX-X,X,X,XaX-XaX,X,X,XaXaXaX-XaX,X,X-X-XaXaX,XaX,XaX,X,X,XaXaXuXaXaX,X-X,XaX,XaXaX,X,X,XaXaXaXaXaX,X*XaXaX,X,X,X*X,XgXBXVXVXVXVXDX7XK.].5XJXyX5XU.U.G.4X8XaXaX-XaXsXuXuXaXuX-X-X-XaX-X-X-X-X,X,X,X,X,X-X-X,X-X*X,X-X-X,X-X-X-X,X,X,X,X,X,X,X:X:X:X,X-X-X-X-X-XBXUXUXIXUXnX,X,XaXaXuX,X,X,X,X-X*X,XaX-X,X-X-X-X-X-XaX-X-X-X,X:X&X;XBX:X:X,X,X*X,X,XaX-XaXaXaXuX-X-XuXuXuXuXaXuXuX-XuXuX-X-X,X-X-X-XaX,X,X-X-X,XaXaX,XaXaXaXaX,X,XaXaXaXaXaXaX-X-XaXaX,XaXaXaX,X-XaXaX,X*XaXaX,XaXaXaX,XaXaXaX,X,X,X,X,X*X,X,X,X,XaX,X,X,X,X,X,XaX*XaXPXIXnXaXaX,X,X,X,X,X,X,X:X,X,XaX,X,X,X:X:X,X,X,X:X:X:X,X:X:X:X,X,X,X,X*X:X-X-X:X&X:X,X:X&X:X;X&X>XtXwX].^ ^ i - . - ; = * = & = & & . q ' q . .   C d.B !.gXuXuXuX-X-X-Xj.&XbXnXgX-X-X-X-X-X-X:X-X&X-X-X*X-X:X",
"*X-X:X-X*X-X:X,X-X-X-X-X,X,X,X*X-X-X-X-X-X*X-X,X,X-X-X-X:X,X:X:X,X:X:X:X:X:X:X-X:X-X,X*X-X-X,X-X-X-X-X-X-X-X,X-X-X-X,X-X*X-X-X-X-X-XuX-XuX-X-XuX-X-X-X-X-X-XuX-X-X-X-X-X-X-X-XuXuXuX-XuXuXuX,X-XuX-XuXuXaX-XuXuXuXuXuXuXuXuXuXuXuXuXuXuXuX-XuX-XuX-X-XuXuXuXuXuXaX-XuXuXuXuXaX-XuXuX-XuXsX-X-X-XaX-XuX-X-XuXuXuXuXaXuXuXuXuXuXuXuXuXuXuXuXuXuXuXuXuXuXuX-XaXaX-XuX-X-XuXaX-XuXuXuX-XuXuXuXaXaX-XuX-X-X-X,X-XaXuXaXsXsXaXuXaXuXuXiXiXiXuXuXuXaXaXuXuXuXuXuXuXuXuXuXuXuXuXuXuXuXuXuXuXuXuXuXuXuXuXuXuXuXuXuXuXuXuXaXsXsXuXaXuXaXaXaXaXuXsXaXuXaXuXuXaXsXuXaXiXiXaXuXuXaXuXuXsXuX-XuXaXsXaXuXsXaXaXsXaXaXuXaXaXaXuXuXuXuX-XuXaXuXuXuXuXuXuXuXuXuXaXaXsXuXuXaXaXaXuXuXaXaXuXaXsXuXaXaXuXuXuXaXuXaXaXuX-XuXaXaXuXuX-XuXuXaXuXuXuXuXaXaXuXuXaXuXaXaXaXaXaXaXaXaXaXaXaXaXaXaXaXaXaXaXaXaXaXaX,XaX,XaXaXaXaX,XaX-X-XaXaXaX-X,X-X-XaXaX-XaX-XaXaX-X-X,X-XuX-XuX-X-XaXaXaX,X-X-X-XaXaX,X-XaX-XaXaXaXaXaX-XaXaXaXaXaXaXaXaX,X,X,X,X-X,XnXVXVXmXVXVXVXVXAX6XP.G.3XJXJX3XU.U.F.].eXaXaXuXuXaXaX-XuXuXaX-X-XaXaX,XaXaX,X-X,XaXaX-X-XaXaX*XaX,X,X-XaX,XaX,X,X,XaX,X-X-X-X-X-X-X,X-XuX-XnXUXUXIXIXbX,XaXuXuXuX-XaX-X-X-XaX-X-XuX-X-XaXuXaX-X-X-XaX-X-X-X8X7.7.BX,X:XaXaXaXuXaXsXuXuXaXuXuXuXuXuXuXuXuXuXuX-XuXuX-X-XuX-X-X-X-XaX-X-XaX-XuXuXaXuXuXaXaX-XaXuXuXaXaXuXuX-X-X-X-XaXuXuXaX-XaX-X-XaXaXuXaX,XaXaXaXuXaXuXaXaX,X,XaX*X,X*X,XaXaX-X,X,X,X*XaX-X-XaXaX:X,X,XaXaX,XaXaXaXaX,X,X:X-X-X-X-X:X:X,X-X:X,X,X:X*X:X:X:X,X:X:X:XbXbXnX,X*X*X-X-X-X&X*X:X&X;X8X#XB B l $ - + & 1 1 > = * & & & & & # O : 5 h q - . X V uXiXuXsXuXaX-X*XsXIX8.u a.gX*X-X-X-X-X-X:X-X-X-X-X*X-X",
",X-X-X,X*X-X-X,X,X:X-X-XaX*X*X,X,X,X-X-X,X-X,X,X,X,X-X,X*XvX,X:X,X:X:X:X:X:X:X-X-X-X*X-X-X-X,X-X-X-X-XaX-X-XaXaXaX-X-X-XaXaX-XuXuXuXuXuXuXuXuXaXuX-X-XuXaXuXaXaXuXuXuXuXuXuXuXaXuX-XuXaXaXuX-XuXuX-XuXaXaXuXuXuXaXuXuXuXuXuXuXuXuXuXuXuXuXuXuXuXuXuXuXuXuXuXuXiXuXuXuXuXuXuXuXaXsXuXuXuXuXuXuXuX-X*XuXuXuXuXiXuXuXuXuXuXuXuXuXuXuXuXuXuXuXuXiXuXiXuXuXuXaXaXuXuXuXuX-XuXuXuXaXaXuXuX-XaXaXaXaXaXaXuXuX-X-X-XuXuXaXuXaXuXaXaXaXiXiXiXiXiXiXiXuXuXiXiXiXiXiXiXiXiXiXiXuXiXiXiXiXiXuXuXuXuXiXuXuXuXuXiXaXuXiXiXuXsXaXuXaXaXsXaXaXaXaXaXaXaXuX-XsXaXuXiXiXaXaXaXiXiXiXuXsXiXaXuXuXiXgXaXsXaXaXuXaXsXsXaXuXuXaXuXuXuXuXaXsXaXsXiXaXiXuXuXsXiXaXuXuXuXuXuXuXuXaXuXsXaXaXsXaXuXaXsXaXaXaXuXuXuXaXuXaXaXuXuXaXsXaXuXaXuXuXuXaXaXuXuXaXuXuXuXaXuXsXuXsXsXsXaXsXuXaXaXaXaXsXaXaXaXaXaXaXaXaXaXaXaXaXaXaXaXaXaXaXaXaX-XaX,X,X,X,X-XaXaX-X-XsXuXaX-XaXuXuXuXaXuXuXuXuXuX-X-XaX-X-X-XaX-XaX-XaX-XaXaXaXaXaXaXaXaXaXaXaX,X,X,XaXaX,X:XaXmXDXVXVXVXVXVXVXVXDXPX5XY.'.R.rXJX5XY._.U.].7XaXuXaXuXaXaXuXaXaXaXaXuXuXaXaXaXaXaXaXaXaX-X,XaX,X,XaXaXaXaX*XaXaXaXaX,XaX,X,X,X,X-X*XaXaX-XuXaXaXAXUXUXIXaXaXaX,X-XaXaXaXuX-XaXaX-X-X-XaXaX-XaXaXaXaX-XuX-X-X-XvX8XV ^ KXaX-XaXaX-X-XaXuXaXsXuXuXuXuXiXaXaXuXuXuXuXuXuXuXuXuXuXaX-XaXuXuXuXaXuXuXaXuXuXaXuXuXaXaXuXaXuXaXuXuXaXuXuXuXuXuXuXuXaXaXuXaXuXaXaXaXaXaXaXaXaXaXaXaXaXaX,X-XaXaXaXaX-X-X-X-XuXaXaX-X-X-XaXgX-XaXaXaXaXaXaXaXaXsXaX-X,X,X:X-X-X-X-X,X-X-X-X:X-X,X*X*X,X,X-X,X,XBXV V bXbXj.aX&X-X:X:X:X;X&XMX9.  m q 5 C s.B $ 6 = , * = * & & * = > & q t q B 9.9.g.pXiXiXaXuXuXhXBX8X`     7.bX-X-X-X-X-X,X*XuX-X-X-X-X-X",
"-X-X-X-X-X-X-XaX-X-X-X-X-XuX-X-X,X-XaX-X-X-X,X,X,XaX-X:XvX>X&XaX:X-X:X:X,X:X-X:X-X,X:X-X-X-X-X-X-X-X-X-X-XuX-XaXuX-X-X-XuX-XuXuXuXiXuXuXuXuXuXuXuX-XaXaXuXuXuXuXuXuXuX-XuXuXuXuXuXuXaXuXuXuXuXuXuXuXuXuXsXsXuXuXuXuXuXuXuXuXuXuXuXuXiXiXiXuXuXuXuXiXiXuXuXuXuXuXiXuXuXuXuXiXsXuXuXsXuX-XuXuXaXuXaXbX-X-XuXuXuXuXuX-XuXuXuXuXuXuXuXuXuXuXuXiXuXuXuXuXuXuXuXuXuXuXaXuXuXuXuXiXuXaXuXuXaXuXuXuXuXuXuXuXaX-X-XgXsX-XuXuXuXuXaXuXiXiXiXiXiXiXiXiXiXiXiXiXiXiXiXiXiXiXiXiXiXiXiXiXiXiXiXuXiXuXiXuXiXiXiXiXiXaXsXiXsXuXuXuXuXaXsXaXaXaXaXaXuXaXuX-XsXaXuXiXiXiXaXiXiXiXuXiXuXsXsXuXuXaXiXsXuXuXiXuXuXaXaXaXaXaXuXsXaXuXsXiXsXaXiXiXiXiXiXaXuXiXaXiXiXiXiXuXuXuXaXuXuXaXaXuXaXuXuXsXuXaXaXuXuXuXaXuXaXuXsXuXuXuXuXuXsXuXuXuXiXaXiXuXuXuXuXiXiXuXiXiXuXsXaXuXuXuXuX-XaXuXuXuXaX-XsXaXaXaXaXuXaXaXaXaXaXaXaXaXaX,XaXaX,X,XNXNXvX-XaX-XsXuXaXaX-X-XaXuXuXuXaXuXuXuXuX-XuX-XuXuXuX-XuXaXuX-XuXuXaXaXaXaXaXaXaXaXaXaXaXaX-X,XaX,X,XvXVXVXVXVXmXVXVXmXDXVXmXMXKXoXU.U.'.qXJX5XY.`.T.F.4XvXaXuXuXuXaXuXaXaXuXuXaXuXuXuXaXaXaXuX-XuXaX*XaX-XaXaXaXuXaX,X,XaXaX,XaX,XaX*X-XaX-XaXuXuXuXaXaXbXBXnXaXuXaX-XaXuXaXaXaXuXuXuXaXuXuXuX,X-XaX-XaXaXaXuX-X-XaXuX&XbXNXB C 8XmX-X*XuXsXuXaXuXuXsXuXiXiXiXiXiXuXuXiXuXuXiXuXuXiXuXuXuXuX-XaXuXuXsXsXuXuXuXuXuXaXuXaXaXuXuXuXuXuXuXuXuXuX-XuXuXuX-XuXuXiXuXuXuXsXaXuXuXaXaXsXaXuXuXaXuXaXuXaXaXuX-X-X-XuXuXuXuXuX-XsX-XaXgXuXaXaXuXaXaXaXaXaXaXaX-X-XuXuX-X-X-X-XuX-X-XuX-X-X-X,X:X-X,X-X:XBXeXV 0 d.a.BX:X*X*X:X&X;X&XbXa.Y Y ^ l X K.B . 1 = * * * * * & * * $ . O + y ^ UXIXhXiXiXiXiXiXDX$XV X 0 8.Q.,X-X-X-X:X-X-X-X-X-XuXuX-X-X-X",
"-X-XuX-XaXaXuXuX-X-XaXuXuX-XaXuXaXaX-X-X-XaXaX-XaXaXaX-XBX8.a.nX:X,X:X*X,X-X-X-XuXaX-X-X-XuXuXuX-X-X-X*XaXuXuXuXuXuX-XuXuXuXuXuXuXiXuXuXuXuXaXaXuXuXsXsXuXuXuXuXaXaXuXuXuXuXiXuXaXsXsXaXuXsXsXaXiXiXuXuXsXsXiXuXiXiXiXuXiXiXiXiXiXiXiXiXiXiXiXuXuXuXiXiXuXiXiXuXiXiXiXuXiXsXuXiXiXuXuX-XiXuXuXuXDXUXDX-XuXuXiXuXiXiXaXiXiXiXiXiXuXiXuXuXiXsXsXuXuXiXaXuXiXuXaXiXuXaXsXiXaXiXaXuXuXuXiXuXuXuXaXuXuXuXiXaXsXDXnX*XuXiXsXuXsXiXiXiXiXiXiXiXiXiXsXiXiXiXiXiXiXiXiXiXiXiXiXiXiXiXiXiXiXiXsXiXiXiXiXiXaXiXiXiXiXaXsXsXsXiXiXsXsXsXsXaXsXaXsXsXiXuXsXsXuXiXiXiXiXiXiXiXiXuXsXsXiXuXsXuXiXaXuXsXsXaXsXiXsXsXsXaXsXsXsXiXuXuXiXuXiXuXiXiXsXiXuXuXuXiXsXaXiXiXiXiXaXsXiXuXiXuXsXiXiXiXuXsXsXuXuXuXsXaXaXaXiXuXuXuXiXiXsXaXaXsXiXuXiXiXiXuXiXiXiXiXsXiXsXiXiXiXiXsXuX-XaXuXuXaXaXaXaXaXsXaXaXaXaXaXaXaXsXsXaXaXaXaXaXaX,XbXIXUXPXaX,XaXsXaXaXuXuX-XsXuXaXuXuXuXuXuXuXuXaXuXaXaXuXuXuXuXaX-XuXaXaX-XaXaXaXaXaXaXaXaXaXaXaXaXaXaXnXVXDXVXVXVXVXVXDXDXDXDXmXbXPXJX'.`.).Y.6XrX0XY.Y.T.U./.8XaXaXaXsXiXuXiXsXiXaXiXaXaXaXuX-XaXaXaXsXaXaXaXaXaXaXaXaXaXaXaXaXaX,XaXaXaXaXaXaX-XuXuXsXuXsXaXaXuXaXaXsXuXsXaXaXaXuXaXaXuXaXaXaXuXuXaXaXaXaXaXaXaXuXaXsXaXaX-XvXQ.y B W.gX-XuXuXiXgXsXiXiXiXiXiXiXiXiXsXaXsXiXiXiXiXiXsXiXuXaXsXaXsXiXiXsXsXsXsXaXiXaXaXaXaXaXaXaXuXuXaXuXuXaXuXuXuXaXaXaXmXDXIXFXDXgXiXiXsXsXsXaXiXaXsXsXiXsXsXaXaXsXsXiXuXaXsXiXuXaXsXuXsXsXsXuXuXsXsXsXaXaXsXaXsXaXaXaXaXuXaXaXaXuXuXuXuXuXaXuXuXaXaXaXaX-XaXaXbXIXUX7.0 B 7.PXnX:XaX,X:X&X8X>Xe.V IX' X 0 - ; < = = * = & = * & $ X B u B #X@ B BX-XuXuXuXlXVXd.q O q eXmXsXuX-XuXuX-XuX-X-XuXuXuXuX-X-XuX",
"uX-XuXuXaXuXuXuX-XuXaXuXuXuXuXaXuXuXuX-XuX-XaXuXaX-X-X-XIX7.8.mX&X:X,X:X-X-X-X-X-X-X-X-XuX-XuXuX-X-X-X-XuXaX-XuXuX-XuXuXuXuXuXuXuXiXuXuXiXuXsXsXuXuXaXuXuXuXaXuXuXaXaX-XuX-XuXiXuXsXsXsXsXiXsXsXsXuXiXiXiXsXiXiXsXiXiXiXiXiXiXiXiXuXiXiXiXiXiXuXuXuXuXiXiXiXiXuXiXsXsXiXiXuXiXiXiXuXiXiXuXuXuXuXgXIXDXuXuXuXuXiXiXiXiXiXiXuXiXiXiXuXiXuXuXsXaX*XuXuXaXuXuXiXaXuXuXiXaXiXiXiXiXiXiXuXiXuXiXuXuXiXiXuXuXiXuXsXhXiXiXuXiXsXiXiXiXiXiXiXiXiXiXsXsXsXiXiXiXiXiXiXiXiXiXiXiXiXiXiXiXiXiXiXsXsXiXiXiXiXiXiXiXiXiXiXiXsXsXiXsXuXsXsXsXsXsXaXsXiXsXiXiXiXiXiXiXiXiXiXiXiXiXiXiXiXiXuXiXiXuXiXaXaXaXsXsXsXsXuXuXuXuXuXuXuXiXsXsXiXiXiXiXiXiXiXiXuXiXiXiXiXuXiXsXiXsXiXsXuXuXiXaXiXiXuXuXaXsXaXiXiXiXaXaXiXiXiXsXuXuXuXuXsXiXiXiXiXiXuXiXiXiXiXiXiXiXiXiXiXsXuXaXgXuXaXgXsXsXuXsXaXaXsXsXaXsXaXaXaXaXsXaXsXsXaXaXaXaXaX,XvXIXUXPXaX-XaXuXsXuX-XaXuXuXuXuXuXuXuXuXuXuXaXaXaXuXuXsXuXuXuXuX-XaXuXaXaX*X-XaX,X,XaXaXaXaXaXaXaXaXmXDXVXVXVXVXVXDXVXVXDXVXVXVXMXwXJX0XY._.T.XX6XrX6X.XU.T.B.'.%XvXsXuXuXsXaXsXuXuXaXaXaXuXuXaXuXaXuXuXaXaXsXaXuXaXaXaXaXaXuXaXuXsXaXaXaXaXaXaXaXsXiXuXiXaXaXaXaXsXuXaXaXaXaXaXaXaXuXuXaXaXaXaXaXsXaXaXaXaXaXaXaXaXaXuXaXaXuXuXnXe.q B a.bX,XuXiXiXiXsXiXiXiXiXiXiXiXiXaXiXiXiXiXiXiXiXiXiXVXIXnXuXiXsXuXsXgXgXsXuXuXaXaXuXaXaXaXaXuXuXuXaXuXiXiXaXuXaXnXg.7.V V 8.eXlXiXiXiXsXiXiXiXsXaXsXiXsXsXsXsXsXiXsXuXiXsXsXuXsXsXuXsXsXuXsXsXsXiXsXsXsXsXsXuXuXaXuXaXsXsXiXaXsXiXsXuXaXaXaXuXaXsXaXaXaXaXMXIXUXUX7.  - Y d.NX8X>XeXMX8XV 7.7.9.i q 1 < = > = = * * & & & & . V IX:Xa.UXf.B eXgXnXFXAXtXY 1 7 1 V gX*X*XuXuX-X-XuX-XuXuX-XuXuXuXuXuXuX",
"uXuXuXuXuX-XuXuXuX-XuXaXaXuXuXuX-XuXsXuXuXuX-XaXsXuXuX-XIX7.8.mX*X-XuX-X-XuX-XuXuX-X-X-XuXuXuXaXaXuX-XuXaXuXuXuXaXuXsXuXiXuXuXuXiXuX-X-XuXuXuXuXuXuXiXuXuXuXsXiXaXuXiXiXuXuXuXiXsXuXuXuXuXiXsXsXiXiXiXiXiXsXiXiXsXiXiXiXiXiXiXiXiXuXuXiXiXiXsXsXiXiXsXsXsXiXiXiXsXiXiXiXiXiXsXiXsXiXiXiXiXuXiXuXuXuXuXiXiXuXuXiXiXuXiXiXiXiXiXiXiXiXiXiXiXiXiXiXiXuXaXiXiXiXiXsXaXuXuXuXiXaXiXiXiXuXiXsXsXiXiXiXiXiXiXiXsXuXiXiXiXuXiXiXiXiXsXiXsXsXsXiXiXiXiXiXsXiXiXsXiXiXiXiXiXiXiXpXiXiXiXiXiXiXiXiXiXiXiXiXiXiXsXsXsXiXsXsXiXiXiXsXsXiXiXiXiXiXiXiXsXiXiXsXsXiXiXsXsXiXsXsXsXiXiXuXsXsXiXiXiXiXsXsXsXsXsXiXiXuXiXiXiXiXsXiXsXhXsXiXiXsXsXiXsXiXiXiXiXiXiXiXiXiXsXsXsXsXiXiXsXsXsXiXiXuXuXiXsXiXuXiXiXsXsXiXsXsXgXiXuXsXsXiXsXsXsXsXsXiXiXiXsXiXiXsXiXsXiXiXsXsXsXgXsXsXgXsXsXsXsXsXsXsXaXsXsXsXsXaXaXaXaXsXaXaXaXaXaXsXaX,XbXnXvX,XsXaXsXaXuXuXsXuXsXuXuXuXiXuXsXsXuXuXaXuXiXiXsXsXsXaXuXuXaX-XgXaX-XuXaXaXsXaXaXsXaXaXaXaXVXDXVXVXVXVXVXDXDXVXDXDXDXVXDXNX9XKXJX'._._. X'.0XqXqXoX)._.U.Y.1X,XsXiXaXuXiXiXsXuXaXsXaXaXsXaXaXuXaXuXaXuXaXsXsXaXsXaXaXaXaXaXsXsXsXaXiXaXsXsXsXaXsXiXsXsXaXsXsXaXsXsXsXaXsXsXsXaXsXsXsXsXsXaXuXaXsXaXaXaXaXsXsXaXsXuXsXgXsXuXBX9.h l V 7.VXVXhXiXsXiXsXiXiXsXsXiXiXiXiXiXiXsXsXiXiXiXsXDXUXDXgXaXiXuXuXiXsXiXuXiXsXaXsXiXaXsXsXaXiXiXsXiXiXsXsXiXsXgX8.7.8.^ B B a.xXk.iXiXsXVXxXiXsXhXsXsXsXsXsXaXsXsXsXsXsXsXsXsXsXsXsXsXsXhXiXsXsXhXsXsXsXiXsXsXiXsXsXsXsXsXsXsXsXsXsXiXsXsXsXsXsXgXgXsXmXf.V ^ H.PXO.7 O - 9.B @ B e.^ 0 Y - X - q 5 6 5 4 > = = * * & & * O 0 8.&X:X:XIX7.@XUXf.' Y l 1 1 y a.,XiXk.uXuXuX-XuXuXaXuXaXuXaXiXuXuXiXuX",
"uXuXuXuX-X-XuXuXuXuXuXuXuXaXuX-XuX-X-XaXuX-X-XuXuXiXuX&XIX7.7.mXj.uX-XuXuX-XuX-XuX-XuX-X-XuXuXuXuXuXaXuXuXaXuXuXuXuXuXiXiXuXiXuXuXiXiXuXiXiXiXuXuXuXiXuXuXuXuXiXiXuXuXiXiXuXuXuXuXuXuXuXiXiXuXiXiXiXiXiXiXiXiXiXsXiXiXiXiXiXiXiXiXuXiXiXiXiXiXsXsXiXsXsXiXiXiXiXiXiXsXiXsXiXiXiXiXiXiXuXiXiXiXiXiXuXiXiXiXiXiXuXiXiXiXiXiXiXiXiXiXiXiXiXiXiXiXiXuXiXiXiXiXiXiXsXiXiXiXiXiXiXiXiXiXiXiXsXiXiXiXuXiXiXiXiXiXiXiXuXuXuXuXiXiXiXiXsXiXsXiXiXiXiXsXiXiXiXsXhXsXiXsXhXsXiXuXpXiXpXiXiXpXiXiXpXiXiXpXiXiXpXpXpXpXpXsXiXiXiXiXiXsXiXsXiXsXsXsXpXiXiXsXiXsXiXiXiXiXsXsXiXsXsXsXiXsXiXiXiXiXiXiXsXsXsXiXiXsXsXsXiXiXsXsXiXsXsXiXiXsXiXiXiXiXpXsXpXiXiXiXiXiXiXpXiXsXsXsXiXiXsXsXiXsXiXiXiXiXiXiXuXiXiXiXiXsXsXiXiXiXiXsXiXsXsXsXsXsXiXsXiXiXiXiXsXsXiXsXiXsXsXsXsXsXaXsXsXsXsXsXsXsXsXsXsXaXsXaXgXsXsXsXaXaXaXaXaXsXaXsXsXsXsXsXsXsXsXsXuXsXuXaXaXsXuXsXuXuXsXgXuX-XuXuXuXiXiXiXsXuXsXsX-XsXaXaXaXgXaXaXsXaXaXsXaXaXaXgXmXDXVXDXVXVXVXVXVXVXDXDXVXDXDXNX3XP.qXJXqXU._.T.U.XX5XqXqX0X'.`._.U.R.7XgXsXuXiXiXiXsXsXiXsXaXaXsXsXuXaXaXsXaXsXaXsXsXuXiXsXaXaXaXaXsXiXiXaXiXaXaXaXsXsXuXsXsXaXsXaXsXsXaXsXsXsXsXsXsXsXaXaXsXaXaXsXuXuXaXaXaXaXaXaXsXaXaXsXiXiXiXgX7.y y i B ` 8.<XDXmXsXiXpXsXsXsXsXiXsXsXiXsXiXiXiXsXiXiXmXIXmXsXsXiXiXiXiXiXiXiXiXiXiXiXiXsXiXsXpXsXiXiXiXpXiXiXsXiXsXnXVXVXVX&XV 0 g.jXdXVX&XZ f.DXiXiXsXsXiXsXiXsXsXsXsXsXsXsXsXsXsXsXsXsXsXsXsXsXhXsXsXsXiXsXsXsXsXsXsXsXiXiXsXiXsXsXiXhXiXsXiXsXsXsXsXsXmXbX^ 0 .   ^ l e , , h O + ; 1 + l ; q 5 5 ; 4 4 4 > = * * * & & & * O   . @ 9.UXB C d.1 O w e B f.bXDXiXiXiXiXuXuXuXuXuXuXaXuXuXiXiXiXuXiXiX",
"aXuXaXuXuXuXsXuXuXuXuXuXuXuXuXuXaX-X-XuX-X-XgX&XuXsXiX*XUX7.7.DXj.-XuXuXaXuXuXuXaXuXaXuXuXuXuXuXuXuXuXuXuXuXuXuXaXuXuXuXiXiXiXiXiXiXsXiXiXiXiXiXsXiXiXiXiXuXiXuXuXuXiXuXiXiXiXiXuXuXiXiXiXiXiXiXiXiXiXiXiXiXsXiXiXsXsXiXsXsXsXiXiXsXsXiXiXiXsXiXsXsXsXiXiXiXsXiXiXsXsXsXiXiXsXiXiXiXiXiXiXiXiXuXiXiXsXiXiXiXiXiXsXsXiXiXiXiXiXiXiXiXiXiXiXiXiXiXiXiXiXuXiXiXsXiXiXiXiXiXiXiXiXiXiXiXiXiXiXiXiXiXiXiXsXiXiXiXiXiXiXuXiXiXsXiXsXiXsXsXiXiXiXsXsXsXsXiXsXhXsXiXhXxXhXpXiXpXpXiXpXiXiXiXpXiXpXiXpXpXpXpXpXiXsXpXpXpXsXsXsXsXsXsXsXsXsXsXpXsXsXsXsXsXsXsXsXiXsXsXsXsXsXsXsXsXsXsXsXsXiXsXsXsXsXsXsXsXsXsXsXsXsXsXpXsXpXsXsXiXpXsXsXiXiXsXpXsXiXiXiXiXiXiXsXiXsXsXiXiXiXiXsXsXsXsXsXiXsXsXsXsXsXiXiXsXsXiXiXiXsXsXsXsXsXiXsXiXsXsXsXsXsXsXsXiXsXsXhXiXsXsXsXiXsXsXsXaXsXaXsXsXsXsXsXsXsXsXgXsXsXgXgXsXgXgXaXsXgXsXsXgXsXgXhXsXsXsXsXsXsXaXsXsXsXsXsXiXuXhXgXuXuXsXsXuXsXiXsXsXsXsXiXsXsXaXgXsXgXsXaXsXsXsXsXaXaXnXDXVXVXmXVXVXVXFXFXVXDXDXFXVXVXmX2XG.XX{.JXJXXXT.T._.T.U.5X0XqX5XXX_._.B.U.1XeXgXsXuXaXiXiXiXhXiXaXaXaXsXsXsXsXsXsXsXsXsXsXuXsXsXsXsXsXaXiXiXsXsXsXiXsXsXsXsXsXaXgXaXsXsXsXsXsXsXsXiXsXsXsXsXaXsXaXsXhXsXuXuXsXsXsXsXsXsXaXhXsXsXhXhXg.` ^ ^ a.<Xf.` V ` g.hXsXsXsXsXsXsXsXsXsXsXsXsXsXsXhXsXsXsXgXsXsXsXsXsXsXsXsXsXsXpXsXpXsXsXsXpXpXlXlXlXlXlXlXsXlXsXlXpXsXpXk.k.sX;XB V hXg.V 0 0 0 g.lXsXhXsXsXhXhXhXsXhXhXsXsXhXsXsXsXsXsXhXhXsXsXhXsXsXsXsXsXhXsXhXsXsXiXiXiXsXsXsXsXsXsXsXsXiXhXhXsXhXhXhXhXVXDX:Xf.7.V - 7 e 1 j q G x k 9 4 5 q 5 q 9 5 . . = = * & * % * * & * = > . . i + + 1 1 t P 1 7.IXVXgXiXiXiXiXuXuXuXuXuXiXiXuXuXiXiXiXuXiXiX",
"uXuXiXiXiXiXiXiXiXuXuXuXuX-XuXuXuXuXuX-XuX-X-XuXuX!.uX-XIX^ ^ DXmXuXuXuXuXuXiXiXuXiXuXuXuXuXuXuXiXuXuXuXiXuXiXuXiXiXuXuXiXiXiXiXsXiXiXiXiXiXiXiXiXiXiXiXiXiXiXiXiXiXiXiXiXiXiXiXuXuXiXuXiXsXiXiXsXiXiXiXsXiXsXiXsXiXsXiXsXiXsXiXsXiXsXsXsXiXiXiXiXsXiXiXiXiXiXiXsXiXsXiXiXiXiXiXiXiXiXiXiXiXiXiXiXiXiXiXiXiXiXiXsXiXiXpXiXiXiXiXiXiXiXiXiXiXiXiXiXsXiXiXiXiXpXiXiXiXiXiXiXiXiXiXiXiXiXiXiXiXsXsXiXiXiXiXiXiXiXsXsXiXsXsXiXiXsXiXiXiXiXiXsXsXsXsXsXiXsXsXiXiXsXlXsXpXpXpXpXiXpXpXpXiXpXpXpXpXpXpXpXpXpXiXiXpXpXpXpXpXsXsXsXpXpXpXsXpXpXpXpXsXpXpXpXsXsXiXiXsXiXsXsXiXsXsXiXsXsXsXsXsXsXsXsXsXsXsXpXiXpXpXpXpXsXsXsXpXsXiXiXpXsXsXsXpXpXpXpXiXsXsXsXsXpXiXiXiXiXiXpXpXsXsXiXsXiXsXsXiXsXsXsXsXsXiXiXiXiXsXsXsXsXsXsXsXsXsXsXsXsXsXsXsXsXiXiXhXsXsXsXiXsXsXsXsXsXsXsXsXsXsXsXsXsXsXsXsXgXsXsXsXsXgXgXsXsXsXsXsXsXsXhXsXsXsXsXiXsXsXsXsXsXiXsXsXsXiXiXsXsXuXsXsXsXiXiXsXsXiXsXsXsXsXsXsXaXsXaXsXsXaXsXaXaXaXmXDXDXDXDXDXDXVXVXVXFXFXDXVXVXVXVXnXtX'.`.Y.qXJX5XB.T.B.B.B._.oX5X0X0X XU._.N.m.'.2XeXgXgXaXaXiXiXsXsXiXaXsXsXsXsXsXsXsXsXsXaXiXsXsXsXsXsXiXiXiXiXsXaXsXiXsXhXsXsXsXsXgXiXiXsXsXiXiXaXiXsXiXiXiXsXiXiXsXgXhXsXaXsXsXsXsXsXaXsXsXsXiXiXhXVXVXDXvXaXlXVXFXnXg.g.hXsXpXsXsXsXsXhXsXsXsXsXsXhXsXsXhXsXiXsXsXhXiXsXsXsXpXsXpXsXsXdXpXpXsXpXpXjXpXlXlXlXpXsXpXhXsXhXpXpXiXdXk.k.SX8.V gXu 0 7.Q.V u *XlXiXhXhXsXhXhXhXhXsXhXsXhXhXhXsXsXsXsXhXhXsXsXsXhXsXsXhXsXhXhXsXsXiXsXsXsXsXsXsXsXsXsXiXsXsXsXhXhXsXlXhXhXhXlXVXBXUX9.O G j $ . 7 r f = .   . . 5 5 : B i X & & * % & & # # & & * O O   o 3 + l (.IXa.j.mXDXAXnXiXiXiXiXiXuXuXuXuXiXiXuXiXiXiXiXiXiX",
"iXuXiXuXuXuXiXiXiXiXuXiXiXiXiXiXuXiXuXuXiXuXuXuXuXh.*Xg.IX7.^ IXg.iXiXiXiXuXiXiXiXiXiXiXuXiXiXiXiXiXiXiXiXiXiXiXiXsXiXiXsXiXiXsXsXiXsXiXiXiXiXiXiXiXiXiXsXiXsXsXsXsXiXiXiXiXsXiXiXiXsXiXiXsXsXsXsXsXsXsXsXsXiXsXsXiXiXiXiXiXsXsXsXiXsXsXsXsXiXsXhXsXsXsXsXsXiXsXsXsXsXsXsXsXiXpXpXiXsXiXiXpXiXiXiXiXiXiXpXsXiXiXsXiXiXsXsXiXiXiXiXpXpXiXiXiXiXiXiXpXiXiXiXiXiXiXiXiXsXpXsXiXsXsXiXsXsXsXsXsXpXpXsXpXsXiXiXsXsXiXsXsXsXsXpXsXsXiXsXsXpXsXsXpXpXsXsXsXsXsXsXpXsXiXsXsXsXiXpXpXiXpXpXiXpXpXpXpXpXpXpXpXiXsXpXsXpXpXpXpXpXpXpXpXsXpXpXpXpXpXpXpXpXpXpXpXpXpXsXsXpXpXsXsXsXpXpXsXsXpXpXsXsXsXsXpXsXsXpXpXpXpXsXpXpXpXsXiXpXpXpXiXpXpXpXpXsXsXpXpXsXsXpXpXpXiXpXsXpXpXsXsXsXsXsXiXsXiXsXsXsXiXpXsXsXsXsXsXsXhXsXsXsXsXsXsXhXpXsXsXsXsXsXsXhXsXsXhXsXsXsXsXsXsXsXsXsXsXsXsXsXsXsXsXsXsXhXsXsXsXsXsXsXsXsXsXgXsXhXsXsXsXhXsXsXsXsXsXsXsXsXiXiXiXsXiXsXsXiXiXiXiXsXsXsXsXsXsXiXsXsXsXaXaXsXsXaXaXsXsXgXsXaXaXaXmXFXDXDXAXIXPX$XAXDXVXDXFXVXDXDXVXDXDXAX6XY.XX'.'.HX'.T.B.~.B._.U.XX5XqX5XoXU._.B.B.m.Y.(.7X8XnXaXaXaXaXsXsXsXsXsXsXsXsXsXgXsXsXsXsXsXsXsXsXsXsXiXsXiXiXsXsXsXsXsXsXhXhXsXiXiXsXsXiXsXsXsXsXsXsXsXsXsXsXiXsXsXhXsXsXsXsXsXsXsXsXiXhXlXlXsXsXsXhXsXiXiXpXiXlXxXxXsXpXhXhXsXsXsXsXsXhXsXhXsXsXsXsXiXsXhXsXsXsXsXsXpXiXpXpXsXpXpXpXpXsXpXpXpXpXsXhXsXpXsXpXhXlXsXsXsXhXsXlXlXpXiXg.g.gXg.uXSXpXVX7.V lXiXhXlXlXhXhXhXsXhXhXhXhXsXsXhXhXhXhXsXhXsXsXhXhXsXsXsXhXsXsXhXsXsXsXsXsXsXsXsXsXsXsXhXhXsXsXhXhXhXhXhXlXhXhXsXgX%XB = x 7 q 9.C O , - 7.7.' B : 5 $ ^ 6X- % * & & & & # o O O O . 9 S d % e.a.a.IXAXIXW.y 0 7.nXiXiXiXiXiXiXiXiXiXiXiXiXiXiXiXiXiX",
"iXiXiXiXiXiXiXiXiXiXiXiXiXiXiXiXiXuXiXuXuXuXuX*X*XgX*Xg.IX' ^ KX0 aXiXiXiXsXiXiXiXiXiXiXiXiXiXiXiXiXiXiXiXiXiXiXsXiXsXiXiXiXiXiXiXiXiXiXsXiXiXiXsXiXsXsXsXsXsXiXsXsXiXaXgXgXsXiXsXiXiXiXiXiXsXsXsXsXsXsXsXiXsXiXsXiXsXpXsXsXsXiXsXsXsXsXsXsXsXsXsXpXiXsXsXsXsXsXsXsXiXiXsXsXiXpXsXiXpXpXiXiXiXiXiXiXiXiXiXsXiXiXsXiXpXpXsXpXpXpXpXpXiXpXiXiXiXiXpXsXpXiXpXiXiXiXsXiXsXpXsXiXsXpXsXsXsXsXsXpXsXpXpXpXiXpXsXsXsXiXiXsXpXiXsXsXsXpXpXpXsXpXsXpXpXiXsXiXhXsXpXpXpXiXpXiXsXpXpXpXpXpXpXpXpXpXpXpXpXpXpXpXpXpXpXpXpXpXpXpXdXpXpXpXpXpXpXpXpXpXpXsXsXpXpXpXpXpXpXiXpXpXpXpXsXsXpXpXsXsXpXpXpXpXpXpXpXpXsXpXpXpXpXpXpXpXsXpXpXpXpXpXpXpXpXpXpXpXpXpXpXpXpXpXpXpXpXpXpXpXpXpXpXpXpXpXiXiXsXpXpXiXiXpXpXpXsXsXsXpXsXpXsXsXsXsXsXsXsXpXsXsXsXpXhXsXsXsXsXsXsXsXsXsXsXsXsXsXsXsXsXsXsXsXhXsXhXsXsXsXsXhXsXsXhXsXsXhXhXsXsXsXsXsXsXsXsXsXsXsXsXiXsXiXiXsXsXiXiXiXsXiXiXsXsXsXsXiXsXsXsXsXsXsXsXsXsXuXsXgXsXsXaXvXVXDXDXDXDXDXBX8.V g.IXVXVXVXDXVXDXVXVXVXVXKXoX).U.B.5X0XU.B._.B.B.T._.`.oX0X0XXX`.U.B.T.B.m.U.F.1X7XbXsXsXiXsXsXsXsXsXsXaXsXsXsXsXsXsXsXsXsXsXsXsXiXsXsXsXsXsXsXsXsXsXhXsXiXsXsXsXsXsXsXsXsXsXsXsXsXsXsXsXsXiXiXsXsXsXsXsXsXsXsXsXsXsXhXhXsXhXsXhXlXsXlXhXsXhXsXiXlXlXpXlXpXsXpXsXhXsXpXpXpXsXpXsXiXpXiXsXiXiXsXpXiXsXpXsXiXsXiXsXsXsXpXsXsXsXpXpXpXpXsXpXsXsXhXpXiXiXpXiXpXpXk.iXpXpXhXpXk.j.dXDXZ 8.xXsXhXlXsXsXsXsXsXsXsXsXsXsXsXhXsXsXsXhXpXhXhXhXhXpXsXsXsXsXsXhXsXsXsXlXsXhXlXsXsXsXhXlXlXhXsXsXsXsXhXhXlXlXhXDX^   + l q 7.UXC % O V UXUXUX(.X 7 $   e.- o * * & & % - q < o * O . U ~ O JXa.f.W.y 9.^ - B a.hXiXiXiXiXiXiXiXiXiXiXiXiXiXiXiXiXiX",
"iXiXiXiXiXiXiXiXiXiXiXiXiXiXiXiXiXuXiXiXuXuXiXuXgX#XH.eXKXY Y s.B DXiXsXiXsXiXiXiXiXiXiXiXiXiXiXiXpXiXiXpXiXiXiXsXsXsXiXiXsXsXiXiXiXpXiXsXsXsXsXsXsXsXiXsXsXsXsXsXsXsXnXAXDXnXsXsXsXsXiXiXsXsXsXsXsXiXiXsXsXpXsXsXpXpXsXpXpXpXpXsXsXpXsXsXsXpXsXpXsXpXsXpXsXpXpXpXsXsXsXpXpXsXsXpXpXpXpXpXsXpXiXpXpXpXpXsXpXpXsXdXpXpXpXpXpXpXpXpXpXpXpXsXpXsXiXsXsXpXpXpXpXsXsXpXsXpXpXsXsXsXsXpXpXhXsXsXpXpXpXpXpXpXsXpXpXpXpXpXiXpXpXpXpXpXpXpXpXpXpXpXpXpXpXsXpXlXlXhXpXsXpXpXpXpXpXpXpXpXpXpXdXpXpXpXpXdXpXpXpXdXpXpXpXpXpXpXpXlXpXhXpXpXsXsXsXhXpXsXsXlXpXpXpXlXpXpXpXiXiXpXpXpXsXpXpXpXpXpXpXlXpXpXpXpXpXdXdXdXdXdXpXdXpXpXlXdXpXpXpXpXpXpXpXlXpXpXpXpXpXpXpXpXpXpXdXpXpXpXpXsXpXpXpXsXpXsXsXdXpXpXpXfXpXsXsXfXsXdXpXpXpXhXpXlXdXsXpXhXsXlXsXpXpXpXpXpXsXpXsXhXsXsXhXhXsXhXsXsXsXhXsXhXhXsXsXpXsXhXhXhXhXhXsXhXsXhXhXhXhXsXsXhXsXhXsXhXsXsXiXsXsXsXsXsXiXiXsXsXsXsXsXsXsXsXsXsXsXsXsXsXsXsXsXsXsXgXsXsXsXmXVXDXDXDXDXDXVXmXnX,XmXFXDXDXFXDXDXDXDXDXVXVXAXqX)._.U.'.HXXXT._.B.T.T._.B._.XX0XoX'.).U.U.U.N.N.B.U.D.#X>XgXsXhXsXsXaXsXsXsXsXsXgXgXsXgXsXsXsXsXhXsXhXsXsXsXsXsXsXhXsXsXsXsXsXsXsXhXhXhXsXpXsXsXsXsXsXsXsXhXsXsXsXhXsXsXsXhXsXsXhXhXsXsXiXsXhXhXhXlXhXhXhXhXlXlXhXlXlXlXlXlXhXhXpXlXlXhXpXpXpXlXdXlXlXpXsXlXsXhXsXpXsXlXsXsXsXpXsXlXpXsXpXsXpXpXpXpXpXpXhXlXpXsXsXpXdXhXpXsXiXpXpXzXlXlXpXpXpXdXk.sX*Xg.xXlXlXhXhXsXsXhXpXdXpXpXhXhXpXhXhXhXsXsXhXhXsXhXsXpXpXsXpXhXsXhXhXhXsXpXpXhXpXsXhXhXpXlXjXpXlXlXlXxXhXlXlXlXlXgXa.8.8.<XNXwXV - 5   7.UX7.X - 5 k o $ C $ * & = & & # : i ; . $ .     & o t ^ PX^   O @ f.VXlXuXpXpXiXpXpXiXiXiXiXiXiXiXiXiXiXiXpX",
"iXiXiXiXiXiXiXiXiXiXiXiXiXiXiXiXiXiXuXiXiXuXuXj.DX^ + a.UXC c l a.lXuXiXsXiXsXsXiXiXiXiXiXiXiXiXpXiXiXiXiXiXiXiXiXsXsXiXsXiXsXiXiXiXsXpXsXiXsXiXiXsXsXsXpXpXsXsXsXsXsXBXIXUXVXsXsXpXsXsXsXiXsXsXpXiXsXpXsXpXpXpXdXpXpXpXpXpXpXpXpXsXpXpXpXsXpXpXpXpXpXsXsXpXpXpXpXiXsXpXpXsXpXsXiXpXpXpXiXpXpXpXpXpXpXpXpXpXpXpXpXdXpXpXpXpXpXpXpXpXpXpXpXpXpXsXsXpXpXpXpXpXpXpXsXsXpXhXpXpXpXsXpXpXpXpXpXpXpXpXpXpXpXpXpXpXpXpXpXpXpXpXpXpXpXpXpXpXpXpXpXpXsXpXpXpXpXdXsXpXpXpXiXpXsXpXpXpXpXpXpXdXpXpXpXpXpXpXpXpXpXdXpXpXpXpXpXpXpXpXpXpXpXhXpXhXpXpXsXpXpXpXpXpXpXpXpXlXlXpXpXpXpXpXpXpXpXpXpXhXpXpXpXpXpXpXpXdXdXdXdXpXpXpXdXpXdXdXdXpXdXpXpXpXdXlXpXpXpXpXpXpXpXpXdXpXpXpXpXpXpXpXsXsXsXsXpXdXdXdXdXpXdXdXpXpXpXfXdXpXpXpXpXpXdXlXdXpXfXlXdXpXpXpXlXsXlXsXhXsXhXsXhXhXhXhXhXsXsXsXhXsXsXhXhXsXhXhXsXhXhXhXlXhXsXhXlXhXhXsXhXhXsXsXsXhXhXsXsXiXsXsXiXiXsXsXsXsXsXsXsXsXsXiXsXsXsXsXsXaXsXsXsXaXsXsXsXaXgXVXDXDXDXDXDXVXDXDXFXDXFXDXVXDXDXDXDXDXVXVXDXVXVXAX3XU.`.GX].E.HX).B.B.T.B.B.B.B.T.XX0X{.Y.XX'.).D.m.m.B.U.D.D.].1X7X,XgXgXsXaXsXsXgXsXaXsXgXsXsXsXsXsXhXhXhXsXsXsXsXsXsXsXpXsXhXhXsXsXhXhXsXsXsXpXsXsXsXsXhXsXsXsXhXsXsXhXsXsXsXsXhXsXsXsXhXhXhXsXsXhXsXsXhXsXhXhXhXhXlXsXlXlXlXlXsXpXlXlXpXpXlXlXpXlXlXpXlXdXdXlXsXpXpXpXpXlXdXpXsXpXpXlXlXlXlXlXjXlXxXlXlXpXhXlXlXlXxXjXlXlXzXlXlXlXlXjXlXlXlXlXzXlXlXxXxXxXlXlXhXpXhXpXpXdXdXpXdXpXhXhXhXpXdXpXdXpXhXsXpXpXpXpXpXpXpXpXdXpXdXpXpXdXdXdXdXdXdXdXdXdXjXjXlXlXzXlXlXlXlXlXhXVXVXcXxXIXC @ tX2XB 0 C   # # 6 e $ q l o * % % * & # $ $ $ O . - .   . 1 , O @ B V 7.g.xXdXk.pXuXpXk.pXpXpXpXpXiXiXiXiXuXpXiXiXpX",
"iXiXiXiXsXiXiXiXiXpXiXiXpXiXiXiXiXiXiXiXiXuXiXk.hX>X7.- e.Y ~ q gXlXiXsXsXiXsXsXsXsXsXsXiXiXiXiXsXiXsXiXsXiXsXiXsXiXsXsXsXsXsXsXiXiXpXpXsXsXsXsXpXsXhXpXsXsXsXpXsXsXsXmXIXIXVXsXpXpXpXpXsXsXsXsXpXpXsXpXpXsXdXpXsXpXpXpXpXpXpXsXpXpXpXpXpXpXpXpXjXjXlXpXjXpXjXpXpXpXpXsXpXpXpXpXpXpXdXpXpXpXpXpXpXsXpXpXpXpXpXpXdXpXpXdXdXpXpXpXpXpXpXpXdXpXjXpXpXpXjXpXjXpXlXpXpXpXlXlXpXpXpXpXpXpXpXpXpXpXpXpXpXpXdXpXpXpXpXpXpXpXdXdXdXpXpXpXpXpXpXpXpXpXpXpXjXpXdXdXpXpXpXpXpXpXpXdXdXpXpXpXpXdXdXdXdXpXdXdXjXdXdXjXjXpXpXpXjXpXpXpXpXpXlXdXjXdXlXdXpXpXpXdXdXpXpXpXdXcXcXdXpXpXdXpXpXpXpXpXpXpXjXdXpXpXlXpXdXdXjXjXdXpXpXjXlXdXlXdXjXpXpXdXpXpXlXsXdXpXpXpXdXpXjXjXlXdXpXsXdXpXlXlXdXpXpXsXhXsXfXfXdXdXdXdXpXpXpXpXdXpXsXpXjXdXlXlXlXpXlXlXlXdXpXlXlXlXhXlXlXlXhXlXlXhXhXpXpXsXlXhXhXpXhXlXlXhXlXlXlXsXlXlXlXlXlXlXlXlXhXpXxXxXlXhXlXsXhXhXsXsXhXpXsXpXpXsXsXsXpXpXsXsXsXpXhXsXsXhXhXsXsXsXgXsXsXsXsXgXDXDXFXSXDXVXDXDXDXDXFXVXFXFXDXDXDXDXDXDXVXDXDXVXVXAXqXY.U.HXJX3XJXoXB.B.B.B.B.B.B.B.U.oXGX X XoXXX'._.m.m.U.B.N.B.m.m.n./.7XbXgXsXsXgXgXgXhXhXsXiXhXhXsXhXlXhXpXsXsXhXsXhXhXhXsXhXsXhXhXlXhXsXsXsXpXhXsXsXsXsXpXsXhXhXsXhXlXsXsXhXhXhXsXsXsXhXhXhXhXhXhXhXhXlXhXhXhXlXlXlXlXlXhXhXsXlXlXlXlXlXlXlXlXlXlXlXlXlXlXlXpXhXpXpXpXlXpXlXlXlXjXlXlXlXlXjXjXlXlXlXlXzXzXzXzXzXzXzXzXzXlXlXlXlXlXlXzXzXlXlXlXlXzXzXlXlXxXlXlXlXlXxXzXzXjXlXlXzXjXjXlXlXjXjXjXjXjXjXjXjXjXjXjXzXjXjXzXkXkXlXzXkXkXkXcXcXzXzXkXkXzXcXzXzXzXlXlXzXxXlXlXxXlXxXjXcX;X+ A.UXUXV.. $ 5 f e e 7 f : O = > * * % = & = $ 9 ;   ^ JX0 . . 1 - B Q.FXSXcXk.pXpXpXpXk.k.pXpXiXpXpXpXpXpXpXpXpXpXpXpX",
"iXuXpXpXpXpXpXpXiXpXiXiXiXiXpXiXiXiXpXuXj.iXj.j.lXf.f.9.  1 m 0 sXk.pXsXiXsXsXiXsXpXiXsXpXiXpXiXpXsXpXpXpXpXiXiXsXiXsXsXsXsXsXsXsXiXpXpXsXsXsXsXpXsXdXsXsXsXpXpXpXpXsXgXnXnXhXsXhXpXpXpXsXpXpXpXpXpXdXpXpXdXpXpXdXpXpXpXpXdXdXpXpXpXdXpXpXdXdXdXdXpXpXjXjXpXpXpXpXpXfXpXpXpXdXpXpXpXpXpXpXpXpXpXpXpXpXpXpXdXpXpXdXpXpXpXpXdXpXpXpXpXdXpXpXlXpXpXdXpXpXjXlXlXpXpXdXpXpXjXpXpXdXpXpXpXpXpXjXpXpXpXpXpXpXpXpXpXpXpXpXpXdXdXdXdXdXpXdXpXpXpXdXpXdXdXjXdXjXpXpXpXdXdXpXpXdXdXdXpXpXpXjXdXjXdXjXdXjXdXjXdXjXdXdXpXdXdXdXdXdXpXdXdXdXdXdXdXdXpXpXpXpXpXpXpXdXpXdXdXdXdXdXpXpXpXjXlXzXxXcXxXpXpXdXdXdXdXdXdXdXdXdXdXdXdXlXlXdXpXdXdXdXpXdXdXpXpXdXdXpXpXdXdXdXdXdXdXsXpXpXdXdXdXdXpXdXsXsXsXlXpXdXdXdXpXdXpXdXpXdXdXpXdXjXdXlXlXdXlXlXdXlXdXpXlXlXlXlXlXdXlXlXlXlXlXlXpXjXpXpXlXlXpXhXlXlXlXlXpXlXsXlXlXdXlXlXlXlXlXsXpXVXcXhXsXhXhXsXsXlXlXdXdXdXpXdXpXpXdXdXpXpXpXpXpXpXhXlXsXsXsXsXsXsXsXsXsXmXnX,XeXmXDXVXDXDXVXDXDXFXDXDXVXVXDXVXDXDXVXDXVXVXDXVXBXqXm.N.B.GXJXqX'.B.B.B.B.B.B.B.B.N.T._.T.B._. XXX X).U.B.N.N.M.N.M.M.M.m.1X8XgXgXaXaXhXsXsXaXsXsXsXsXhXsXsXpXsXsXsXdXhXpXsXsXsXpXpXsXhXsXsXsXpXsXsXsXpXpXsXsXhXsXsXhXhXhXsXsXhXsXsXsXhXhXhXhXhXhXhXhXlXhXhXhXlXhXlXlXlXlXhXhXhXhXlXsXdXdXlXsXdXlXlXlXlXlXlXdXpXpXfXdXpXpXdXpXlXdXdXdXjXdXdXdXdXpXjXjXjXdXjXjXjXdXjXdXdXjXlXjXjXdXdXjXlXdXjXlXlXdXlXjXlXlXlXzXxXlXcXcXcXkXzXzXcXzXzXzXcXcXcXzXzXkXcXcXcXkXzXzXcXzXzXcXcXcXcXcXcXcXcXcXcXcXcXcXcXcXzXzXlXlXzXzXlXlXxXlXlXlXlXlXzXzXSX^ . 7.' y 5 1 r + O - x t   B q O = * % % * & $ . 5 r . X E.C t.7.X %XFXlXdXk.pXk.pXpXdXpXpXk.pXpXpXpXpXpXdXpXdXdXpXpXpXdX",
"pXpXpXpXpXpXpXpXpXpXpXpXpXiXiXiXiXpXpXiXiXiXk.j.zXg.  9.H.7 & 8.ZXk.dXpXiXpXpXiXpXsXpXiXsXpXpXpXpXpXpXpXpXpXpXiXiXsXpXsXpXpXsXsXpXpXpXpXpXpXpXpXpXsXsXsXpXpXpXsXpXsXdXsXsXsXhXpXdXpXpXpXpXhXdXpXdXpXjXpXpXjXpXpXpXpXdXpXdXdXdXdXpXdXjXdXdXdXdXdXdXdXjXpXpXjXdXdXdXdXdXdXdXdXdXdXdXdXdXpXpXdXdXpXpXpXdXpXlXdXdXdXpXpXdXpXdXdXpXpXdXdXdXpXpXdXdXpXjXpXpXpXjXpXpXpXpXpXdXpXpXpXdXpXpXpXdXdXdXpXpXdXjXpXdXdXdXdXdXdXdXdXjXdXdXjXjXdXjXjXjXdXjXjXlXjXkXlXlXjXjXjXkXjXjXjXjXdXjXjXjXjXkXkXkXjXjXkXkXjXjXjXkXjXjXjXjXjXkXkXkXlXkXjXlXlXzXlXkXjXjXkXkXjXdXdXdXlXcXkXkXjXkXlXlXjXcXcXjXcXSXcXjXlXlXjXlXdXlXdXjXdXdXjXjXdXlXdXdXdXdXdXdXdXdXjXjXdXdXdXjXdXdXjXdXdXdXsXpXpXpXdXdXdXdXsXsXsXsXdXlXfXfXdXdXdXfXdXlXdXlXlXjXjXjXlXlXlXlXpXlXlXlXlXjXlXzXlXlXlXlXlXlXlXlXlXlXlXlXlXlXdXlXdXlXdXlXlXlXlXlXlXlXlXlXlXlXlXlXlXlXhXlXhXpXpXhXhXlXlXlXdXlXpXpXdXdXdXdXdXdXdXdXdXlXpXpXlXsXpXhXlXpXsXsXaXmXnXbX<X,XNXDXVXDXDXDXDXDXDXDXDXDXDXDXDXVXDXVXDXDXVXVXDXVXBXNX/.m.N.B.R.JXoXB.B.B.B.B.B.B.B.B.B.B.B.B.B.T.`. X X`.U.T.N.N.M.N.N.B.N.m.D.#X>XgXgXsXsXsXsXhXiXhXlXhXpXpXpXlXsXlXdXlXsXpXhXsXpXhXsXpXsXsXpXhXpXhXlXpXpXhXsXhXsXhXlXlXhXsXsXhXsXhXhXhXhXhXhXlXlXhXlXlXlXlXhXlXlXlXlXlXhXhXlXlXlXlXlXlXlXlXlXlXlXlXlXlXsXlXpXpXdXlXpXlXdXdXlXlXlXdXlXlXdXdXjXjXjXjXjXjXdXjXjXdXjXjXjXlXdXjXjXjXlXjXjXlXjXlXjXdXlXzXlXlXzXzXlXzXzXzXlXzXlXzXzXkXkXkXkXcXkXjXjXkXjXzXjXzXjXjXzXkXzXzXzXkXzXzXzXlXlXlXlXzXzXzXzXzXkXcXzXcXzXcXkXlXlXlXxXcXxXlXcXxXzXcX!.f.eX9.1 1 t 1 Y ' l + - 0 7X^ O , * * * & & . 0 0 O -       7.eXV FXlXpXdXpXdXdXdXpXpXdXdXpXpXpXdXpXpXdXdXpXpXpXpXpXdXdX",
"pXpXpXpXpXpXpXpXpXpXpXpXk.k.pXpXpXpXpXpXpXk.pXk.j.DX^   I.^ 0 g.h.k.lXVXhXpXpXpXpXpXpXpXpXpXpXpXpXpXpXpXpXpXpXpXpXpXpXpXpXpXpXpXpXpXpXpXpXpXpXpXpXpXpXpXpXpXpXpXhXpXpXhXhXpXhXpXpXjXjXdXdXpXhXdXjXdXpXpXpXjXdXpXpXpXpXpXdXdXdXdXdXdXdXdXdXdXdXdXdXdXpXpXpXdXdXdXjXpXdXdXdXdXdXdXdXdXdXdXdXpXdXdXdXpXpXpXpXdXdXpXdXpXdXdXdXpXdXdXdXdXdXpXpXpXdXdXpXpXdXpXdXdXdXdXjXdXjXdXjXjXjXjXjXjXjXkXjXjXkXjXkXkXkXkXkXjXkXkXkXkXkXkXkXkXkXzXzXkXkXkXzXkXzXzXzXzXzXzXzXkXzXzXzXkXkXkXzXkXkXzXkXkXkXkXkXkXkXkXkXkXkXkXzXkXzXzXzXkXcXcXcXcXcXcXcXcXcXzXcXcXcXkXzXjXzXzXcXcXcXkXcXkXjXdXlXcXk.k.jXdXjXdXjXjXdXdXdXdXdXdXdXdXdXdXdXdXjXdXdXjXdXdXdXdXjXdXjXdXdXdXdXdXdXdXdXpXpXpXpXpXdXdXdXdXpXpXjXpXlXfXfXdXdXdXdXfXdXlXdXpXjXjXjXlXlXlXlXpXlXlXlXlXjXlXlXxXlXlXlXlXlXlXlXlXlXlXlXlXjXlXlXdXjXlXlXlXlXzXlXlXlXlXlXlXlXlXlXlXlXlXlXlXlXhXpXpXlXlXpXlXdXpXdXpXdXdXdXdXdXdXpXdXjXpXpXpXpXdXpXiXsXsXVXBXtXtXbXbXIXDXDXVXFXVXDXDXDXDXDXVXVXFXVXVXDXVXVXVXVXDXDXmXVXmXAXyX{.m.N.m.5X'.N.B.B.B.B.B.B.B.B.B.B.B.B.B.B.`. XY.`.`._.B.N.M.M.M.N.N.B.N.m.A.#XbXgXsXsXsXsXsXsXdXsXpXpXpXdXdXlXsXsXpXlXpXsXsXpXpXhXsXhXsXpXdXsXsXhXpXhXpXsXlXhXlXlXsXlXsXsXhXhXhXhXhXhXlXlXlXlXlXlXlXlXlXlXlXhXhXlXlXlXhXlXhXlXlXlXlXsXhXlXsXhXsXsXlXpXpXlXfXsXsXsXhXlXlXsXpXhXpXsXpXdXdXlXdXdXpXlXlXlXjXlXlXlXdXdXjXjXdXlXdXjXdXdXlXdXdXlXdXpXhXdXlXlXpXpXhXhXpXlXpXsXlXdXpXdXdXdXpXpXpXpXpXpXpXpXpXpXpXsXdXpXpXpXsXdXpXpXpXsXpXdXdXhXpXlXlXjXdXzXzXlXlXzXzXlXxXxXxXxXlXzXkXkXSXVXVXIXNX7XK.B $XIXf.u 9.<XIXB % , % * * % . d.IX8.X C B C u ` 7.g.VXk.pXjXk.k.k.dXk.pXdXdXpXk.k.pXpXpXk.k.dXpXk.k.pXdXdX",
"pXpXpXpXpXpXpXpXpXk.k.k.pXpXpXpXpXpXpXpXpXpXpXk.k.hX@X- 5 y V j.k.xXf.^ BXpXpXpXpXpXpXpXpXpXpXpXpXpXpXpXpXpXpXpXpXdXdXdXpXpXpXpXjXdXpXpXpXpXpXpXpXpXpXdXdXdXdXhXlXdXdXhXhXdXdXpXjXpXdXlXhXdXhXlXlXpXjXdXjXpXpXjXjXpXpXdXdXpXdXdXdXdXdXdXdXdXdXdXlXlXdXdXjXpXjXdXjXdXdXdXdXdXdXdXdXdXdXdXdXdXdXdXdXpXpXpXdXpXdXdXdXdXdXdXdXdXdXdXdXdXlXlXzXlXlXlXlXjXlXlXjXdXlXkXcXkXzXkXkXkXzXzXzXkXkXkXkXkXzXkXkXkXkXkXzXkXkXkXkXkXkXkXzXkXkXzXzXkXkXkXzXkXkXkXzXkXkXzXzXzXzXzXzXkXzXzXzXkXzXzXcXzXzXcXzXzXzXzXzXzXzXzXzXkXkXkXzXzXzXzXkXkXcXzXcXkXkXjXjXjXdXdXjXjXdXpXdXdXdXdXdXdXdXk.dXzXdXjXjXpXjXdXdXdXdXdXdXjXjXjXlXjXjXdXdXdXdXdXjXdXlXjXdXdXlXlXlXjXjXjXjXdXdXlXdXpXdXdXdXpXpXdXdXdXpXdXjXdXlXlXdXdXdXlXlXdXjXdXjXdXjXjXlXlXlXlXlXjXlXlXlXlXlXlXlXlXlXlXlXlXlXlXlXlXlXlXlXlXdXlXlXdXlXlXlXpXlXdXdXdXlXlXlXlXlXlXlXlXlXlXlXlXlXlXlXlXlXlXlXdXlXjXdXdXdXdXdXpXdXdXjXpXpXdXjXpXpXpXpXhXVXDXKX}.G.rXAXDXFXDXDXDXDXDXDXFXVXFXDXVXDXDXDXVXDXVXDXVXVXVXVXBXVXBXBXBXJX'.`.U.).).T.B.B.B.B.B.B.N.B.N.B.B.B.B.B.T.`. X X`.`._.B.N.B.M.M.N._.B.N.m.m.G.tXgXsXiXlXpXlXpXpXpXhXpXhXsXhXsXpXsXhXsXlXsXsXsXsXhXlXsXhXsXhXpXsXlXhXpXlXlXlXsXhXsXhXhXhXhXlXhXlXlXlXhXlXlXlXlXlXlXlXlXlXlXhXhXlXlXlXlXlXlXlXlXsXpXsXsXlXlXlXlXhXlXsXhXlXlXlXsXhXsXhXsXhXsXpXpXsXdXlXdXpXjXlXdXlXdXdXpXpXdXlXjXdXpXpXlXlXdXlXlXdXdXjXdXdXlXlXpXhXpXhXlXlXsXhXlXhXlXlXhXlXlXlXsXlXpXpXhXlXsXsXsXhXhXhXsXsXlXhXhXhXsXsXsXhXhXhXpXhXhXlXlXlXjXzXjXxXkXkXzXzXzXcXlXcXcXcXcXzXzXkXzXlXdXhXlXxXFX,X8.g.AXIXIXDXIXB = 2 * * , * o rXAXDXaXDXnXFXDXIXlXzXjXjXdXdXk.dXk.k.dXdXdXdXk.dXdXdXdXk.k.k.k.k.k.dXk.dXdX",
"pXdXdXk.pXpXpXpXpXk.pXk.pXpXpXk.pXpXpXuXk.pXk.k.uXj.aXC . t 0 Z gX^ i.l e.cXpXpXpXpXpXpXpXpXpXpXpXdXpXpXpXpXpXpXdXdXdXdXjXjXdXpXdXdXpXpXpXpXdXpXpXdXjXpXdXjXdXjXjXdXjXpXdXdXpXpXjXdXjXjXjXjXjXjXjXjXjXlXlXjXjXdXjXjXpXpXdXdXdXdXdXdXdXdXdXdXdXdXdXlXjXpXdXdXdXdXdXdXdXpXdXpXdXdXdXdXdXdXdXdXdXpXpXpXdXpXpXpXdXdXdXdXdXpXdXdXdXdXjXdXdXjXjXlXdXpXjXlXlXlXpXdXlXlXlXzXjXdXjXjXjXdXjXjXjXdXdXdXdXjXjXdXdXdXdXdXdXdXdXdXjXdXdXdXdXdXdXdXjXdXdXjXjXdXjXjXkXjXjXkXkXjXjXjXkXjXkXzXzXkXkXkXzXkXkXzXzXkXzXzXzXkXkXkXkXjXkXjXjXjXjXdXdXjXjXdXjXdXdXdXjXdXjXjXjXdXdXdXdXdXdXdXkXjXdXdXkXjXkXjXjXdXfXdXjXdXlXdXjXkXkXkXkXjXjXdXdXdXdXjXjXdXlXjXjXlXlXlXlXdXdXdXdXdXdXdXdXdXdXdXdXdXdXdXdXdXjXlXlXlXdXpXlXdXdXdXjXdXdXdXjXjXdXjXjXdXlXlXlXlXlXlXlXlXlXlXlXlXlXlXlXlXlXlXlXlXlXlXlXlXlXlXlXlXdXjXjXpXdXdXlXlXlXlXlXlXlXlXlXdXlXlXlXlXlXxXlXpXlXjXlXlXdXdXdXpXdXdXdXdXdXpXdXpXpXdXjXjXVXDXPXqX'.U..XPXDXVXVXFXFXVXVXDXFXVXDXVXVXVXFXDXDXVXVXVXDXDXDXmXDXBXVXVXnXBXNX5X)._.N.B._.B.B.B.B.B.B.B.B.B.B.B.B.T.B.B.T.XX X`.).U.`.B.N.N.M.M.N._._.m.N.N.F.1XnXhXpXpXpXpXpXpXpXpXpXdXdXpXlXsXsXlXdXpXlXpXhXpXsXlXlXpXhXpXlXdXlXjXlXpXjXpXjXsXlXlXlXlXlXhXlXlXlXlXlXlXlXlXlXlXlXlXlXlXlXlXlXlXzXlXlXlXlXlXlXhXlXhXsXlXlXdXlXsXlXsXdXlXlXsXhXpXpXpXsXpXsXlXsXpXlXdXdXjXjXjXjXpXpXpXdXpXpXpXpXpXlXpXdXdXdXpXdXdXdXpXpXdXsXdXsXpXsXsXsXhXhXsXlXlXlXsXdXxXlXlXhXhXlXsXsXhXhXpXsXsXsXhXlXsXlXlXhXpXhXpXsXpXpXpXpXpXdXjXjXpXjXjXkXdXkXkXkXzXzXcXcXlXcXzXkXkXjXzXlXlXlXpXk.pXxXlXVXnXVXnXk.IXB O * * * * > . C !.h.lXuXh.pXpXjXjXjXdXdXjXk.k.k.k.k.k.dXdXk.k.k.k.dXk.k.k.k.k.k.k.k.k.k.dX",
"pXdXdXdXpXpXpXpXdXdXpXpXpXpXpXpXpXpXpXk.pXpXpXpXuXpXmX8.Y O O g.a.  _ 7.8.SXpXpXpXpXpXpXpXpXdXpXdXjXdXpXpXdXdXdXdXdXjXdXjXjXjXjXjXjXdXpXdXjXjXjXjXjXjXjXjXjXjXjXjXjXjXjXjXpXdXjXjXjXjXjXjXjXjXjXdXjXjXjXjXjXjXdXlXlXdXpXdXdXdXpXjXdXdXdXdXdXdXdXdXpXpXpXlXjXjXdXlXdXdXdXdXdXdXdXdXdXdXdXdXdXdXdXpXdXdXdXdXpXdXpXdXlXdXpXdXdXjXdXdXpXpXpXpXpXdXdXjXpXdXpXpXpXdXpXpXpXpXpXdXdXdXdXdXpXpXpXdXpXdXpXpXpXdXpXdXpXdXdXpXdXdXpXpXpXpXdXpXdXjXdXdXdXdXdXdXdXlXdXjXdXdXdXdXjXlXjXjXdXjXdXdXdXjXjXjXjXjXjXjXkXkXkXzXkXkXkXkXjXjXjXlXdXjXjXzXjXjXkXzXjXzXjXjXjXkXjXdXjXzXdXdXjXkXjXkXdXjXdXdXjXjXfXjXjXjXjXjXdXdXdXdXdXdXjXdXjXjXjXdXdXjXjXjXjXjXdXlXjXjXdXdXjXlXdXdXdXjXjXdXjXdXdXdXjXjXdXjXjXlXjXjXlXlXjXlXlXlXjXjXjXjXjXjXjXlXlXlXlXlXlXlXlXlXlXxXlXlXlXlXlXlXlXlXlXlXlXlXlXlXlXlXdXlXjXlXlXlXlXlXlXlXlXlXlXlXlXlXlXlXlXlXlXxXlXlXlXlXlXdXlXlXdXdXdXdXpXdXdXdXpXdXdXjXjXkXcXFXDXPXyX].).XX'.rXDXFXVXDXDXVXVXFXFXDXVXFXDXFXDXBX4XtXFXDXVXDXBXBXmXBXBXmXBXmXAXKX'.m.B.B.B.OXT.T.N.B.B.B.B.B.B.B.B.T.B.B.B.B._.XX X`.).`.`.T.N.N.M.N.N.T.U.U.m.N.m.].7XgXsXpXdXlXpXdXlXpXdXdXdXdXdXlXlXlXpXpXlXlXdXlXlXlXlXdXjXjXdXjXlXjXpXpXjXlXlXlXlXlXlXlXlXlXlXxXlXlXlXlXlXlXlXzXlXlXlXlXlXlXlXzXlXlXlXlXzXzXlXlXlXlXlXlXlXlXlXjXlXlXlXlXlXjXdXlXdXlXlXcXcXzXdXlXlXzXkXlXpXjXdXjXjXlXjXjXjXzXjXdXjXjXdXjXlXzXjXjXjXlXdXlXlXlXlXxXjXxXlXlXlXcXlXlXlXlXpXlXlXjXlXlXlXlXjXdXlXlXlXdXdXdXpXlXpXsXpXpXpXlXpXlXlXzXjXjXdXzXzXjXkXxXjXSXcXkXkXcXcXcXxXlXzXzXzXkXzXjXlXxXsXsXiXxXlXxXsXhXnXVXBXy = = * * * , * . ` g.j.pXxXdXpXjXjXkXdXdXdXdXk.k.k.dXdXdXk.jXk.k.dXdXdXdXdXjXjXdXdXdXdXdXdX",
"pXpXpXdXpXpXpXpXpXpXpXk.pXk.k.pXpXpXpXpXpXpXk.k.k.VX8.` JXq + ' 7.% 9.FXlXpXpXpXpXpXpXpXpXpXpXpXpXpXpXpXpXpXdXdXpXdXjXdXdXdXjXjXjXjXjXdXjXjXjXjXjXjXjXjXjXjXjXjXjXjXjXjXdXpXdXdXjXdXjXjXjXlXjXjXjXpXdXpXpXpXpXdXdXdXdXdXdXdXdXdXdXjXdXdXdXdXdXdXdXpXpXpXpXlXdXpXdXlXdXpXdXdXdXdXdXdXdXdXdXdXdXpXdXpXdXdXdXpXpXdXdXdXdXdXlXdXpXdXdXdXdXdXdXdXlXpXpXjXdXdXlXdXpXdXdXpXpXdXdXpXpXdXpXpXpXpXpXpXpXpXpXpXpXdXdXdXjXdXjXpXjXlXdXjXjXdXdXpXpXdXdXdXpXpXpXpXpXdXpXpXdXdXlXpXpXdXdXpXdXdXdXpXdXjXdXpXdXdXjXdXjXjXjXjXjXkXjXjXkXkXlXkXkXkXkXzXkXjXjXzXjXjXjXjXjXjXjXjXjXjXjXdXdXjXjXdXdXdXjXdXjXjXdXjXjXjXdXjXjXdXdXdXjXdXjXdXlXjXpXdXlXdXdXdXpXpXpXpXdXdXjXjXlXjXdXdXjXdXdXdXdXdXjXdXjXdXdXdXjXdXdXlXlXlXlXlXlXlXlXjXjXjXjXdXjXlXlXlXlXlXlXjXlXlXlXlXlXlXlXlXlXlXlXdXlXlXpXlXlXlXjXdXdXlXjXpXlXdXdXdXlXlXlXdXlXlXlXdXlXlXlXlXlXpXpXlXdXdXlXdXjXdXdXpXpXdXdXpXjXzXlXcXFXFXFXDXNXrX}.'.oXXX'.rXAXVXmXVXFXVXVXVXFXFXVXDXVXmXVXDX4XY.3XAXVXDXPX#XrXNX1XyXDXnXnXBXNX5XU.N.B.B.D.XX`.B.B.B.B.B.B.B.B.B.B.B.T.B.N.B._._.`.).U.`._.B.M.N.M.M.N._.'.U.U.N.m.Y.4XaXhXsXdXdXjXpXdXdXdXdXdXdXlXfXlXpXpXpXdXlXdXdXlXdXlXdXjXjXlXdXlXpXjXpXjXlXjXlXlXlXlXlXlXjXlXlXlXjXlXlXzXzXlXjXlXlXlXzXzXzXzXzXzXzXkXlXzXlXlXzXlXjXlXlXlXjXzXjXjXzXlXjXjXjXjXjXkXdXkXcXzXjXkXjXkXzXjXdXjXkXzXjXjXjXzXzXzXzXkXcXzXzXzXzXzXzXkXjXlXzXkXkXcXzXzXzXcXjXdXjXzXkXzXjXjXjXzXjXkXjXjXjXzXjXkXjXjXjXkXjXjXjXjXkXjXdXjXlXlXlXzXlXlXlXjXjXVXDXFXVXxXFX&XgXkXkXcXlXlXzXcXFXSXjXjXjXlXpXsXsXsXiXpXpXdXlXFXlXUXf.. = * * = % * * . ^ IXh.h.pXpXjXk.dXdXdXdXk.dXdXdXk.dXdXdXdXdXk.k.k.dXdXjXk.jXjXdXjXdXdXjXdX",
"pXpXpXpXpXpXpXpXpXk.k.pXpXk.k.k.pXk.k.pXdXpXdXjXjXFXf.7.y - 5 + + q 4XsXsXdXpXpXpXpXpXpXpXpXpXpXpXpXpXdXpXpXdXpXdXpXpXpXdXdXjXdXjXjXjXjXjXdXjXjXjXjXjXdXjXjXlXjXlXdXjXjXjXdXjXjXjXjXjXjXjXjXlXjXlXjXjXjXdXdXjXjXjXdXdXjXlXdXdXdXjXpXdXdXdXdXdXjXdXdXjXpXlXjXpXpXjXlXdXdXjXdXdXdXjXdXdXdXdXdXdXdXjXdXdXdXdXdXdXpXdXpXdXdXlXdXpXdXjXdXlXpXpXdXdXlXlXdXpXlXlXdXjXlXlXdXjXdXdXdXdXdXjXdXlXlXlXjXjXjXjXdXjXjXjXdXpXjXjXjXdXdXjXpXpXlXlXdXdXdXdXpXpXpXpXpXjXlXjXpXpXlXlXsXlXpXpXpXhXlXlXdXjXlXpXpXpXsXlXlXlXpXjXpXlXzXkXjXjXjXzXjXjXjXjXjXzXzXzXjXjXzXkXjXjXlXkXjXjXjXkXjXjXjXjXjXjXjXkXjXkXkXjXdXjXjXkXjXkXjXjXjXjXjXjXjXlXlXpXdXlXdXjXpXpXpXpXpXpXpXjXlXlXlXjXdXjXlXlXlXlXlXjXjXjXjXjXdXdXdXlXjXzXlXlXjXlXlXlXlXjXlXlXjXlXlXlXlXzXlXdXlXlXlXxXlXlXlXzXlXlXlXpXpXpXpXlXpXlXjXdXdXlXlXlXdXlXlXlXlXlXlXlXdXlXlXlXlXlXlXlXlXlXjXpXpXlXjXlXdXdXdXjXk.k.dXjXxXVXgX>X7X9X1X1X'.'. XOXXX'.'.rXAXDXVXDXVXDXDXDXVXFXVXSXDXBXtXBXPX}._.oXPXVXFXPXG.0XrXF.'.NXBXBXBXBXPXJX'.U.B.T.`.`.T.B.B.T.B.B.B.B.B.T.B.B.B.B.B.B.T._._.`._.`._.B.N.N.N.N.m.).oXXXD.N.N.m.L.bXhXlXdXjXpXpXlXlXdXlXlXlXdXlXdXdXpXlXlXlXlXdXlXzXjXjXjXlXjXlXlXlXjXjXlXlXlXlXzXzXjXlXlXlXjXjXzXzXlXkXkXjXjXzXzXzXzXzXzXzXlXzXzXlXzXzXkXlXzXlXzXzXzXzXzXkXzXkXzXzXzXkXzXcXkXzXjXzXzXkXkXzXkXzXzXzXzXzXcXzXzXzXcXcXzXcXZXSXcXcXcXZXcXcXcXcXcXcXcXcXkXzXzXcXkXkXkXkXzXzXcXcXcXzXcXcXcXcXcXcXcXcXzXcXzXzXcXzXzXzXzXzXkXkXzXcXkXkXcXcXzXzXcXzXSXg.B a.UXSXIXu V FXkXkXzXkXcXk.Z g.SXxXxXxXhXgXiXhXVXVXlXxXhXIXg.7.B $ , & & & & * = o i tXVXsXiXpXjXjXjXdXkXjXk.jXjXjXdXdXdXkXjXdXkXk.jXkXdXjXjXk.kXjXk.dXjXjXjX",
"pXpXpXpXpXpXpXk.k.k.k.pXpXk.k.k.k.pXk.k.pXk.k.k.jX8.V PX0 1 h q V B mXiXiXpXpXpXpXpXpXpXpXpXpXpXpXpXpXpXpXpXpXpXpXpXpXpXpXpXpXdXjXjXjXdXdXpXpXpXpXpXjXpXpXpXdXlXjXjXdXpXdXdXdXdXjXjXjXpXdXdXdXjXdXjXjXjXjXjXjXlXjXpXpXlXjXjXdXdXdXpXdXpXdXdXdXdXjXdXdXpXdXdXdXpXpXdXjXpXpXpXdXpXpXpXpXpXdXdXdXdXjXdXdXdXdXdXdXpXdXdXpXpXdXdXpXdXlXpXpXpXdXpXdXdXlXdXlXdXdXjXlXdXdXjXjXdXdXdXdXdXjXjXdXjXjXjXjXdXdXdXdXdXdXdXjXdXdXjXjXdXdXdXlXdXdXdXdXpXdXdXdXpXpXdXdXdXpXpXlXpXdXlXpXpXpXpXlXpXdXdXlXlXpXpXsXpXsXlXlXpXlXjXlXjXlXjXdXzXcXzXjXjXzXlXkXkXkXkXzXjXjXzXkXdXjXjXjXjXjXkXjXjXjXjXkXjXdXjXkXkXjXjXlXjXjXzXjXjXlXjXjXdXjXlXlXdXdXjXlXdXdXdXlXpXjXpXpXpXpXdXlXhXjXlXlXlXlXlXlXdXjXlXjXdXjXjXlXpXdXlXlXlXjXjXlXjXlXlXlXjXlXlXlXlXlXlXlXdXzXxXlXlXlXpXdXlXlXlXlXdXlXdXlXlXlXlXlXdXlXlXdXlXlXdXjXlXlXlXlXjXpXlXlXlXlXlXlXlXlXlXzXpXdXlXlXdXdXjXjXpXpXdXjXjXcXFXNXF.m.U._.U.)._.XX XXX).P.4XAXBXBXVXDXAXNXtXBXFXVXxXDXBXrX3XwXKXoX_.`.rXDXBXrXU.XX XB.B.'.NXBXnXBXNXNXKX0XF.U.U.T.B.B.B.B.B.B.B.B.B.B.B.B.B.B.B.N.B.B._.`.U.)._._.N.B.N.M.M.U.oXoXXXY.B.N.m.P.7XnXlXjXdXlXfXlXlXlXdXdXdXlXlXdXdXdXdXlXdXlXjXlXlXdXdXlXjXjXlXlXlXlXdXlXlXzXlXlXzXcXcXcXzXcXcXcXcXcXcXkXkXcXcXcXcXcXcXcXcXcXcXcXcXcXcXcXzXzXzXcXcXcXzXcXcXcXcXcXcXcXcXcXzXcXcXcXcXcXzXzXzXcXzXcXzXzXkXzXcXcXzXcXcXSXcXZXSXSXcXcXSXSXcXcXcXcXcXcXcXcXcXSXcXcXcXSXcXZXcXcXZXSXcXcXSXcXcXZXzXcXcXzXzXcXzXcXcXcXzXzXcXcXkXzXcXcXcXcXcXSXcXzXSX*Xy 0 8.FXUX` . -XSXdXkXkXcXg.X 0 eXnXbXnXnXAXnX8X$XQ.f.yX7.i : . o , = & # $ & & & = . - 8.VXmXk.k.dXk.dXk.dXjXdXdXjXdXjXdXdXdXjXk.k.dXkXkXk.k.k.k.k.k.k.dXjXjX",
"pXpXpXpXpXk.k.k.k.k.pXk.pXpXk.k.k.pXpXk.jXzXk.g.k.g.0 %XC 9 + B FXh.iXiXpXsXpXpXpXpXpXpXpXpXpXpXdXpXpXpXpXpXpXpXpXpXpXpXpXpXdXdXpXpXpXpXpXpXpXpXpXpXjXdXpXpXjXpXjXjXpXpXjXpXpXjXlXlXjXpXpXjXjXdXdXdXdXdXdXdXdXdXpXpXjXdXlXdXdXdXpXpXdXdXdXdXdXdXdXdXdXjXjXdXjXpXpXdXlXpXdXpXjXpXpXVXDXpXpXdXjXdXdXpXdXdXdXdXdXdXdXpXpXpXjXdXdXdXlXdXjXpXdXdXjXdXjXdXdXdXlXjXjXjXdXjXlXjXlXlXjXjXdXpXdXpXdXdXdXdXjXjXjXjXjXjXjXjXjXdXdXdXjXjXjXlXjXjXdXdXdXjXjXdXjXjXlXdXpXjXdXsXlXdXlXpXpXpXhXdXpXjXlXlXpXpXsXpXhXsXhXlXhXlXlXlXlXlXzXlXlXjXzXzXkXlXlXjXlXlXzXlXlXkXkXjXjXlXkXjXjXjXjXjXjXjXkXjXlXjXzXlXjXjXlXjXlXlXjXpXjXjXlXjXlXjXlXdXdXlXlXjXjXjXlXlXlXlXlXpXdXpXdXsXhXhXhXsXhXpXpXpXjXlXjXpXlXlXlXpXhXlXlXhXhXdXlXdXlXlXlXlXlXlXlXlXlXlXpXpXxXzXlXlXdXlXzXlXlXlXlXlXzXzXzXlXlXzXlXlXlXlXlXlXlXjXjXjXlXlXlXlXdXlXlXlXlXlXlXlXlXlXlXlXlXzXzXjXlXlXlXjXlXzXZXVXBXwX).B._._. X_.`. XXX).G./.tXBXVXmXDXDXPXrXXX X9XVXcXcXBXrX5XXXoXoXXXXX X5XAXAXqX_.`.T._._.B.rXDXBXAXNXBXBXKXqXY.U.U.T.T.B.B.B._.`.T.N.B.T._.B.B.B.B.N.B.B._.`.`.).`._.T.N.B.N.N.U..XoXoXY.U.T.B.F.1X,XgXlXlXdXlXlXdXdXlXlXdXdXdXjXlXdXjXlXlXlXlXzXdXjXzXlXlXjXzXlXlXlXlXzXzXzXzXzXcXzXlXzXkXkXcXcXcXkXcXcXcXkXcXcXcXkXzXcXcXcXcXcXzXzXzXzXcXzXcXcXcXcXcXcXcXzXzXzXzXzXzXzXkXcXcXcXcXzXzXzXzXzXzXkXzXkXzXzXzXzXzXzXcXcXcXcXcXcXcXcXcXcXcXcXcXcXcXcXcXSXcXzXcXzXcXzXcXcXcXzXzXcXcXcXcXcXcXcXcXcXcXzXcXzXkXzXzXzXkXkXzXcXcXcXzXzXzXjXjXzXzXkXFXg.V   B eXPX. i :XFXjXk.jXIX9.. m h - ^ a.B ^ l q : - h 4 # > 8 = , % & * $ & & & = - - . y &XFXk.k.k.k.k.dXkXdXkXdXkXkXdXjXkXkXk.kXdXkXkXk.kXkXjXjXjXjXk.jXjX",
"k.pXpXpXpXpXpXk.pXpXpXk.k.k.k.pXk.k.k.lXg.a.BXj.g.FXV @ q 9   8.k.h.iXiXpXpXpXpXpXdXpXpXpXpXpXpXdXpXdXpXpXdXdXpXpXpXdXpXdXdXpXdXpXpXpXpXpXpXpXpXpXpXpXdXpXpXpXpXdXpXpXdXpXdXdXhXlXlXjXpXjXdXjXlXjXdXjXlXdXdXlXdXdXpXpXdXdXdXdXdXdXdXdXdXdXdXdXdXdXpXdXlXdXdXdXdXpXpXdXdXlXpXpXpXmXIXUXVXpXpXdXdXpXpXdXdXpXdXdXdXpXpXpXpXpXpXlXpXdXjXlXdXdXjXjXdXpXpXjXdXdXjXjXdXdXdXlXlXlXdXjXdXjXdXjXjXjXjXjXlXlXjXjXjXjXlXlXjXjXjXjXdXdXdXjXlXjXdXjXdXjXdXdXjXjXjXlXdXjXpXjXlXpXdXlXpXlXpXpXpXdXpXlXlXpXpXsXsXhXpXhXhXhXhXhXlXlXlXlXlXpXpXlXlXjXlXpXdXlXjXjXjXlXdXjXdXjXdXdXjXjXjXjXjXjXdXjXjXjXdXjXjXlXdXjXlXlXdXjXdXlXjXpXjXpXpXjXdXjXjXlXjXjXpXjXlXlXpXjXlXdXpXpXdXhXhXhXhXhXsXhXsXpXhXpXpXlXlXhXpXlXsXlXhXlXsXsXsXdXsXlXlXlXlXlXlXpXlXlXpXlXlXlXpXzXlXxXlXlXlXlXlXpXjXlXdXjXdXlXlXlXjXjXlXpXpXjXdXjXlXzXlXlXlXlXlXlXlXlXlXlXlXjXjXjXlXlXlXlXpXlXlXSXSXBX$X'.Y.`._._._.).XX`.U.Y./.4XtXDXmXmXmXAXPX5X XOX_.3XVXxXVXwXXX XXX`.`.XX`._.).tXBX3XB.`._._.`.Y.4XtXtXNXNXBXnXbXKXqXF.U.T.B.B.B.N.`.OX`.T.T.B.T._._.B.B.N.N.N.B._.).U.).`._.T.B.N.N.N.U.XXoXoXXXU.U.B.B.F.$XgXlXlXfXdXlXdXdXlXdXdXjXdXjXlXlXdXjXlXzXdXjXjXlXlXjXlXkXlXlXlXlXlXzXzXzXzXlXjXlXjXjXjXjXjXjXjXkXkXkXkXkXkXkXkXzXzXkXzXzXzXzXzXlXzXzXzXkXzXkXzXzXzXkXkXkXzXkXkXkXkXzXzXjXzXjXjXkXjXjXjXkXkXkXjXkXkXkXkXzXkXkXkXkXzXkXkXkXzXzXkXzXzXzXkXkXkXkXzXzXjXjXjXjXjXjXjXjXjXzXzXlXlXzXjXxXxXiXh.pXxXjXjXpXpXjXdXjXjXjXlXjXpXpXpXpXpXpXpXjXdXpXVXIXe.- X B + . - f.VXSXgX0 . 7 n w 6 #X6X. c O U M . , > s % * = * & = $ & & & # # = 4 ; .   8.FXk.k.k.k.kXdXkXdXkXkXkXdXkXdXkXk.k.kXkXdXkXk.kXkXkXk.k.jXjXjX",
"pXpXdXdXdXdXdXdXdXpXpXpXpXk.k.k.pXpXk.VXf.@ 7.IXiX*XgXV 5 k t C g.lXpXsXpXpXdXpXpXpXpXpXpXpXpXpXdXdXpXpXpXpXdXjXdXpXjXjXjXdXdXdXdXpXdXpXdXpXpXdXdXpXpXpXpXpXjXdXdXpXjXjXjXpXdXpXk.k.lXlXlXjXjXjXlXjXjXdXlXlXlXlXlXdXdXdXjXdXdXjXjXdXdXdXdXdXdXdXdXpXjXlXjXdXdXjXdXpXpXpXdXpXpXsXVXIXIXlXpXjXdXdXdXpXjXdXdXpXdXpXpXpXlXpXjXdXdXdXjXdXjXjXjXpXjXjXdXdXlXdXjXdXjXjXjXjXjXjXjXjXdXjXjXlXzXzXzXjXlXlXlXjXzXlXlXlXlXlXjXjXlXlXjXdXjXjXjXjXjXjXjXjXjXjXjXjXjXjXjXjXjXjXjXpXdXlXlXdXdXdXpXpXlXlXdXpXlXlXhXhXhXhXlXlXhXlXlXlXlXhXpXhXlXhXhXpXpXhXlXlXlXhXlXpXsXlXlXpXdXjXjXdXlXlXlXdXlXlXjXjXjXlXlXdXlXlXlXjXjXjXlXjXjXpXpXpXlXdXlXpXlXlXdXpXlXdXjXpXlXdXlXdXdXhXhXhXhXlXhXhXlXhXhXpXhXlXpXpXlXlXlXhXdXdXlXsXjXlXlXpXlXlXlXlXlXlXjXlXxXlXlXdXxXlXlXxXlXlXlXlXdXsXsXlXzXlXzXlXlXlXlXlXjXdXjXdXlXdXlXjXlXlXjXlXzXlXlXlXlXlXlXlXlXjXlXlXlXlXzXhXVXDXPX4XG.U. X`.XX`. XY.'.].#X#XeXnXFXmXbXbXFXDXAXqX X_.OX_.3XDXxXmX5XXXOXXXXX XXX`. X).rXAXqXU.`. X).0XrXrXP.Y.5X9XeXNXBXBXKX6XY.T._.B.B.T._.`._._.T.T._.B.T.B.B.N.B.B.B.B._._.U.U.`._.N.N.B.B.B.U. XoXoXXX).U.U.U.Y.I.,XlXdXdXkXdXjXdXdXlXjXdXjXjXlXjXlXjXjXlXlXlXlXkXzXdXlXlXzXzXzXzXzXlXzXzXcXlXzXzXcXlXzXlXkXkXkXkXkXkXkXkXkXcXcXcXcXcXcXzXcXkXzXzXzXzXkXzXkXkXkXkXkXzXcXkXkXzXzXkXzXkXkXjXjXjXkXjXjXkXkXjXjXkXkXkXkXkXjXjXzXjXkXkXzXkXcXkXzXzXkXkXkXzXkXzXkXkXkXzXkXlXkXzXjXkXzXzXzXlXkXzXjXjXxXpX*Xg.sXlXjXpXdXdXlXjXjXdXjXpXdXdXdXjXlXlXlXzXxXlXxXlXFXUXtX^ ^ O e > O i ' rX9.q = e d # B yX5 n , h @.. e 2 = h $ # = = & & = & $ & 6 = & - ; . B :XhXzXkXkXkXdXjXkXkXk.kXkXkXdXk.kXk.kXkXk.kXk.kXkXcXjXkXkXjXjX",
"dXpXdXdXdXdXdXdXdXdXdXk.k.k.k.k.k.pXk.k.bXB q V g.VXIXW.+ t m   V SXh.uXpXpXpXpXpXpXpXpXpXpXpXpXdXdXdXpXpXdXjXjXdXdXdXjXdXjXjXdXjXdXdXdXdXdXdXdXdXdXdXpXjXjXdXdXjXjXdXjXjXpXjXjXpXk.dXjXlXjXjXdXjXjXdXdXdXlXdXdXlXlXdXdXjXdXdXdXjXdXjXdXdXdXdXdXdXpXpXlXdXpXdXpXpXpXpXpXpXpXlXpXhXVXlXpXpXdXjXdXjXdXpXdXlXdXpXpXdXjXdXlXjXdXdXdXjXdXjXdXdXdXjXdXjXdXdXlXjXjXjXdXjXjXjXjXjXdXjXjXjXlXlXjXjXjXjXjXjXjXjXlXlXdXjXjXjXjXjXlXjXjXjXjXjXjXjXjXjXjXjXjXjXdXjXdXjXjXjXjXjXdXlXdXlXlXjXpXdXpXpXpXdXpXlXdXlXhXhXhXlXlXlXhXhXlXlXhXhXhXsXlXhXsXhXsXhXlXlXsXsXsXhXsXsXsXhXsXhXhXhXpXpXsXsXsXlXpXlXlXhXlXpXlXlXdXlXpXpXlXlXpXlXdXpXlXpXdXlXdXjXpXlXpXpXdXlXpXdXdXlXhXhXhXlXhXlXhXhXhXhXpXhXlXpXpXlXlXlXlXdXsXdXpXhXjXjXlXlXlXlXjXlXdXlXlXlXlXzXlXlXlXlXlXlXlXxXdXxXhXpXpXjXlXjXlXjXjXlXdXjXdXjXjXjXlXlXlXjXdXlXlXlXlXlXlXlXlXlXlXlXpXpXlXzXpXpXhXDXrXY.U.`.).XX X).'.{.qXKXnXBXNXnXeXwX$X8XBXDXBXrX XOXOX_._.qXVXxX8X'.XXXX`.XXXXXX).XX).{.PXHXY.`._.U.rXbXwXG.).'.PXBXeXnXMXMXKXqXY.U.T.T.T.`.T.T.T._.T.T.T.B.B.B.B.N.B.B.B.B.T._.U.U.U._.B.N.B.B.N.T. X.XoXoX'.U.B.B.D.P.;XhXlXdXdXlXdXdXdXjXjXjXdXlXlXdXdXjXdXjXdXdXzXlXdXlXlXzXlXlXkXzXzXlXzXzXdXlXcXzXzXlXlXkXzXkXkXkXkXkXzXkXkXkXcXcXcXcXxXzXkXzXzXzXzXcXcXcXcXcXkXcXkXkXkXzXzXkXzXkXkXkXkXkXkXkXkXkXkXkXkXkXkXkXcXkXlXcXSXcXjXkXcXcXcXcXcXcXkXzXzXcXkXcXcXzXzXcXzXkXcXcXzXcXzXzXzXlXzXzXjXjXdXjXlXlXlXlXcXlXpXjXjXdXjXjXlXjXdXjXlXlXdXdXjXkXlXlXxXFXg.V V V B ~ 1 v d e , o - ' (.l % d % . ' O 4 %   0.o o *   N l . * # # & & $ * & 4 < 9 - - l 9.- B ,XSXjXkXdXkXkXkXkXkXdXdXkXkXk.kXk.k.k.cXZXkXkXzXkXk.kXkXjX",
"dXdXdXdXdXk.dXdXdXdXdXdXdXk.k.dXpXdXdXk.hXa.l t q V V B q v l - f.VXpXpXpXpXpXpXdXdXdXpXdXdXdXdXdXdXpXpXdXdXjXjXdXjXjXdXjXjXdXdXdXdXjXdXjXjXjXjXjXjXjXjXjXjXjXjXdXdXjXdXdXdXjXjXjXjXjXdXjXjXjXjXjXjXjXdXlXdXdXpXlXlXlXjXdXjXjXdXjXjXjXjXdXdXdXdXjXdXdXjXpXdXjXdXlXdXlXpXdXdXlXdXjXpXpXpXdXpXdXdXjXdXjXdXlXdXpXpXdXdXdXjXdXdXjXjXdXjXjXdXdXjXjXjXjXdXjXjXlXjXjXjXlXjXjXjXjXjXlXjXlXdXjXjXjXjXjXdXjXjXjXdXdXjXjXjXlXjXjXlXlXjXjXjXlXjXjXjXjXjXjXjXjXjXjXjXjXjXlXjXjXjXlXlXlXlXlXjXlXpXjXjXdXlXlXjXlXlXlXlXlXlXlXlXlXlXlXlXhXhXlXhXhXlXlXhXhXlXlXhXsXsXhXsXsXsXhXsXsXlXsXiXiXhXlXlXlXlXlXlXlXhXhXhXlXlXlXlXlXlXlXlXxXlXlXlXlXpXjXpXlXjXlXjXpXjXlXdXdXlXlXlXlXhXhXsXhXlXlXlXhXpXlXlXpXpXlXdXlXlXlXdXlXlXlXlXlXlXlXlXlXjXlXlXlXzXlXlXlXlXlXlXlXlXzXlXlXzXFXFXxXpXjXdXdXjXjXjXjXjXzXlXzXlXzXzXzXlXjXlXzXlXlXlXlXlXlXlXlXlXlXjXlXdXlXlXxXBX4XU._.`.XX`.).).`.Y.).'.]./.}.).).).G.$XDXDXDXNX0XOXOXOX_._.tXxXxX7XXXOXOXXXXXXXoXXXXX`.`.'. X_.`._._.rXBXtX3X'.'.rXNXBXBXNXBXMXKXrXoX`. X`._.T._.T._.T.T.B.B.B._.T.T.B.B.B.B.B.B._.U.). X_.T.B.B.B.B.B. XoXoXoXoXY.D.U.D.F.#XaXlXjXfXdXlXjXjXlXjXjXlXlXlXjXjXdXlXlXlXlXlXkXlXzXzXkXkXkXkXzXlXzXlXjXlXlXcXzXlXzXkXlXzXzXzXkXkXkXzXkXzXcXcXFXFXcXzXzXcXcXzXzXcXcXcXkXkXzXcXcXzXzXkXkXkXcXcXzXkXkXkXkXkXkXkXkXkXkXkXkXkXzXzXcXSXSXzXkXcXkXcXcXcXcXcXcXcXkXcXcXcXzXcXkXkXkXkXkXzXcXcXzXkXkXkXzXjXkXkXkXkXkXzXjXjXjXzXjXdXdXkXdXjXjXjXjXjXjXjXdXjXdXdXdXjXk.kXpXpXxX-X@   . . ; a O # .   . $ 2 z 3 # 5 4 < 4   Q p * > # $ $ $ = & & # $ * = $ & $ -       X ; 5 . 8.k.k.cXkXkXkXkXkXkXkXkXkXk.k.k.cXVX>X=XVXcXkXkXkXkXkXkX",
"dXdXdXdXdXk.k.dXdXdXdXdXdXk.k.dXdXk.dXdXh.VXf.y q q q - t 9 O 0 hXpXk.pXpXpXdXjXdXdXdXpXdXdXdXdXdXdXdXdXjXdXdXdXjXdXdXdXdXdXdXdXdXdXdXjXjXjXjXjXjXjXjXjXjXjXjXjXjXjXjXjXjXjXjXdXjXjXjXdXdXdXjXjXjXfXdXdXdXdXdXdXdXdXlXdXjXdXdXjXjXdXjXjXdXdXdXjXjXdXpXdXk.k.dXlXdXdXdXdXdXdXdXdXdXdXjXdXpXpXdXdXdXdXdXjXdXdXdXdXdXdXjXdXdXdXjXdXjXdXjXjXjXk.dXjXdXdXjXjXlXjXjXjXlXlXlXjXjXjXjXjXjXdXdXdXjXjXjXdXjXjXjXdXjXjXjXjXjXlXjXdXjXjXjXjXjXlXjXjXjXjXjXjXjXjXkXlXjXjXjXjXjXjXlXlXlXjXjXjXjXzXzXlXlXlXlXlXdXdXlXlXlXlXlXlXxXlXlXlXhXhXhXlXlXlXlXlXlXlXlXsXsXsXsXsXhXsXsXhXhXhXsXiXsXhXlXhXhXlXlXlXlXsXhXpXlXlXlXlXlXpXlXlXlXlXzXlXlXpXdXpXjXlXlXdXjXjXjXjXjXdXjXlXlXdXhXdXlXlXlXjXlXpXdXlXjXjXlXjXlXlXlXjXlXlXlXlXlXlXlXzXlXjXlXlXlXzXjXjXlXlXzXlXlXlXlXlXlXlXVXhXpXjXjXjXkXjXjXjXjXjXkXkXjXdXlXjXjXjXzXjXlXlXlXlXlXlXlXlXlXjXlXjXjXpXlXlXVXBX'.T. X).).).`.`. X`.).U.).`._._.`.).(.AXAXbXNX6XoXOXOX_._.`.bXxXmX1X`. XXXXXXX XXXoX`. X X_._._._._.U.wXnX4X0X'. X'.qXyXMXNXBXNXNXwX6X5XHXHXXXN.B.T.T._.B.N.B.B.B.T.T.B.B.B.B.N.N.B.T.T.T._.T.B.B.N.B.B.T. XoX}.5X{.).D.B.B.D.P.aXlXdXdXfXdXjXdXlXlXlXlXlXjXjXzXzXkXlXdXlXlXzXkXkXzXzXlXcXcXzXcXzXlXzXcXzXcXcXcXcXcXkXkXzXkXkXkXkXkXcXzXcXSXSXxXlXzXzXlXcXzXzXzXzXkXkXkXkXcXkXjXkXkXcXzXkXzXzXkXkXkXkXkXkXkXkXlXjXjXkXlXzXcXcXzXzXkXkXzXkXcXkXzXcXcXzXkXcXkXcXkXkXkXzXlXkXlXkXkXkXcXkXjXkXkXkXkXkXkXkXkXkXkXjXdXkXkXdXdXdXjXjXdXjXjXjXdXjXkXjXjXjXkXkXjXkXkXkXk.kX7.V 8.a.g.g.^ B q 7 O : = 3 3 8 5 f & . . X $ * < * .   o & * * $ & $ $ * = $ . C ' B X X   V =Xg.k.xXjXkXkXjXkXkXkXk.k.k.zXFXg.C - u hXzXjXjXkXkXkXkX",
"dXdXdXdXdXdXdXdXdXdXk.dXdXk.dXk.dXdXdXdXk.k.FX,XV - q q h t ; 7.FXk.pXpXpXxXDXsXdXjXjXdXjXdXdXdXdXdXjXjXjXdXjXjXjXdXdXjXjXjXjXjXjXjXjXjXjXjXjXjXjXjXjXjXjXjXjXjXkXjXjXjXjXjXjXjXjXjXjXjXdXjXjXjXjXjXjXdXfXjXjXfXjXdXjXjXjXdXdXdXdXdXjXjXjXdXdXjXjXdXpXjXpXk.dXlXdXdXdXdXdXdXdXdXdXdXjXdXdXdXjXdXjXdXpXdXjXjXdXjXjXkXkXjXjXdXjXjXjXjXkXkXjXjXkXjXkXjXjXjXjXdXjXjXlXjXjXjXjXjXzXjXdXdXjXjXlXjXjXjXlXjXjXjXkXjXlXjXjXjXjXjXjXjXjXjXjXjXjXjXjXjXjXjXzXzXkXlXzXjXjXlXlXjXjXlXlXjXlXkXkXkXkXzXzXlXzXlXdXjXlXlXlXlXlXzXxXlXlXlXlXlXlXlXlXlXlXlXlXlXlXlXlXsXhXlXlXhXhXhXhXhXhXsXhXhXhXhXhXsXhXlXlXdXdXlXlXlXlXjXlXlXlXlXlXjXlXlXlXdXdXjXzXjXjXjXlXjXjXjXjXjXjXjXxXjXxXzXlXjXjXjXlXdXjXjXlXjXlXlXlXlXlXzXzXlXlXzXzXlXzXzXlXlXlXlXlXdXdXzXzXlXcXzXzXlXlXzXzXjXpXj.pXjXkXkXkXjXkXjXkXjXjXdXdXdXjXjXdXjXjXjXzXzXlXlXzXlXlXlXzXlXlXlXlXlXcXxXVXPXXX`.XX).'. XXX`.).). X XXX XXXXX XR.MXDX;XNXPX5XXXOXOX`._.'.mXVXwX'. XXX`.XXXX X}.qX X X X`. X_.`._._.yXyXP.XXXXXX XXX{.qXyXKXtXrX1X1X5XrXJXHX`.B.B._.B.B.B.B.B.T.T.T.B.B.N.N.N.B.N.B.T.B.N.B.T.B.B.B.B.B.T.XXoX}.5X}.'.D.B.U.U.I.;XhXlXjXjXlXlXlXlXzXlXkXjXlXdXlXjXlXlXkXkXkXkXkXkXzXzXcXcXcXkXkXzXzXzXcXcXcXcXcXcXkXzXcXcXcXzXcXkXcXcXcXxXxXxXzXkXzXzXcXzXcXzXkXcXcXkXzXkXzXkXkXzXkXzXzXkXkXlXkXkXkXkXkXzXkXkXjXkXkXkXcXcXcXcXcXkXzXkXcXkXkXkXcXcXkXkXcXcXcXcXkXzXkXzXcXkXzXkXzXkXkXkXkXzXcXcXzXkXkXkXkXkXkXjXkXkXzXkXkXkXkXkXkXkXkXkXkXkXkXkXkXkXkXkXkXkXkXjXkXSXIXFXFXZXSXIXUXY - 9 m 9 e > 4 - l 5 i X - 5 o =   V 9.  = = & & = $ & $ = =   B 4Xe.@ C 8.AXSXjXIXxXkXkXk.kXk.k.CXCXFXk.Z C + 1 7.j.cXkXkXkXkXkXkXkX",
"dXdXdXdXdXdXjXdXdXk.k.k.dXdXk.dXdXdXk.dXlXpXpXsXIX8.V 0 - t O ` VXh.k.cXIX@Xi a.cXk.dXjXdXdXdXdXdXdXdXjXjXjXjXdXdXdXjXdXjXjXjXjXjXjXlXjXjXjXjXjXjXjXjXjXjXjXjXjXjXjXjXdXjXjXdXjXjXjXjXjXlXjXjXjXjXjXjXdXjXdXfXdXdXdXjXdXjXdXdXdXdXdXdXjXdXdXdXdXdXdXpXzXlXdXzXzXdXdXdXdXdXdXdXdXdXdXdXjXjXpXlXzXpXpXdXdXfXdXjXfXjXjXjXkXjXdXdXjXkXjXdXjXjXkXcXkXk.jXjXdXjXdXdXjXjXjXjXjXjXjXjXjXjXdXjXjXjXjXjXjXdXjXjXjXdXjXjXjXjXdXjXjXjXjXdXjXjXdXdXjXjXdXjXdXjXjXjXjXjXjXjXjXjXjXjXjXjXkXkXjXjXjXjXjXjXjXlXlXjXdXjXkXlXlXlXlXjXjXjXjXjXjXjXjXjXjXlXjXjXjXlXjXlXjXzXjXlXlXlXlXxXjXxXlXxXlXlXdXpXsXpXpXjXdXpXlXlXlXjXdXjXjXjXjXjXdXjXjXjXjXjXdXjXjXjXdXjXjXjXjXjXjXjXjXjXjXzXjXjXjXjXjXjXjXjXjXjXjXlXjXlXjXlXlXjXlXzXjXlXzXzXlXkXlXzXdXjXdXjXlXzXzXzXzXzXjXzXlXlXzXlXpXjXzXjXjXkXjXdXjXjXkXjXdXjXkXkXjXkXjXlXkXjXjXlXlXlXjXlXlXlXlXdXlXVXVXVXVXBX6X).`.'.'.'.Y.`.`.).`. X X X X XXX).4XAX:X$XJX5XoXOXOXOXOX_.].AXtX'.`.`.`. X`.`. X3XyX'.`. X`._.`.`._.).yX#X).XX XXX`.`.).'.}.rXJXtXrXrX6XrX9X6XHXU.N.T.B.B.B.B.B.T.B.B.B.B.N.B.N.N.B.N.N.B.B.B.B.B.B.B.B.B.B.B.).XX{.}.].'.m.B.U.D.G.#X,XhXzXlXdXkXlXdXlXlXjXjXjXkXdXkXkXkXkXkXkXkXkXkXkXzXzXzXkXzXkXzXcXcXkXzXkXzXkXcXzXzXkXkXcXcXkXkXkXkXzXzXcXcXkXkXcXzXzXzXkXcXkXzXkXkXkXcXzXkXkXzXzXkXkXkXkXkXkXkXkXkXkXkXkXkXkXkXkXzXzXcXkXcXzXzXkXkXkXcXkXkXzXzXkXkXcXcXcXcXcXcXcXcXcXkXkXkXjXkXkXkXkXkXkXkXjXkXkXkXkXkXkXjXkXkXjXkXjXkXkXkXkXkXkXjXjXkXkXkXkXkXkXkXkXkXkXkXkXjXdXdXjXjXFX7.  .     h f O X V wX0 3X^ X q ' 0 0 <X<XX = % & & & & $ # & $ = .     . %XIXgXuXhX7.h.FXCXCXCXkXCXh.Z a.B - = X a.IXcXkXkXkXkXkXkXkXkX",
"dXdXdXdXjXdXdXdXdXdXdXdXdXdXjXdXdXdXdXlXnXVXxXh.j.k.DX=X0 5 - V FXxXIXa.B ' $ ` cXdXjXdXdXjXdXjXjXjXjXjXjXjXjXjXjXjXjXjXjXjXjXjXjXjXlXjXjXjXjXjXjXjXjXjXjXjXjXdXjXjXjXjXjXjXjXjXjXjXzXlXlXjXjXjXjXjXjXjXdXdXdXdXdXjXjXdXjXlXdXdXjXdXjXjXdXdXdXdXjXdXdXjXdXk.dXdXdXjXjXdXdXdXdXfXdXdXjXjXpXk.pXjXdXpXdXjXdXjXjXjXjXdXjXjXkXjXkXjXjXjXkXzXSXcXcXjXjXkXjXjXjXjXjXjXjXkXkXjXjXkXkXkXkXkXzXkXkXzXzXkXkXkXzXkXkXkXzXkXjXjXkXjXkXkXkXjXkXkXkXkXzXkXkXkXkXkXkXkXkXkXkXkXkXkXkXjXkXkXkXjXzXjXjXjXjXdXjXlXlXjXzXjXkXkXcXkXcXkXzXxXzXcXcXzXzXzXzXkXzXxXzXkXkXzXcXzXcXzXcXzXxXzXcXcXxXxXcXxXzXxXxXjXzXjXjXkXxXzXzXkXzXzXzXzXkXzXzXkXkXzXzXkXkXzXzXzXzXzXzXzXzXzXzXjXkXkXzXkXjXjXjXjXkXkXkXkXkXzXkXzXkXkXkXkXzXzXzXjXjXzXzXzXzXzXzXkXlXzXzXlXzXzXkXzXzXzXkXzXzXzXkXzXzXkXkXjXkXjXjXkXkXkXkXjXkXkXkXkXkXkXkXjXkXzXlXjXlXzXkXlXjXpXlXVXFXFXVXVXNX3XoX.X(.tX2XR.XX`.`.`. X`. X X X X'.tXNX$XKX5XXXOXOX XOXOX).yXKX}.`. X X`. X`.OX X3XPXXX X X X`.`. X_.'.PX1X).XX X`.`.XX`.`.).5XJXJXJXJXrXrX9XrXJXoXT.B.T.T.B.B.B.T.T.B.T.T.B.N.N.N.N.B.B.B.B.B.B.B.B.B.B.B.B.B.N._.).{.5X}.'.U.U.T.U.U.'.4XgXlXlXlXlXlXkXlXdXkXkXkXkXkXkXkXkXkXkXkXkXkXkXzXkXkXkXzXcXkXkXcXzXcXkXkXcXkXcXcXcXcXcXcXkXkXkXcXcXcXcXcXkXcXzXcXcXkXcXcXkXzXkXzXkXzXkXzXkXzXzXzXkXkXzXkXkXkXzXzXkXkXkXcXkXkXkXcXzXcXcXkXkXkXkXcXcXcXcXcXcXcXkXcXkXcXcXcXcXcXcXcXkXkXkXkXkXkXkXzXkXkXkXkXkXkXkXkXkXkXkXkXjXdXdXjXdXjXjXjXjXjXjXkXkXkXkXkXkXkXkXkXkXkXkXkXkXdXdXkXkXkXFXV X 0 B 7.0   i f.aXUXV ^ C X X -Xg.h.iX8.- , * & = = & $ = = & = < 4 2 & X B y 0 B   V 8.Z g.V u a.V   ; .   B f.FXj.k.kXkXkXkXzXkXkXzX",
"dXdXdXdXdXdXdXdXdXdXdXdXk.k.jXdXdXdXSX8.X B g.IXSXhXg.IX^ - 1 B BXg.e.- t 1 y g.dXk.dXdXfXdXjXdXjXdXjXjXjXjXjXjXjXjXjXjXjXjXjXjXjXjXjXjXjXjXjXjXjXjXjXkXjXjXjXjXjXjXjXjXjXjXjXjXjXjXjXzXjXjXjXjXjXdXjXjXdXdXdXdXdXdXjXjXjXdXjXdXdXjXjXdXdXdXdXdXjXdXdXdXdXpXdXpXpXjXjXdXdXdXfXdXdXdXdXdXjXdXdXdXdXjXlXdXdXdXdXdXjXjXdXjXkXkXkXjXkXjXcXcXFXcXcXjXkXzXzXzXzXzXkXkXzXzXzXzXzXzXzXzXzXkXzXzXzXkXzXkXzXkXkXkXzXkXkXkXzXkXkXzXzXzXzXkXzXkXkXkXkXkXkXkXkXkXzXkXzXkXkXzXcXkXkXkXcXcXzXcXcXcXcXcXcXjXlXjXjXdXjXdXjXkXkXzXcXcXcXcXSXcXZXSXSXZXZXZXZXcXcXZXZXcXcXcXcXcXcXcXcXcXcXcXZXcXcXZXSXcXcXcXcXcXcXZXZXcXZXcXcXcXcXcXcXcXcXcXcXcXcXcXcXcXcXcXZXcXcXcXcXcXcXcXcXzXcXcXcXzXzXcXcXcXcXcXcXcXcXcXcXcXcXcXcXcXcXcXcXcXcXzXkXkXkXzXcXzXzXkXkXkXkXjXjXkXkXkXkXzXkXzXzXjXzXjXjXjXkXjXjXkXkXjXkXlXkXkXkXlXjXkXlXzXkXzXlXdXdXpXpXxXFXDXVXVXVXVXbX3XHX3XwXIXPX'.`.`.`.`.`. X`. XXX`. X5XI.4XqX`. X X X XOX_.'.PX3XY.`.`. X_.`.XXOX`.3XyXXX X`. X X`._. XoXNXtX'. X X`.`.`.`.`._.'.5XJXJXrXrXrX4X6X5XHXXXB.B.T.B.B.T.T.B.T.B.B.U.).).U.N.N.N.B.B.N.B.B.B.B.B.B.B.B.B.N.B.).'.}..X).D.U.U.B.B.).#XbXxXlXdXlXkXjXdXlXlXkXkXkXkXkXkXkXkXkXkXkXkXkXkXkXkXzXzXcXkXzXkXkXkXkXkXzXzXcXcXcXkXkXkXcXkXcXcXcXzXcXcXkXkXcXkXcXkXzXkXkXzXzXkXzXkXzXkXkXzXzXkXkXkXkXkXcXkXzXkXkXzXzXkXzXkXkXzXkXkXcXzXkXkXcXzXzXcXcXcXcXkXcXcXcXzXcXzXkXcXzXkXzXkXkXkXkXkXkXkXkXkXkXkXkXkXkXkXkXkXkXjXkXjXkXkXkXkXkXkXkXjXkXkXkXjXkXkXkXkXjXkXkXjXkXkXkXdXkXkXkXzXFXAXFXIXAX  @ g.IXpXxXBXX @ a.a.k.h.j.lXf.X % * * & = & = = = & = = * * > % % o O O & % o . & O O -   . , + =XIXcXcXCXk.kXkXkXkXkXkXkXkX",
"dXdXdXjXjXdXk.jXkXdXdXdXjXjXdXkXjXjXSXg.B 1 B 9.B 8.CXAX^ 1 f q q + + m ^ V BXFXdXdXdXjXjXdXjXjXjXjXjXjXjXjXjXkXlXjXjXjXjXjXjXjXjXjXjXjXjXjXjXjXkXjXkXkXkXkXjXjXjXjXjXjXjXdXjXjXjXjXjXkXjXjXjXjXjXjXjXjXjXjXdXkXdXjXkXjXjXjXjXjXjXjXkXdXdXdXdXdXjXdXdXjXkXkXlXdXdXdXdXdXdXdXdXdXjXdXdXdXjXkXkXjXjXdXjXjXkXdXdXkXjXjXjXdXkXdXkXkXzXjXdXdXdXkXcXzXkXkXkXkXkXkXkXkXkXkXkXkXkXkXkXkXkXkXkXkXkXkXjXjXkXkXkXjXkXkXkXjXjXjXjXkXkXjXjXjXkXjXjXjXkXjXjXkXkXjXkXkXjXjXkXjXkXjXjXjXkXkXkXjXjXjXzXlXjXdXdXdXkXkXlXjXlXjXkXkXkXkXkXzXzXzXcXcXcXcXcXcXcXcXcXcXcXZXZXZXZXcXcXZXZXcXcXcXZXcXZXZXZXcXcXZXSXcXcXcXZXcXcXcXcXcXcXcXcXcXcXcXcXcXcXcXcXcXcXcXcXcXcXcXcXcXcXcXcXzXcXzXcXzXzXcXcXcXcXcXcXcXcXzXcXzXcXcXcXcXcXcXcXcXSXcXcXcXcXcXcXcXcXkXzXlXkXkXzXlXkXkXkXkXkXkXkXzXzXjXjXkXkXkXkXkXkXkXkXkXkXkXkXkXlXkXkXzXlXdXdXpXlXxXSXDXDXSXFXVXVXDXAXrX5X3XPXIXtX'.`.`.`.`. X`.`.XXXX`. X'.6XrX XXXOX X XXX X`.XXoX'. X X`.OX`.`. XOX XrXMX'.XX X X X`.`.`.oXtXAX4X'.XXXX X`._._. X`.'.qXtXtXyXJXqX5XE.oXXX`._._.T.T.T.T.T._.B.B.T.XXoXoX X).B.N.B.B.N.B.B.T.B._.T._.B.B.N._.U.'.oXoX'.U.U.T.T.T.Y.].,XlXzXlXdXdXkXkXdXkXkXkXkXkXkXkXkXkXkXkXkXkXkXzXzXkXcXcXzXzXkXkXkXzXzXcXzXkXkXzXzXkXcXcXcXcXcXzXzXcXzXzXzXzXzXcXcXcXzXkXzXzXzXzXzXzXzXzXkXzXzXzXzXzXzXzXzXzXkXzXkXcXzXzXzXzXkXzXkXzXcXcXzXzXzXcXzXcXzXcXcXcXzXcXkXzXcXcXkXzXzXzXzXkXzXzXkXzXzXzXzXzXkXzXkXkXkXkXkXkXkXzXzXkXkXkXkXkXkXkXkXkXkXkXkXkXkXkXkXkXdXjXkXkXjXkXkXk.kXkXkXzXkXkXk.jXg.BXFXxXcXxXFXf.f.IXFXxXDXDXAX^ . , * = & = = = & = = * = > % * 2 6 2 8 , 3 , 3 3 3 6 e   ^ 8.+ ; g.ZXIXg.h.cXkXkXkXkXkXkXzXkX",
"dXdXjXdXjXjXjXk.jXjXdXk.dXk.dXdXjXjXk.SXIXf.h h - @ a.V q 9 9 p 1 - t q <XUXcXlXdXjXjXdXjXjXjXjXjXjXjXjXjXjXjXjXjXjXjXjXjXjXjXjXjXjXjXjXjXjXjXjXjXkXjXjXkXjXkXjXjXjXjXdXjXdXjXjXjXkXjXjXjXjXjXdXjXjXjXdXdXdXjXdXjXjXjXjXjXdXjXjXdXdXjXdXjXdXdXdXjXdXjXdXdXdXjXdXdXdXdXdXdXdXjXdXdXdXjXdXdXjXkXdXjXdXjXjXkXdXdXdXjXjXjXjXdXjXjXjXkXjXjXjXkXjXkXjXjXdXjXjXjXdXjXjXjXjXjXjXjXdXjXjXjXjXjXjXjXjXjXjXjXjXjXzXkXjXjXdXjXdXjXdXdXdXjXdXdXjXkXkXjXdXjXdXjXjXjXdXjXjXjXdXjXdXjXdXdXkXjXdXdXdXjXdXdXjXjXdXkXkXjXjXkXjXkXkXjXjXjXjXkXkXkXkXjXjXkXkXkXkXkXkXkXzXzXzXzXzXzXkXzXzXzXkXzXcXzXzXzXzXzXkXkXkXkXkXkXkXkXjXkXkXkXkXkXkXkXkXkXkXkXkXkXkXkXkXkXkXjXkXkXkXkXkXkXkXkXkXkXkXkXkXkXkXkXkXkXkXkXkXkXkXzXkXkXkXzXkXkXcXzXzXcXcXcXcXcXSXcXzXkXkXcXkXkXkXkXkXkXkXkXjXkXkXjXjXkXjXkXkXkXkXkXkXkXkXkXkXkXkXkXjXlXjXlXlXxXSXFXFXFXVXDXVXSXVXSXBXyX0XXXXX}.3X]. XXX`.`.`.`.`. X X`.XX XR.9X4X X`.XX`.XX`.`. X`.`.XX`.`.`.`.`. X`.`.'.tXVX5X_.XX`.`.`.XX`.`.3XBXNX].`.`.`._.`.`._._.).'.rXJXrX9X6X5X5X].'.oX).T.T._.B.T.T.B.T.B.N.U.{.'.oXXX).B.N.B.B.B.N.B.B.T._.T.B.B.B.N.B.).'.{..X'.U.U.T.T._.U.P.7XhXlXdXkXjXkXkXkXkXkXkXkXzXzXkXzXkXkXzXzXzXzXzXzXzXzXzXkXkXkXkXzXzXzXcXzXkXzXkXzXzXkXzXkXkXzXzXzXzXzXkXzXzXzXcXzXkXzXkXkXzXzXzXzXzXzXkXkXzXzXzXkXkXzXkXzXzXkXkXzXcXzXzXzXkXzXzXzXcXzXzXkXzXcXzXzXkXcXZXcXzXkXzXcXcXcXcXcXzXzXzXzXzXzXzXzXzXkXkXzXkXkXkXzXkXkXkXkXkXkXzXkXjXdXjXkXkXkXkXjXkXkXkXkXkXkXkXkXdXkXjXjXkXdXjXk.kXkXkXkXkXkXkXzXFXSXcXcXcXcXVXDXDXuXaXFX^ B i . = = % & & * = & & = & * = & % * % * * , % * > 3 , , , ; u AXIX0 8 + B ^.0 7.FXjXkXzXkXkXkXkXzX",
"dXdXjXdXjXk.jXjXjXkXjXjXjXjXjXjXjXkXkXdXjXIX>XB ^ g.f.0 q h r 7 - ^ W.V g.cXjXkXkXkXjXjXjXjXjXjXkXkXjXjXjXjXkXkXjXjXjXjXkXjXkXjXjXjXkXjXjXjXjXjXjXjXjXjXjXjXkXkXjXjXkXkXjXkXjXjXjXjXkXjXjXjXjXjXjXjXjXjXjXjXjXdXkXjXjXjXkXjXkXkXjXjXdXjXkXjXjXjXjXjXjXdXdXpXdXjXjXdXjXdXjXjXjXdXjXjXkXjXjXdXjXdXjXjXjXjXfXjXkXdXjXjXkXdXkXdXkXdXdXjXkXkXkXdXdXdXkXjXjXdXjXjXjXjXjXdXjXjXdXjXjXjXjXjXjXkXkXkXzXjXjXzXxXjXj.pXzXjXjXjXkXdXjXjXkXjXjXlXzXlXkXjXkXdXdXjXjXjXkXjXjXjXjXkXkXjXjXjXjXjXjXjXkXjXjXkXkXdXjXjXjXkXkXkXkXkXjXjXkXlXkXkXzXjXjXjXjXjXjXdXjXjXkXjXkXjXjXjXjXjXkXjXkXjXzXkXzXzXkXjXjXjXkXjXjXjXkXjXkXkXkXjXkXkXkXkXkXjXkXkXkXkXkXkXkXkXkXjXkXjXzXkXkXjXkXkXkXjXkXkXkXkXkXzXkXkXkXkXkXkXkXzXzXkXzXkXkXkXzXkXzXzXcXcXkXkXkXkXzXzXcXcXcXkXzXkXkXkXcXkXkXkXkXkXkXkXzXkXkXkXkXkXkXkXkXkXzXkXkXkXjXjXjXcXSXFXDXDXDXDXDXFXFXFXSXSXDXtX}. XOX X X`. X`.XX`.`.`. X XXXXX`.XXXX6XyXqXXXXX XXXXXXXXX`.XX`.XXXXOX`._. XOX`. X'.BXFXrX`.XX`.`.`.XX`.`.).yXPX6X). X X_.`. X_.`._. X.XrXJXtX6X4X6X5XoX0XoX XU._._._.T._.B.B.B.T.).'.Y.'. X).T.B.B.B.B._.B.B.B.B.B._.B.B.N.B.U. XoXoX'.U.U._._._.).R.#X,XlXkXdXkXkXkXkXkXkXkXkXkXkXzXkXzXzXzXzXzXzXzXzXzXzXzXzXcXcXcXkXcXcXcXkXzXkXzXzXzXkXkXkXzXzXzXzXzXzXzXzXzXkXkXkXkXkXkXkXkXzXzXzXzXzXzXzXzXkXkXkXzXzXzXzXzXkXzXcXzXzXkXzXzXzXzXzXkXkXzXzXzXzXzXzXcXcXcXzXzXcXcXcXcXzXcXzXzXzXzXkXzXzXzXkXkXzXzXkXkXkXzXkXkXkXkXkXkXjXjXjXjXjXkXkXkXkXkXkXkXkXkXkXkXkXkXkXkXkXkXkXkXk.kXkXkXkXzXzXkXkXzXzXxXcXcXcXcXlXlXxXxXDXj.X O > > = = = & * & * = & * & > = = & 2 & 2 3 2 > 4 > > > 3 # 5 B   V V   1 1 - i hXcXzXzXzXzXkXkXzXzX",
"jXdXdXdXkXdXk.dXkXjXjXjXjXjXjXkXjXkXkXjXjXxXxXZ 7.IXgX0 1 9 7 = ^ FXcXpXcXcXkXkXkXjXdXdXdXjXjXjXjXjXjXdXjXjXjXkXjXdXjXjXjXkXjXjXjXkXkXkXkXjXjXdXjXjXjXdXjXjXjXkXkXjXkXkXkXjXkXjXkXjXkXjXdXkXkXkXjXjXjXjXjXdXdXjXkXkXjXdXjXjXjXkXkXdXkXjXkXkXjXjXjXdXjXkXjXjXkXjXdXjXjXdXjXjXjXjXjXjXjXjXdXdXdXkXjXdXdXdXfXdXdXkXkXdXjXjXdXdXjXdXdXdXdXdXdXdXkXkXdXdXjXjXjXjXjXjXlXlXlXjXlXjXkXkXzXjXjXzXzXzXzXjXzXjXlXpXh.pXzXdXpXjXkXkXkXjXdXjXlXdXh.j.zXlXjXkXkXdXjXkXjXkXkXjXkXjXjXjXjXdXdXdXjXdXdXjXjXjXjXdXjXdXkXjXjXkXkXjXdXdXlXjXjXzXzXjXkXkXkXkXkXjXjXkXkXjXkXjXjXjXkXjXjXjXkXkXkXzXzXjXjXjXjXjXjXkXcXkXkXkXkXkXkXkXkXkXjXjXkXkXkXjXkXkXkXjXkXzXcXkXjXkXkXkXkXkXkXjXkXkXkXkXkXkXkXkXkXkXkXkXzXzXkXkXzXzXkXkXzXzXzXzXzXkXkXkXzXkXzXkXkXkXcXkXkXcXcXkXzXkXkXkXkXkXkXjXkXjXjXzXkXdXkXkXkXkXzXkXkXkXkXjXzXzXSXVXVXFXIXPXyXeXnXFXSXVXSXVXtX}. X X X`.XX`.XX`.`.`. X XXX XXX`. X`.'.rXtX]. X X`.`. XXX X XXX`.`.XX X`. X`.`.OX X].mXVXBX'.`. XXX`.`.`.`._.}.BXwX'._._. X_._._._.`.`.U.oXHXrXrXrX1X5X3X3XqX5XY.U.T._.T.B.B.B.B.B.U. XXX'.).).).B.N.B.B.B.T.B.B.B.B.B.T.T.B.N.B.T.Y.oX5X XU.T.U.T.U.U.U.P.$XlXzXkXk.kXkXkXdXkXkXkXzXzXzXzXzXzXzXzXzXzXzXzXkXzXzXzXcXzXcXcXzXcXkXkXkXkXzXkXkXkXkXkXzXzXkXzXzXzXzXzXkXkXkXkXkXkXkXkXkXzXzXzXzXzXzXzXkXkXkXkXzXzXzXzXkXzXzXzXkXzXkXzXzXkXzXkXkXzXzXzXzXcXzXzXzXzXzXcXzXcXcXcXzXzXzXzXzXzXzXzXkXkXkXkXkXkXkXkXkXkXkXkXkXkXkXkXjXkXkXkXkXkXkXkXkXkXkXkXkXkXkXkXkXkXkXkXkXkXkXkXk.k.kXjXkXzXkXkXkXkXzXcXcXcXzXcXcXVXuXh.8.BXC 4 e = % % * = & * & = & & * > > = * o 4 p O 1 = . . = 3 3 % . ^ 0 8.IX8.V y B g.FXkXkXzXzXkXzXzXzXzX",
"cXzXzXzXzXkXkXkXzXkXkXkXzXkXkXzXzXkXkXjXIXIXIXIXSXDXV - 9 r 9 $ a.jXh.k.xXxXcXzXjXdXjXkXjXjXkXjXkXjXjXkXkXjXkXkXkXjXkXjXjXjXjXjXjXjXkXkXkXkXjXkXkXjXdXkXkXjXkXkXkXkXkXkXkXdXkXkXkXkXdXjXkXkXkXkXkXjXkXkXkXkXkXjXkXkXjXjXjXjXjXjXkXkXkXkXkXjXjXjXkXjXkXjXkXjXkXjXjXdXdXdXdXdXjXjXjXjXfXkXjXdXjXkXkXdXkXjXdXdXdXdXjXkXkXjXjXdXdXkXkXkXkXkXkXkXkXjXjXjXjXkXkXjXkXzXkXjXjXzXkXlXkXzXjXjXjXdXjXjXjXjXzXlXlXzXzXzXjXjXdXdXjXkXkXjXkXjXzXlXpXlXzXzXzXkXkXjXjXdXjXdXdXjXjXjXkXkXkXjXjXjXkXjXjXjXjXdXdXjXkXjXjXkXkXkXkXkXzXzXlXjXlXjXkXkXzXkXkXzXcXkXkXkXzXzXkXkXkXkXkXkXkXkXkXkXkXkXkXkXjXkXkXkXjXkXcXkXzXkXkXkXzXkXkXkXkXkXkXkXkXkXzXzXkXjXkXzXcXzXzXkXzXkXkXkXkXkXzXkXkXjXkXkXkXkXzXzXzXkXzXzXkXzXcXcXzXkXkXzXcXzXzXzXkXkXzXzXzXkXzXzXzXkXzXkXkXzXcXkXkXkXkXkXzXkXkXjXjXcXjXjXzXkXkXkXzXkXkXkXzXcXSXSXSXSXFXAXqX].qXtXmXSXVXVXDXtX{. XXX`.`.XXXX X X X`.`. XXXXX X`.`.XX`.XXJX0X'. XXXXXXX X XXXXX`. XXX`.`.XXOX`.`.XX`.3XVXVXDX5X XXX X`.`._. X X`.yXKX{._.`.XX X`.).`._.`.`.`.Y.5XrXrX6X6X5X3X1X3X5X).B._._.B._.T.T.B.B._. XXX'.'.`.).T.B.B.B.B.B.B._.B.B._._.`._.m.N.U.).oXXXU.T._._.T.B.T.B.D.#X,XxXkXkXjXkXkXjXkXzXkXkXkXkXkXzXzXzXkXzXzXzXkXzXzXzXzXzXcXzXkXkXkXzXzXzXzXzXzXzXkXzXkXkXzXzXzXzXzXzXzXzXzXzXzXzXzXzXkXzXkXzXzXzXzXcXcXzXzXzXzXzXkXzXzXzXkXkXkXzXzXzXzXzXzXzXzXzXzXzXzXcXzXzXzXzXzXcXzXzXzXzXzXzXzXzXzXzXzXzXkXkXkXkXkXkXzXzXkXkXkXzXkXkXkXkXkXkXkXkXkXkXkXkXkXkXkXkXkXkXkXkXkXkXkXkXkXkXkXkXkXkXkXzXzXzXcXzXzXzXzXcXcXlXcXxXlXxXiXDX^ ^ ^ 5 4 = * > & = = = * * = * = .   . > = 4 f > > . B V - $ w 6   O.' u FXFXIXxXFXZXzXxXcXzXzXzXzXzXzXzX",
"cXcXZXcXcXcXcXcXcXcXcXxXxXxXcXzXzXkXzXFX8.0 ` gX@XB . 7 6 1 7 . 7.FXCXSXcXzXcXFXIXcXkXdXkXkXjXkXkXkXkXkXkXkXkXkXkXkXkXkXkXjXjXjXjXjXkXjXkXkXkXkXkXkXkXjXkXkXkXkXkXkXkXkXkXdXkXkXkXdXkXdXdXdXdXkXkXjXkXkXkXkXkXjXdXjXkXjXjXjXjXdXjXkXjXkXkXjXjXjXjXjXjXjXdXdXjXdXjXdXkXdXdXjXjXdXjXkXkXkXkXkXkXkXkXdXdXjXdXdXkXdXkXzXkXzXkXkXkXjXkXkXkXkXkXjXjXjXcXzXkXjXkXkXkXjXjXkXkXjXjXjXjXjXjXjXjXjXjXjXjXjXjXjXkXjXzXjXjXjXkXdXkXdXdXdXkXdXjXlXzXzXzXjXkXjXjXkXkXkXkXkXkXkXkXkXkXkXkXkXkXkXkXkXkXkXkXkXkXkXkXkXkXkXkXkXkXkXkXkXkXkXkXkXkXkXkXkXkXkXkXkXjXjXkXkXkXjXjXkXkXkXkXkXkXkXkXkXkXkXkXkXkXkXkXkXkXkXkXkXkXkXkXkXkXkXkXkXkXkXkXkXkXzXkXjXkXkXzXzXzXkXkXzXcXlXzXkXjXjXzXkXzXkXkXkXzXkXkXkXkXkXzXkXzXcXzXkXzXkXkXzXkXkXzXkXkXkXkXzXzXkXkXkXkXkXkXkXkXkXkXkXkXkXkXkXzXkXkXcXcXkXkXzXcXjXjXjXcXmXnXeXbXDXxXVXDX1XY.oX5X$XmXVXFXVXtX.X`.`.XX`.`.`. X`.`.`.`.`.`.XX X`.`.`. X`. XXX).`.`.`.XX`.XX`. X`.XX X`.`. X`. XOX`.`._.2XDXxXVXrX`.`.`.`.`._.`. XU.6XKX3X_.`.`.OXXX_._._.`._.`.U.'.6XrXrX1X3X6X1X3X3XXXU.N.B._.B._.B.B.B.B.U.).XX'.).`._.B.B.B.N.B.B.B.B.B.B.B.`.XX).B.N.N.B.U._._.U.U.T.T.m.N.B.D.P.$XbXxXzXkXjXzXkXkXkXkXkXzXzXzXzXzXzXzXzXzXzXzXzXzXzXzXzXzXzXzXkXzXzXkXzXzXzXzXkXzXkXzXkXkXzXzXzXzXzXzXkXkXzXkXzXkXkXkXzXzXkXzXzXzXzXcXzXzXkXkXkXzXzXzXzXzXkXzXzXzXzXzXkXzXzXzXzXzXzXzXzXzXzXzXzXzXzXzXzXzXzXzXzXzXzXcXzXzXzXkXkXkXkXkXkXzXzXzXkXkXkXkXkXkXkXkXkXkXkXkXkXkXkXkXkXkXkXkXkXkXkXkXkXkXkXkXkXzXzXzXzXzXzXcXcXcXcXcXzXcXxXxXxXxXlXlXFXUXC . 7 = = * # = = $ = = * % & = o 0 9.C . < ; $ , % - AXUXg.X & r - - B X g.CXk.zXcXcXzXzXcXzXzXzXzXzXzXcX",
"cXcXZXcXcXcXcXcXcXcXcXcXcXxXcXzXcXzXxXFXY 9._ h q 1 t 8 9 1 7 4 0 ` 8.^ g.FXgXa.7.j.cXkXkXkXkXjXjXjXkXjXkXjXjXjXkXkXkXkXkXjXjXjXkXkXkXjXkXkXkXkXkXkXkXkXkXkXkXkXkXkXkXkXjXjXkXjXkXkXkXkXkXkXkXjXkXkXkXjXjXdXjXkXjXjXkXkXjXjXjXjXkXkXjXjXkXkXjXjXjXjXkXkXdXdXkXjXdXkXjXjXjXjXjXjXjXkXkXdXdXdXkXkXkXkXkXjXkXkXkXzXzXzXcXkXzXzXzXkXkXkXzXkXzXzXzXcXSXzXjXdXjXjXkXkXkXkXkXkXjXjXjXkXkXkXkXkXjXjXkXjXjXjXkXjXkXkXkXjXkXkXkXdXjXdXdXkXkXjXkXjXjXkXkXkXkXkXkXkXkXkXkXkXkXkXkXkXkXkXkXkXkXkXkXkXkXkXkXkXkXkXkXkXkXkXkXkXkXkXkXkXkXkXkXkXkXkXkXjXkXkXjXkXcXcXzXkXkXkXkXkXkXkXkXkXkXkXkXkXzXzXkXkXkXkXzXkXkXkXkXkXkXkXkXkXkXkXkXkXkXkXzXkXkXkXzXkXzXkXkXkXzXkXzXzXzXkXkXcXcXxXcXcXzXkXkXkXkXzXzXzXzXzXzXzXkXzXzXkXzXkXkXkXcXkXzXkXkXzXzXzXkXkXkXkXkXkXzXkXkXkXkXkXkXkXkXkXkXjXlXjXcXkXkXjXzXVXBX3X{._.'.eXSXFXAX{.XXHX3XeXAXbXNXwX{.).XX`. X`.`.`.`. XXX`. X`. X`.`.`. X XXX X`.`.`.`. X`.XXXXXX`.`. XXX XXX XXX XOX`. X`.`.wXFXVXSXtX X X_.`. X`.`. X`.}.NXrXXX_._.`. X`._.`. X_._.`.XX6X9XJX5X3X6X6X3X3X0XXXT.B._.B._._.T.T.B.N.T.). XXXXX`._.B.B.B.B.B.B.T.B.B.B.U.`.oXXXB.B.N.B.B._.U.).U.).D.B.m.U.`.).P.eXmXSXcXcXcXSXcXcXcXcXcXcXcXcXcXcXcXcXcXZXcXcXcXcXcXcXcXcXcXcXzXcXzXzXzXzXzXzXzXzXzXzXzXzXzXzXzXzXzXzXkXkXkXkXkXzXzXzXzXzXzXzXzXzXzXzXzXzXzXzXzXzXzXzXzXzXzXzXzXzXzXzXzXzXzXzXzXzXzXcXcXcXcXcXcXcXZXcXZXSXcXZXcXIXh.k.FXZXzXzXcXzXzXcXcXzXzXzXzXzXzXzXzXzXzXcXzXcXcXcXcXcXcXcXcXcXzXcXcXcXzXzXcXcXcXZXcXZXZXcXcXZXcXZXZXZXcXcXFXIXIXIXIXDX7.C - 5 $ . $ * * * & * * * & * & =   9.UXf.  5 5 ; < 6 . 7.AXUXg.X . + . -   8.FXkXkXzXcXZXcXcXzXzXcXcXzXzXcX",
"cXcXcXcXZXcXcXcXcXcXcXcXcXzXzXcXzXkXZXaX@ Q b e c t p 4 7 1 4 6 4 $ & . ^ IXV   X h.ZXkXkXkXkXjXkXkXkXzXkXkXkXkXkXkXkXkXkXjXkXkXkXkXkXjXkXkXkXkXkXjXkXdXdXkXkXdXjXjXkXkXkXjXkXkXkXkXkXkXkXjXkXkXkXkXkXkXdXdXkXdXjXjXjXkXjXjXkXjXjXkXdXjXkXjXkXdXjXjXkXkXdXdXdXjXdXdXjXfXjXdXdXjXkXdXdXdXjXjXjXkXkXkXkXkXkXkXzXkXzXzXkXkXkXkXkXkXzXkXzXzXzXcXZXcXzXkXkXjXkXjXjXkXkXkXkXkXkXjXkXkXkXjXjXkXkXdXjXjXjXjXjXkXjXjXkXjXkXkXkXkXk.dXkXkXkXkXkXkXkXjXkXkXkXkXkXkXkXkXkXkXkXkXkXkXkXkXkXkXkXkXkXkXkXjXkXkXkXkXjXkXkXkXkXkXkXkXkXkXkXkXkXkXkXkXkXkXkXkXkXkXzXkXkXkXkXkXkXkXkXkXkXkXkXkXzXkXkXkXkXkXzXkXkXkXkXkXkXkXkXkXkXkXkXkXkXkXkXkXkXkXkXkXkXzXzXkXkXkXkXkXzXcXzXjXxXxXbX$X7XmXcXzXkXkXzXkXzXkXkXzXzXkXzXkXzXzXzXkXkXkXkXkXkXkXzXkXkXzXkXkXkXkXkXkXkXkXkXkXkXkXkXjXjXjXkXdXkXjXkXlXzXzXDXNX5X XOXOX_.wXSXFXrX).OX X5XtX3X].}.'. X`.`.`.`.`. X`.`. X`. X`.`.`.`.`.`.`. X_.`.XX`.`.`.`._.`. XXX`.XX X XXXXX X XXX`._.XX_.'.AXVXVXDXMX X`.`.`.`.`.`._.`.R.NXrXY.`._.T.`._.`._._.`._.`.).0XJX6X6X].3XqX5X3X3X5XXXU.B.T.T._._.B.B.B.B.U.). X X X`.U.B.B.B.B.B.B.B.B.B.N.U.).XXXX_.T.B.B.B.T.).XX'.'.`.D.F.'.).'.'.1XNXDXSXSXSXSXSXZXZXZXZXZXZXZXZXZXSXZXSXSXSXSXSXSXSXSXSXSXZXZXZXcXcXcXcXZXZXcXZXcXcXcXcXcXcXcXcXcXcXcXcXzXzXcXcXcXcXcXcXzXzXzXzXzXzXzXzXzXzXzXzXzXzXzXzXzXzXzXcXcXcXcXcXcXcXZXZXZXZXZXSXSXSXZXZXSXSXSXSXSXZXZXUX8.g.IXcXZXZXcXZXZXZXZXZXZXcXcXcXcXZXcXcXZXcXZXZXZXZXZXZXZXZXZXZXZXZXZXZXZXZXcXZXcXcXSXSXSXSXZXcXZXZXcXcXZXDXL.9.7.7.e.Y & $ $ X 0 +XB . = * % * & * % & * *   7.DX-XV   X i . 4 1   0 mXUXBX8.V 7.8.Z pXCXkXxXcXzXcXcXcXcXcXcXcXcXcXcX",
"ZXcXcXCXZXcXCXZXZXcXcXcXcXcXcXcXcXzXcXFXg.$XC y i X . - 1 7 4 1 9 9 k t l C X B @XFXzXcXcXzXzXcXcXzXcXcXcXcXzXcXcXzXzXzXzXkXkXzXzXzXkXzXzXkXkXkXkXkXkXkXjXjXjXkXkXjXkXkXkXkXkXkXkXkXkXkXkXkXkXkXkXkXkXkXkXjXkXkXkXjXjXkXkXjXkXjXjXjXjXjXkXjXjXkXkXjXjXdXjXdXjXdXjXjXjXjXjXjXjXdXjXjXdXkXkXkXkXkXkXkXkXjXjXdXkXzXcXzXkXzXcXkXkXzXzXkXjXjXkXjXkXkXkXkXzXkXkXkXkXkXkXkXkXkXkXkXkXkXkXkXkXjXjXjXjXkXkXjXjXkXkXkXjXkXkXkXkXkXkXjXkXkXkXkXkXkXkXkXkXkXkXkXkXkXkXkXkXkXkXkXkXkXkXkXkXkXkXkXjXjXjXkXkXjXkXkXjXjXkXjXkXkXkXkXkXkXkXkXkXkXkXkXkXzXkXkXkXkXkXjXjXkXkXkXkXkXkXkXkXkXkXkXkXkXzXkXkXkXkXkXkXkXkXkXkXjXkXkXkXkXzXkXkXkXkXkXkXkXzXkXzXzXkXkXkXkXkXzXcXkXxXjXVXBX1XY.U.].eXVXcXzXzXkXzXzXzXkXkXkXkXkXzXkXkXkXkXkXzXkXkXkXkXkXkXkXkXkXkXkXzXkXkXkXkXkXjXkXjXjXjXkXkXjXjXkXxXcXFXVXNXqXXX XOXOX`.NXFXAXoXXXOX{.tXtXF.'.oX'.XX`.`.XXXX`.XX`. X X X`. X`.`.`. X`.`.`. X X`. XXX`. XXXXX X`.XXXX`.XXXXXX XXXXXXXXX`.).rXDXSXVXDXNXXX`. X_.`.`.`.`.`.).rXJXY.`.`.`.`.`.OX_._.`.`._.`..XHXrXrX4X3XqX5X}.}.5X0XXXU._._._._.B.B.B.B.N.T.).XX XXX`._.B.B.B.B.B.B.B.T.B._.B.T.`.XX X`.T.B.N.U.).oXoX'.Y.R.oX'.'.).).].9XAXFXDXSXSXSXSXZXZXZXSXZXSXSXSXSXSXSXSXSXZXZXSXSXSXZXSXSXZXSXZXZXSXSXSXSXSXZXZXZXZXZXZXZXZXZXSXZXcXcXZXcXZXZXZXZXcXZXZXcXcXcXcXcXcXcXcXcXcXcXcXcXcXcXZXZXZXZXSXZXZXSXSXZXSXSXSXSXSXSXSXSXSXSXSXSXSXSXZXZXUX8.g.IXcXSXSXZXSXSXSXSXSXSXZXZXZXZXZXZXZXZXZXZXSXSXSXSXSXSXSXSXZXZXZXZXZXZXZXZXSXSXSXSXSXSXSXSXZXZXZXZXxXIX8.- e w 3 , 3 8 - B B wXIXi . > = % * * * & * & = o 0 j.FXhXV 7.NXV   5 9   g.SXFXIXUXIXIXFXZXkXxXcXZXcXZXcXcXZXcXzXcXcXcXcX",
"cXcXcXcXcXcXcXcXcXZXcXzXxXxXcXzXcXcXkXzXIXIXIXAXmXf.W.^.- < 4 7 1 - f.C t B 8.FXIXcXcXcXcXcXcXcXcXcXcXcXcXcXcXcXZXZXcXcXcXcXcXcXcXcXcXzXzXcXcXcXcXzXzXzXzXkXzXkXkXkXkXkXkXkXkXjXjXjXjXjXkXkXkXkXkXkXkXkXkXkXkXkXkXjXjXjXdXjXkXkXjXjXkXjXkXkXjXkXjXdXjXdXjXdXdXdXjXdXjXjXdXdXdXdXjXdXjXdXdXkXdXk.jXkXkXdXjXk.jXkXzXcXcXkXzXzXkXjXkXjXkXkXjXkXzXkXzXkXkXkXkXkXkXkXkXkXkXkXkXkXkXkXkXkXkXjXdXjXkXdXjXjXjXjXjXkXkXkXkXkXkXdXkXjXjXkXkXjXkXjXjXkXkXjXkXkXkXjXjXjXjXjXkXkXkXkXkXkXkXkXkXkXjXjXkXjXjXkXjXkXkXjXjXkXkXjXkXkXkXkXkXkXkXkXkXkXkXkXkXkXkXjXjXjXkXjXkXkXkXkXkXkXkXkXkXjXkXkXzXkXkXkXkXkXkXkXzXzXzXzXzXzXkXzXzXzXzXzXzXzXzXzXzXzXzXzXzXzXzXzXzXcXcXxXxXVXVXAX}.Y.`.U.Y.1XNXDXSXcXcXcXcXzXzXzXzXzXzXzXzXzXzXzXzXcXzXzXzXzXzXxXzXzXzXzXzXzXzXzXzXkXkXjXjXkXkXkXzXcXcXxXVXFXVXDXJXoXOX XXX XXXKXPX3XXXXXR.eXIXBXwXAXKXI.Y.).XX`.`. X`.XXXX X`.`.`.`.`.`.`.`.).`.XX XXX`. XXX XXXXX`. X`. XXXXX X X XXX XXXXX).6XAXVXVXBXtX5X`.`.`.`._._.`._.`.`.R.HXR.T.`._._.`._.`.`._._._._.U..XHXJX6X6X5X'.Y..X{.5X5X`._._.T.B.B.T.B.B.B.B.B._. X XXX`.T.B.B.B.B.B.B.B.B.B.B.N.B.`.XX X`._.B.N.m.). X'.'.0X0X0X{.Y.).Y.Y.3XyXDXFXSXSXSXSXSXZXZXZXSXSXSXSXSXSXSXSXZXZXZXSXZXSXZXZXSXZXSXSXSXZXZXSXSXZXSXSXSXZXSXSXSXZXZXZXSXZXZXZXSXSXSXSXSXZXSXSXSXZXZXZXZXcXZXZXZXcXZXZXSXZXSXSXSXZXSXSXSXZXZXZXZXSXSXSXSXSXSXSXSXSXSXSXSXSXZXZXUX8.8.IXCXZXSXSXSXSXSXSXSXZXZXZXZXZXZXZXZXZXZXZXSXSXSXSXSXZXZXZXZXZXZXZXZXZXZXSXSXSXSXSXSXSXSXSXZXcXZXcXcXFX-XV q 1 s d w   9.PXB 9.i . , % * & * = = * * % * = . - 8.DXVXlXCXFX8.0 . - gXSXxXzXxXk.k.k.kXkXCXzXzXcXcXZXZXcXcXcXcXzXcXcX",
"cXcXCXcXZXcXcXcXZXcXcXcXcXcXcXcXcXcXcXjXpXpXjXSXIXFXIXV X 1 > 7 6 - <X7.5 f.SXFXCXSXSXSXcXcXZXcXZXZXZXcXcXZXZXcXZXZXSXZXZXZXZXcXZXZXZXcXZXZXZXcXcXZXcXcXcXcXcXzXcXcXzXzXzXzXzXzXkXkXkXkXkXkXkXkXjXkXkXkXkXjXjXdXdXdXkXjXjXdXkXkXjXkXkXkXkXjXkXdXkXkXkXdXjXkXdXjXkXjXkXdXjXjXjXjXdXjXkXdXdXdXjXjXkXkXcXkXjXkXzXkXcXcXcXzXcXkXjXjXjXkXzXkXkXkXzXkXkXkXkXkXkXkXkXkXkXkXkXkXkXkXkXkXkXkXkXjXkXkXkXkXjXjXjXjXjXjXjXjXjXjXkXkXkXkXkXkXkXjXjXjXkXkXkXkXkXkXkXkXkXkXkXzXzXzXzXkXkXzXkXkXkXkXkXzXzXzXzXzXzXzXzXzXzXzXzXkXkXzXzXzXzXzXzXzXzXzXzXzXzXzXzXzXzXzXzXzXzXcXcXzXcXcXcXcXzXzXcXcXzXzXkXzXcXcXcXcXcXcXZXcXcXcXcXcXcXcXcXcXcXcXcXcXcXcXcXcXcXcXcXcXcXcXcXxXSXFXFXDX6X XXX`.).).'.4XBXFXSXcXSXSXcXSXSXSXSXSXSXSXSXSXSXSXSXcXcXSXSXcXcXcXcXcXcXcXcXcXcXcXcXzXcXcXcXcXSXSXVXVXFXSXVXNX0XoXOX XXXXXXX3X3XXXoXXXrXIXDXvXAXFXnXeX4X'. X X XXXXX X XXX`.`.`.`.XX`.`. X)._._.`.XX`.`.).`.`.`.XXXX XXXXXXXXX XXXXXXX X X3XAXFXDXBX7X].U.`.`.`.`._._.`._.OX`.).XXXX`.`.`.`._._.`.`._.`.`.`._.`.XXHXrXrX5X].R.{.'.}.oXU.T._.T.T.T._.T.B.B.B.B.T._.`.`.XX`.T.B.B.B.T.T.T._.B.N.B.B._.).XX X X_.U.B.N.B.).XXHX0XHX0XoX).).XX X'.qXNXDXFXSXSXSXZXZXSXSXSXSXSXSXSXSXZXZXSXSXSXSXSXZXSXSXSXZXZXZXZXZXZXZXZXSXSXSXSXSXSXSXSXZXSXSXSXSXSXSXSXSXSXSXSXSXSXSXSXSXSXSXSXSXSXZXSXSXSXSXSXSXSXSXSXSXZXZXZXZXSXSXSXSXSXSXSXSXSXSXSXSXSXFXSXZXSXUX8.g.IXZXZXSXSXSXSXSXSXSXZXSXZXZXZXZXZXSXZXZXZXSXSXSXSXSXZXSXSXSXZXZXZXSXZXSXZXSXSXSXSXSXSXSXSXZXZXZXZXZXcXFXIX<X^ q 5 q 7.UXa.  o o * * * * = = * * * * % * * = # . B a.DXk.k.FXnX0 0 SXSXCXZXCXk.kXkXzXkXZXzXcXZXZXZXcXcXcXZXcXzXzXzX",
"cXcXcXcXcXzXZXcXcXzXcXzXZXzXzXcXzXkXkXcXFXIXFXIXg.-XAX- O 6 2 , 3   7.8.V <Xk.IXIXIXFXcXSXcXcXZXcXcXcXcXcXcXcXcXZXZXZXZXZXZXZXZXZXcXZXcXZXcXZXZXZXcXcXcXcXcXcXcXcXcXcXcXcXcXcXcXcXcXcXcXcXcXcXzXzXzXzXzXzXkXkXjXkXjXjXjXjXdXjXjXkXjXjXkXkXjXdXkXkXdXkXkXdXdXjXdXjXkXkXjXjXjXjXjXjXjXjXjXkXjXzXcXcXcXcXzXzXzXzXzXcXzXzXzXcXkXjXjXjXjXjXkXkXkXkXzXkXjXkXkXkXjXkXkXkXjXkXkXkXkXkXkXkXkXkXkXkXkXkXzXkXjXjXjXjXjXkXkXzXzXzXzXcXcXcXcXzXkXzXzXzXzXcXcXcXcXcXcXcXcXcXcXZXcXcXcXcXcXcXcXcXcXcXcXcXcXcXcXcXcXcXcXcXcXcXcXcXcXZXcXcXcXcXZXZXZXZXZXZXcXcXZXZXcXZXZXZXZXZXZXZXZXZXZXZXcXZXSXZXcXcXSXZXcXcXcXcXcXZXZXZXcXcXcXcXcXcXcXZXcXcXZXSXSXcXSXSXcXSXSXSXxXxXSXFXDXVXDXrXR.`._.`.`.).).3XtXFXFXSXcXSXSXSXSXSXSXSXSXSXSXSXSXSXSXSXSXSXSXSXSXSXcXSXSXSXSXSXSXcXcXcXcXSXFXDXtXeXDXSXlXVXrX5XXX XXXOX`.XX'.oXoXXX'.JXIXDX7XMXNX>XDXAX2XoXoXoX'.oXXXXX X X`.`._.`. X X).`._.U._._._._._._.).`.`.XX X`.XXXX`.XX XXX X X5XAXDXVXVXnX7X1XY._._.`._._._.`.`._.`._.U.OX`.T._.`._._._._.`.`._._._._.Y.XX6XrXqX0X{.R.{.{.].'.U.T.T._.T.T.T.T.B.B.B.B.N._._.`.`.T.B.B.B.T._.T.B.T.T._.B.B.T.`.`.`.`.`._.U.N.N.T. XHX0X5X0XoXXX'. X X`. XqXKXDXFXSXcXSXSXSXSXSXSXSXZXZXZXSXSXSXSXSXZXZXZXZXZXZXZXZXZXZXZXcXZXSXSXSXSXSXZXSXSXSXSXSXSXSXSXSXSXSXSXFXSXSXSXSXSXSXSXSXSXSXZXSXSXSXSXSXSXSXSXSXZXZXZXSXZXSXSXSXSXSXSXSXSXSXSXSXSXSXSXSXSXCXZXUXV 8.UXFXZXZXSXSXSXSXSXSXSXZXZXSXZXZXZXZXZXZXZXZXSXSXZXSXSXSXSXSXZXZXZXSXZXZXZXSXSXSXSXSXSXZXcXZXZXZXZXZXcXZXkXCXUX8.0 >XUXbX- % 3 3 * = % , & * = * % * * * % * = , . - 7.FXCXFXUXgX-XDXjXCXkXk.kXzXk.kXkXkXzXZXkXcXcXcXZXZXcXzXSXSXcX",
"cXcXcXCXcXCXZXcXZXZXcXxXcXzXcXzXcXxXxXxXg.7.e.e.X 0 B ; > > 2 > e $ V IXeXC ^ NX8.u   7.FXcXZXZXZXcXcXZXZXcXZXZXZXcXZXcXZXZXZXZXSXZXZXSXSXZXZXSXSXZXZXZXZXcXcXZXcXcXZXcXZXcXcXZXZXcXcXcXZXcXcXcXcXcXcXcXZXcXcXcXcXzXzXzXkXkXkXjXkXjXjXkXkXjXjXjXjXjXjXjXjXjXkXjXkXjXkXjXjXjXkXkXzXkXzXzXzXcXcXcXZXcXcXcXcXcXcXcXcXcXcXcXcXcXcXcXcXzXcXcXcXcXcXZXzXkXzXkXkXzXzXkXkXzXzXzXzXzXzXzXzXzXzXcXcXcXcXZXzXxXxXxXzXcXcXcXcXcXZXZXZXZXcXZXcXcXcXcXcXcXZXZXZXZXZXZXZXcXZXZXZXZXZXcXZXZXZXZXZXcXcXcXSXcXcXSXSXcXSXSXSXSXZXZXSXZXSXZXZXZXSXSXSXSXSXSXSXZXZXSXSXZXZXZXSXSXSXSXSXSXSXSXSXZXSXZXZXZXZXSXSXZXcXcXSXZXZXZXZXZXZXZXZXcXcXZXcXcXcXcXSXZXSXSXSXSXSXVXVXxXVXDXFXDXSXDXtX{. X).).`.).`. X'.rXBXFXSXSXSXSXSXSXSXSXSXSXSXSXSXSXSXSXSXSXSXSXSXSXSXSXSXSXSXFXSXSXSXSXSXFXBX9X3XeXFXSXVXNX5XOX X`.XXXXXXXXXXoXoXOXXXoX3X5X{.oXoX2XmXmX>XrXqXqX5X0X5XoXXXXX`.`.`._.`.`._._._._._._.`.`._.`. XXX XXX XXXXXXXXXXXXXXXoXqXNXDXmXmXbXeXtXnX>X/.U._._._._.`._.`.`._._.`.`._._.`.`.`._.`.`.`._._._.`._.`.`.5XqXJX6X5X5X5X5X0X).U._._._.T.T._._._.T.B.B.B.`.XXU.B.B._.B.B.T.T.T._.T._.T.T.T._._.`.`. XXX`._.B.m.B.U.XXGXHXGXGXXXoXXXXX`. X'.rXKXFXSXSXZXSXSXSXcXSXSXSXSXSXSXSXSXSXSXSXSXSXZXZXZXSXSXSXZXZXZXSXZXSXSXSXSXSXSXSXSXSXSXSXSXSXSXSXSXSXSXZXSXSXSXSXSXSXSXSXSXSXSXSXSXSXSXSXSXSXSXSXSXSXSXSXSXSXSXSXSXSXSXSXSXSXSXFXSXSXSXZXxXIX@ ` UXhXFXSXSXSXSXFXSXSXSXSXZXSXSXSXZXZXZXSXZXZXZXZXZXSXSXFXFXSXSXSXZXSXSXZXSXZXSXSXZXSXSXSXZXZXZXSXZXcXCXZXxXk.k.SXg.$Xf.0 . * , 2 # , # * % > > * * * * = * * * & = *   7.=X7.V hXCXk.k.CXjXkXCXCXjXxXZXxXkXCXcXzXzXFXIXSXzXSXdX*XSX",
"cXcXCXcXCXcXcXcXZXCXFXxXkXk.cXkXkXk.ZXj.    . 1 1 6 O , > > * > 7 & - e.C   , h . - B gXSXcXZXZXcXcXcXcXZXcXZXZXcXZXZXcXZXcXZXZXZXZXSXZXcXSXSXcXSXZXSXcXZXCXcXcXcXcXcXcXcXcXZXcXcXZXcXcXcXcXcXcXcXcXcXcXZXcXZXcXcXcXZXcXcXcXzXzXzXzXzXzXzXzXzXzXzXzXzXzXzXcXSXSXcXzXcXcXzXxXcXcXcXcXcXcXzXcXcXzXcXcXZXcXcXZXZXcXcXZXZXcXcXcXcXcXcXZXcXcXcXZXZXcXZXcXzXcXcXcXcXcXcXcXcXSXZXcXZXcXcXcXcXcXZXcXZXZXcXcXZXcXZXZXcXcXcXcXcXcXcXZXcXcXcXcXcXcXcXcXcXcXSXZXSXZXZXZXZXcXZXZXcXcXZXZXZXZXcXcXZXcXcXcXZXZXSXZXZXZXZXZXSXZXcXSXSXZXZXSXSXSXSXSXSXZXSXSXSXSXSXSXZXZXSXSXSXSXSXSXSXSXZXZXSXZXSXcXSXZXSXZXcXcXZXZXZXZXcXSXSXSXZXcXcXcXcXcXcXcXcXcXcXcXcXVXVXVXVXVXVXDXDXDXSXmXtX].Y. XY.Y.'.U.`. X'.].tXDXFXSXSXSXFXSXSXSXSXSXSXcXSXSXSXSXSXcXSXSXSXSXSXSXSXSXSXSXSXSXFXDXyX}.oX1XAXVXVXmX6XXXXX`.XX`.XXXXoXoXXXXXXXXXXX`.XXXXOXXX3XnXbXeX3X0XrXqX5X5X5X0XoX XXX_.`._._._._.U._.U._._.`.).`.XX X X X XXX`. XXXXX XoX6XKXBXMXwX6X].].$XmXVXbX/.)._.`._._.`.`.T._._._.Y.`._._._.`._._._._._.`._._.`._._.`.oX0XJXqX3X5X5X5XoX).U._.T.T.T.T._._.B._.B.B.U._.`._.B.B.B.B.N.B.B.B.T.B._.T.T.T.T._.`.`.`.`. X_.T.N.N.T.`.OXHX5XoXHX X X X X`.'.].rXAXFXFXSXSXSXSXSXSXSXcXSXSXSXSXSXSXSXSXcXcXSXZXZXSXSXSXSXcXZXZXSXSXZXZXSXSXSXSXSXSXSXSXSXSXSXSXSXSXSXZXSXSXSXSXSXSXSXSXSXSXSXSXSXSXSXSXSXSXSXSXSXSXSXSXSXSXSXSXSXSXSXSXZXSXSXSXSXZXSXSXUXu W.bXV IXSXZXSXFXSXSXSXSXSXZXSXSXSXZXZXZXZXSXSXZXSXZXcXSXFXSXSXcXZXSXZXZXSXSXSXZXZXZXZXZXZXZXZXZXZXZXcXcXcXCXk.k.FX7.  . . * , o % * # = * % * * % % * * % * * % # & & # . . .   g.CXk.CXFXCXk.h.CXIXFXg.xXCXjXZXSXFXh.a.UXIXIXu + V ",
"cXcXcXcXZXcXZXZXIX7.` FXZXk.k.kXxXkXSXgXV Y 9.0 . 7 6 > , , , > 2 3 1 + + e L e + a.UXSXcXZXcXZXZXcXxXZXZXSXZXcXSXZXZXZXcXZXZXZXZXSXSXSXZXFXcXZXSXZXSXcXZXZXcXZXSXcXcXcXZXZXZXZXZXZXSXcXcXZXcXcXcXcXZXZXcXcXSXcXZXZXcXcXcXcXcXcXcXcXcXcXcXcXcXcXZXcXcXcXcXxXcXcXcXZXZXcXSXZXSXcXcXZXcXcXcXcXcXcXcXcXcXcXcXcXSXSXZXZXZXcXcXcXcXcXcXcXcXZXcXcXcXZXZXcXZXcXSXZXZXcXSXcXZXcXSXcXZXZXcXcXZXcXZXcXSXSXcXZXZXcXZXZXZXZXcXcXZXZXcXcXZXcXSXcXcXcXZXZXZXZXSXSXSXZXZXZXZXcXZXSXZXcXZXZXZXZXZXcXSXSXcXZXSXZXSXSXZXcXZXZXSXSXZXSXSXZXSXSXSXSXSXSXSXSXSXSXSXSXSXSXSXSXSXSXSXSXSXSXSXSXSXZXSXSXSXZXZXZXSXZXSXSXSXSXSXZXZXSXSXSXSXZXZXZXSXSXSXSXSXSXcXcXcXVXVXSXSXSXFXDXDXDXVXnXBX4XR. X X XXX).).). X X'.1XAXFXSXcXSXSXSXSXSXSXSXSXSXVXSXSXSXVXVXcXFXSXVXVXSXVXSXSXSXDXPX5XoXXX}.NXFXVXAXrXXX`.XXXXXXXXXXXXoXoXoXXXXXOXOXXXOXXXOXXX6XnXnXrXoXoX0XoX{..X5X5X5XoXXX`._.U.U.U.XXXXXX`.XX X`._.`.XXXXXXXX XXXXXXX XoXoXrXNXNXrX5X'.`.U.T./.mXxXlXbX6X'.`._.`._.`._._._.`._._.U.).U.`._.`._.`._.`._.`._.`.`.`.U.oXHXrX6X3X}.oX0X X_._._._.T._.U._.T.T.T.T.B.T._.`.T._._._.T.T.N._.T.T.T.T.T._.T._.`.XX XXXXXXX`._.T._.T. XOXHXHXHXHXXXU.`. X X`.'.'.rXKXFXSXZXZXFXSXcXSXSXZXSXZXZXcXSXZXSXZXSXZXZXZXSXSXSXSXSXSXSXSXZXSXSXSXSXSXSXSXSXSXSXSXSXSXSXSXSXSXSXSXSXSXSXSXSXSXSXSXSXSXSXSXFXSXSXSXSXSXSXSXSXSXSXSXSXSXSXSXSXSXSXSXFXSXcXFXk.AXUXu $XV V UXSXSXSXSXFXSXFXSXZXZXZXZXSXSXSXSXZXSXSXSXSXZXSXSXSXSXFXSXZXZXSXZXSXSXFXZXZXSXSXcXZXZXZXcXzXCXZXcXzXkXCXxX=Xi O 2 > % * % , = = % * % * * * * * & & * = % # * & & & * 6 # B mXIXg.V IXxXjXAXV V   g.FXk.FXnXAXPX@ Y C l , M d.",
"cXcXcXCXcXcXSXZXIXbXX B @XxXk.k.ZXpXiXAXIX8.^ +XC - = , , , 2 = 2 6 r r e 1 7 c y g.FXjXzXcXZXcXcXFXIXFXVXcXZXcXZXZXZXcXZXZXZXZXSXSXSXZXZXSXSXcXcXFXFXSXcXcXZXcXZXcXcXcXZXZXZXZXZXZXSXcXSXcXcXcXcXcXZXcXcXcXcXcXcXcXcXcXcXcXcXcXcXcXcXcXcXcXcXcXcXcXZXcXcXcXcXcXcXcXZXZXZXcXZXSXZXcXZXcXcXcXcXcXcXcXZXcXcXcXSXSXZXZXZXZXcXcXcXcXZXcXcXcXcXcXcXcXcXZXcXxXcXSXcXcXSXcXxXcXcXcXcXcXcXcXcXZXZXcXZXZXcXZXZXZXcXZXSXSXZXcXZXZXcXZXcXcXZXcXcXcXZXZXZXZXZXSXZXZXZXZXZXZXZXZXcXcXZXZXZXZXZXcXSXZXSXZXSXSXSXZXZXZXZXZXSXSXZXSXSXZXSXSXSXSXSXSXSXSXSXSXSXSXSXSXSXSXSXSXSXSXSXSXSXSXSXZXSXSXSXZXZXZXZXZXSXSXSXSXSXZXcXcXSXZXSXZXZXcXcXSXSXcXSXSXSXcXVXSXSXVXSXSXVXDXFXVXmXVXnXbX3XY. X X'.XXY.Y.'.'. X'.'.eXAXFXcXcXSXFXSXSXSXSXFXSXSXcXcXcXSXSXcXcXSXVXFXSXVXDXAXyX'.XXXX}.tXmXVXBXqXXX XXXXX`.XXXX XoX'.oXoX XXXXXOXXXXXOXXX.XwXnXbX3XXXXXXXXXoXoX5XoXoXoXXXXX X XXX'.XX`.)._.XX X).U._.`. X X XXXXX XXX XXXqXKXNXqXXX`._.`.`.T./.DXxXhXhXbX9X{.).`._._.`._.U._._.Y.P.1X/.Y.U.`.`.`._._.`.`._.`._.`._.`. X0XJX6X].{.'. X).U.U._._._.T.T.T._.B.T.T.T.B._._.T.B._.OX_.T.B.B.T.T._.T.T.T.T._.`. XXX X X XXX_.U._._.U.XXXXGXHXXXU.U._.U.`.`.`.).'.rXBXFXZXcXZXSXcXSXSXSXcXSXSXSXSXSXSXSXSXZXZXZXZXZXSXSXSXSXZXSXSXSXSXSXSXSXSXSXSXSXSXSXSXSXSXFXSXSXSXSXSXSXSXSXSXSXSXSXSXSXSXSXSXSXSXSXSXSXSXSXSXSXSXSXSXSXSXSXSXSXSXSXFXFXIX8.u 8.0 0   a.IXcXSXFXSXSXSXSXSXSXZXZXZXZXSXSXZXZXZXcXSXcXcXZXZXSXFXSXSXFXZXSXIXFXSXSXSXFXZXSXZXZXZXZXZXSXcXcXxXFXlXmX8.. & 4 * 2 # # * % % , o * * * % , % & & & & * % & # # & & * 2 2 . i V q . a.j.mX'   - u AXIXIXf.X 0 _ O         L.UX",
"cXcXZXZXcXcXcXSXIXUX4X. q ^ FXFX8.u 0 <XnXu - ' l $ * > 2 , > 1 2 , + e , Y B C IXpXkXk.cXkXcXcXIXa.^ nXFXVXSXSXZXZXZXZXZXZXZXSXZXSXSXSXSXcXSXSXSXSXj.FXZXcXZXcXZXZXcXZXZXcXZXZXZXZXcXcXcXcXcXcXcXcXcXcXSXcXSXcXcXcXZXZXcXcXcXcXcXcXcXcXcXSXcXcXcXcXcXcXSXSXFXSXSXcXSXSXSXZXSXSXSXcXSXSXSXSXSXSXSXSXSXSXSXcXZXcXSXcXSXSXcXcXcXcXZXcXcXcXcXcXcXcXZXZXcXcXSXSXcXZXSXcXxXcXcXcXZXSXcXcXcXZXZXcXcXZXZXcXSXZXSXZXSXZXZXSXZXZXcXcXcXZXSXZXZXcXZXcXcXSXZXZXSXZXZXZXZXZXZXZXZXZXZXZXZXZXZXZXZXSXSXZXSXSXSXSXZXZXSXZXSXSXZXSXSXSXSXSXSXSXSXSXSXSXSXSXSXSXSXSXSXSXSXSXSXSXSXSXSXSXSXZXZXSXSXZXZXZXZXZXSXZXSXSXSXcXZXcXZXZXSXZXSXcXcXSXSXSXSXSXSXVXVXVXSXSXSXSXSXDXDXtXeXAXmXnXyX]. XXX XXXXX). X X XXXXX'.6XNXFXSXSXcXSXFXFXSXSXSXSXSXFXFXAXeXMXNXAXtX7XbXAXPXqX'.XXXX}.MXFXmXMX3X'. XXXXX XXXoXXXXXoX'.5X5XXXoXoXoXOXoXXXoXrXBXbX9X}.XXXXXXXX0XGX5X.XXXXXXX XoXJXJXoX).U.U.U._._._._._.).XXXX XXXXXXX XXX0XqXrX6XXX XOX_._._.U.4XDXSXmXbXBXNXwX].XX`.`._.`._._.).3XPXmXnXtX].)._. X`._._.`.`.`.`._.`. X).'.5XJX6X5X{.XX`._._._._.U._._._._.T.T.T.T.T.T.T.B.B.B.T.OX_.T._._.T._._._.T.T.T._. XXX XXXXXXXXXXX_._._._.U.U.`._._._._.`.U.`.`.`.`.Y.R.wXBXSXSXSXcXSXSXSXSXSXSXSXSXSXSXSXSXSXZXcXcXSXSXSXSXSXSXSXSXSXSXSXSXSXSXSXSXSXSXSXSXSXSXFXSXSXSXSXSXSXSXSXSXSXSXSXSXSXSXSXSXSXSXSXSXSXSXSXSXSXSXSXSXSXSXSXFXSXSXFXFX&XUXUXg.u - B V mXFXSXSXFXSXSXFXSXFXSXSXSXSXSXZXZXSXSXSXSXFXFXSXSXSXIXUXIXFXSXSXFXiXVXIXSXSXZXZXZXSXSXcXCXcXcXcXCXCXmX7.i - ; 1 2 # & & & # . . * > * % * * , * * * = * % & & # * # = = = = 2 # . $ = X . X . $ O ^ ^ 0 ^ X O +   O + B e.Z dXcX",
"cXcXcXxXcXcXcXFXg.V V V 1   V 8.- | h B i 5 = . o # 2 * > , = < < $ B y 0 UXf.B IXk.kXzXzXk.ZXIX7.X y DXFXVXVXSXZXcXZXZXZXZXZXSXZXZXSXcXSXSXZXcXFXhX7.FXZXZXcXSXSXcXZXZXSXcXcXcXSXZXcXcXcXcXcXcXcXcXcXcXcXcXSXcXZXcXcXcXcXcXcXcXcXcXcXcXcXSXcXcXcXcXcXSXSXcXxXcXcXSXZXcXSXSXSXSXZXZXcXSXSXSXSXcXSXcXSXSXcXcXcXcXcXSXcXcXcXcXcXcXcXcXcXcXcXcXcXZXcXcXZXcXSXcXcXcXcXcXZXcXcXcXZXcXZXcXZXcXcXcXSXSXcXSXZXZXSXZXcXcXSXZXSXcXZXcXSXcXZXZXcXcXcXcXSXcXSXcXZXZXZXZXZXZXZXZXZXZXZXZXZXZXZXcXSXZXSXZXZXZXSXZXSXZXSXZXSXSXZXSXSXSXSXSXSXSXSXSXSXSXSXSXSXSXSXSXSXSXSXSXSXSXSXZXSXSXSXSXSXSXSXSXcXcXSXcXZXZXSXSXSXcXcXcXcXSXSXSXcXcXZXcXcXSXSXVXVXVXVXVXVXSXVXVXDXNX4X{.'.4XNXBXbX4X'.).XXY.XXoX'.Y.XX`. XXXXX'.rXBXFXSXSXcXSXSXSXSXDXNXtX3X5XoXoXoX{.'.qXKXLXoX'. X{.3XNXmXmXtX}.'.XXXXXX XoXoXXXXXoX.X}.5X5XXXXXoXOXXXoX5XyXNXBX4X3XoXoX XXX5XHXoXoX.XXXXXXXXXoXHXoXXX X`.XX_.U.U._.T._.`.`. XXXXX X XXXXXoX0XoXXXOXXX`.`.OX_.'.AXVXVXNX1X4XtXNXyX6X'.`.`._._._.U.'.tXVXsXnXBXeXI.)._.`.`.`.`._._.OX`.`.`.).Y.5XJXqX3XoX).)._.T.T._.T._.U.T.T.T.T.T._._.B._.B.B.N.T.T.T.T._.T.U._._.T.T.T.T._.`.XXXXXXXXXXoXXX`.U._.`._._.`._._.T._._._.`.)._.`.U.Y.'.wXBXDXFXSXcXcXcXSXSXSXSXSXSXSXSXZXcXZXZXcXSXSXSXSXSXSXSXSXSXSXSXSXSXSXSXSXSXSXSXSXSXSXSXSXSXSXSXSXSXSXSXSXSXFXSXSXSXSXSXSXSXSXSXSXSXSXSXSXSXSXSXSXSXSXSXSXSXFXDXu u bXUXC   f.UXZXZXSXZXSXSXSXSXFXSXSXSXSXSXSXZXSXZXZXSXSXSXSXZXxXFX@XV AXIXZXZXIX8.u nXIXFXSXSXSXSXFXFXFXFXFXcXIXf.0 X r 1 7 1 % % # & =   m h . * * % * * * * % * , % * # % & # % & & % = > = > , , * % % $ = O . .   . O 5 e O 9.UXIXIXSXkXkX",
"ZXZXZXxXZXcXcXZXlXg.Z 8.a.C B B q i : & . . & 2 2 > 2 , , > 4 1 > - yX8.` UX&X7.FXpXkXZXFXIX*XV X 7.mXFXcXSXSXSXZXZXZXZXZXZXZXZXSXSXSXSXSXFXSXZXFXgX7.IXcXZXSXSXSXSXSXSXSXcXcXZXSXSXcXcXSXcXSXSXcXcXcXcXcXSXSXSXZXcXSXcXSXZXcXcXcXcXcXcXSXSXSXSXcXcXSXFXSXcXcXcXcXcXSXcXSXZXSXSXSXSXSXcXcXcXcXcXcXSXZXcXcXcXcXcXZXZXcXZXcXSXSXcXcXZXZXZXSXZXZXcXZXZXSXcXcXxXcXcXSXcXSXcXSXcXcXSXZXZXSXcXZXZXSXSXSXZXSXZXSXZXcXcXSXSXSXZXcXZXZXZXZXcXZXcXcXcXZXZXZXZXZXZXSXZXZXZXZXZXSXZXZXZXZXZXZXZXSXSXSXSXZXZXSXSXSXSXSXSXSXSXZXSXSXSXSXSXSXSXSXSXSXSXSXSXSXSXSXSXSXSXSXSXSXSXSXSXSXSXSXSXSXSXSXSXcXZXSXZXSXcXSXZXcXZXZXcXSXcXSXSXSXSXSXcXcXxXSXSXVXVXSXVXSXSXVXSXDX9X XXXXX).3XeXnXeX6XY.`.`. XoXoXR.'. X X XXXOXXX'.rXAXFXSXSXSXDXtX3X'.XXXXXX'.).Y.5XqXJXoX).'.oX3XyXMXBXeX6XoX'.R.6X5XoXoXoXoXXX XXXoX5X5XoXXXoXXXOXoXqXNXDXBXrX1XoXXXoXXXoXoXoXXXXXoXoXXXXXXXXXoXoXXXXXXXoXXX X).U._.`. X XXXXXXXoXXXGXoXoXoXoXXXGXXX`.`.`.'.tXDXVXFXtX X).R.3XrXyXrX{.).`.`. X_.).G.4XBXnX,XnXBX4XP.)._. X`.`.`. X`.`.`.`.`.'.oXHXqX5X'.).)._._._._._._.U._._.T.T.T.T.T.T.T.T.T.T.B._._._._._.T._._._._._.U._.`.XXXXOXXXoXXXXX`._.). X_. X_._.`._._.`._.U.). X`.).U.'./.rXNXSXFXFXSXSXcXSXSXSXcXSXSXZXZXSXcXSXSXSXSXSXSXSXSXSXSXSXSXSXSXSXSXFXFXSXSXSXSXSXSXSXSXSXSXSXFXSXSXSXSXFXSXSXSXSXSXFXSXFXFXSXSXFXFXSXSXSXSXSXSXSXSXFXSXSXFXPX0 0 V - O ^ IXjXcXcXcXSXSXSXFXFXSXSXSXSXSXSXSXSXSXSXSXSXSXcXZXCXFX8.X C DXUXFXFXDXV @ 7.NXAX-XIX8.V 8.V 7.a.V B - 5 6 9 4 5 4 3 & 4 & ;   C B   > * * % % , * , % % * = * & & * & & * = * * = = * , * > & = $ ; - ; - - . - + 1 X 8.IXk.kXcXkX",
"ZXcXcXcXcXcXZXZXSXIXUXFXUX>Xl X 0 V V - i e.q o = & % * > > & 1 1 - 7.W.eXAXAXmXAXDXUX8.7.e.X @ V UXFXVXcXcXSXcXZXZXSXSXZXZXZXSXZXSXSXSXFXSXSXZXFX-XZ IXzXcXSXcXSXSXSXSXcXcXZXZXSXSXcXcXcXcXcXcXSXcXcXcXcXcXcXcXZXcXcXcXcXcXcXcXcXZXcXcXSXSXSXcXZXcXcXSXSXSXSXSXcXcXcXcXcXcXcXSXZXSXcXcXcXcXcXcXcXcXcXcXcXcXcXcXcXcXSXcXcXSXcXcXZXcXZXZXcXcXcXcXcXcXcXZXcXcXSXcXcXcXzXcXcXcXZXcXZXZXZXZXcXcXZXSXZXcXZXZXcXcXZXZXcXZXSXSXZXcXSXZXZXcXZXcXcXcXZXZXZXZXSXZXZXZXZXZXSXZXZXZXZXZXZXZXZXZXSXSXSXSXZXSXSXSXSXSXSXZXSXSXZXSXSXSXSXSXSXSXSXSXSXSXSXSXSXSXSXSXSXSXSXSXSXSXSXSXSXSXSXZXSXSXSXZXSXcXSXSXSXcXcXcXSXSXcXcXcXSXSXcXSXcXcXcXSXVXxXmXVXVXVXFXDXgXVXVXBX3XXXOX X X XE.wXeXeX4XY.)._.'.oXoXR.Y.XX X`. XXX`. X'.tXPXPXtX3X'. X XXX'.'.'.qXqXJX5X'.).'.1XtXeXNXtX9X3X5XXX'.yXyXP.5XoXXXoX'.XXoX{.5XoXoX XoXXXoXqXBXmXDXtX{.oXoXXXoXoXXXXXXXXXXXXXXXXX XXXXXXXoXXXXXXXXXXXoX X`.`.XXXXXXXXXXXXoXoXoXoXOXXXXXoXXX`.XX`.U.6XDXVXVXDX9XY.XX X XR.6XyXtX3X'.Y.)._._.U.U./.rXNXbX,XnXbX4XP.`._. X`._._.`._.`.`._.U.XX5X5XoX).U._.T._._._.U._._._.T.T.T._.T.T.B.T._.B.B._._.U._._.T.T.T._._._._._.U._.XXXXXXXXXXoXXX XU._.`._.`._._._._._.U._._._.`.).).U.).).R.6XeXBXFXSXSXSXcXcXcXSXcXSXcXcXSXSXSXcXSXSXSXSXSXSXSXSXSXFXSXSXSXSXFXSXSXSXSXSXSXSXSXSXSXSXFXSXZXSXSXSXFXSXSXSXSXSXSXFXSXSXSXSXSXSXSXSXSXSXSXSXSXSXSXSXcXUXf.0 0 - O y nXSXIXUXIXFXSXSXFXFXSXSXZXSXSXSXZXZXSXSXZXSXSXSXZXZXZXIXW.0 @ 7.f.gXUXf.  q B y @ ^ C   1   . $ . $ + 9 7 4 . . , * $ = - X   ^ B   > & % * % = * * % % * * * > & & & & & = & * * = > * = = = = O - - X X X u ' X .   u IXxXkXcXzX",
"ZXZXcXZXZXcXSXZXcXxXIXZ   X X V a.UXUXu 9.qX- # . . $ & > = = < 1 > O 0 C y eXPXi ^ e.- + - V g.j.jXZXcXSXcXcXZXSXZXSXSXSXZXSXZXSXSXSXFXFXSXSXZXIX-XV IXcXZXSXSXSXcXcXSXSXcXZXZXSXSXcXcXcXcXSXSXSXcXSXSXSXcXcXSXSXcXZXcXcXcXSXcXcXcXcXSXcXcXcXcXcXcXSXcXSXcXSXSXZXcXcXcXcXcXcXSXSXSXSXSXSXSXSXcXSXcXcXcXcXcXcXcXSXcXZXcXSXSXSXSXZXZXZXcXcXcXcXZXZXcXZXSXSXZXSXcXZXzXcXcXcXZXZXZXSXZXZXcXcXcXZXcXZXZXSXZXZXZXSXZXZXcXSXZXZXZXSXSXZXcXZXcXZXcXZXcXSXSXSXZXZXZXZXSXSXZXSXSXSXZXZXZXSXZXZXSXSXSXSXSXSXSXSXSXSXSXSXSXSXSXSXSXSXSXSXSXSXSXSXSXSXSXSXSXSXSXSXSXSXSXSXSXSXSXSXSXSXSXSXSXSXSXZXZXSXSXSXcXcXcXSXSXSXSXcXSXSXSXcXcXcXSXFXSXVXmXFXFXDXDXeX,XFXDXtX{.oX XXXXXXXXX5XwXeXtXqXY.`.).oX0X{.). X XXX`.`. X`.`.'.}.0XoX X XXX).)..XqXJXrXqX].`.XX'.6XMXBXeX4X3X5X5X0X'.qXPX3XoXoXoXXX X XXXoXoXoXoXoXXXXXoXqXAXDXVXNX5XXXoXoXXXoXXXXXXXXXXXXXXXXXXXXXXXXXXXoXXXXXXXXXXXoXXXXXXXXXXXXXXXXXXXoXXXXXXXXXXX6XJXoXOXOX`.5XPXDXVXDXBXrXOXXXXXXXXXXX].rXyXqX{.'.U.).)._.U.Y.}.rXeX,X,XnXtX1XY.`.`.`._.`.`. X`._._._.).5X0XoX)._._.`._._._.`._._.T.T.T._._.`._._._.T.T._.T._.T._.T.T.T.T.T._._._._._._.XXXXoXXXoXXXXX X`._._._._._.`._.U.).`._.`._.U.U.`.`.`.Y.Y.G.].2XMXDXSXcXSXSXSXcXcXSXSXSXSXSXSXSXFXSXSXSXSXSXFXSXFXSXSXSXSXSXSXSXSXSXFXFXSXSXSXSXSXSXSXSXFXSXFXSXSXSXFXSXSXSXSXSXFXSXSXSXFXFXFXSXSXSXFXFXSXFXFXSXIX7.0 W.d.+ l IXIXg.7.7.gXFXSXSXFXSXSXZXSXSXSXZXSXSXSXSXSXSXFXSXFXSXSXIXUXl       B a.l Y B % O   q 9 , 7 , 2 1 p 1 7 e X B ^ . < ; $ - e.e.{.l o = * % * = * * % * * * * .   # & = = & = = * = & > > > & ; = ; 1 X 0 +XAXk.IX-X8.8.aXSXcXcXcXzX",
"cXcXZXcXcXZXcXSXZXCXFX8.V f.j.IX8.V d.y i - O = X ^ ^ o % * & % = > , , w   C 7.O 1 - 5 y y FXFXxXzXSXcXSXcXcXSXSXSXSXZXSXSXSXZXZXcXZXcXSXcXSXSXSXg.u SXZXZXcXSXcXcXZXcXSXZXcXSXSXcXcXcXcXcXcXcXcXcXcXcXcXcXcXcXcXSXSXcXcXcXcXcXcXcXcXcXcXcXSXcXSXSXcXcXcXcXSXcXcXcXcXcXcXcXcXcXSXSXSXSXSXSXSXcXcXcXcXcXcXcXcXcXcXSXcXcXSXSXcXcXSXSXcXcXZXZXZXcXcXZXcXcXcXcXcXcXcXcXcXcXcXcXcXZXSXcXcXcXZXZXSXZXSXcXcXcXZXSXZXZXZXZXcXcXZXZXSXSXZXcXSXcXcXSXcXZXZXSXcXcXSXSXZXZXSXSXSXSXSXZXSXZXSXSXcXZXSXZXSXSXSXSXSXSXSXZXSXcXcXSXSXSXZXSXSXSXSXSXSXZXSXSXSXSXSXSXSXSXSXSXSXSXSXSXSXZXSXZXSXSXSXSXZXSXSXSXSXcXcXZXcXSXSXSXSXSXSXcXxXVXFXFXSXFXVXVXDXSXFXNX+XnXVXDX4X XXXXXXX XXXXX'.3XtXtXtX3X'.).'.5XoXXX X X X X X`. XXX X`. X X X`. X'. XXXoX5X{.'.XXXX'.9XNXeX4X3XoXoX0XXX'.5XrX3XoXoXXX XXX XXX XXXoXoX'.oXXX.XrXAXmXmXDX4X'.XXXXXXXXXX X XXXXXXXXXXXXXXXXXXXXXXXXXXXoXXXXXXXXXXXXXXXXXXXXXXXXXXX XXXoXXXoXyXDXPX5X`._..XPXDXVXVXDXyX3XoX X`. X XXX).{.rX4X6X0X'.).U.).)._.U.Y.}.qX4XeXeXMXtX].Y.`.`.`.`.`._.`._.T.T. XoX5XoX).U.`._._._.`._.U.T._.T.T._._._._.T._.T.T.T._.T.U._._.T.T._.T.T._._._._._.`.XXXXXXoXXXXXXX`._.U._._._.U._.).).`.`.U.`.).).Y.`.).U.).).F.'.3X#X>XmXFXFXSXSXcXcXFXSXcXcXSXSXFXFXFXFXSXFXFXSXSXSXSXSXSXSXSXSXSXSXFXSXSXSXSXSXSXSXSXSXSXSXSXSXSXSXSXSXSXSXFXSXSXSXSXSXFXFXFXFXSXSXFXFXFXSXcXUX8.  V ' t ' <X7.PX0 . vXFXSXFXFXFXSXZXSXSXSXSXSXZXSXZXSXSXSXFXSXSXcXFXg.y a.7.V @ y q l l - 9 + 6 f $ ; O > 2 O = r O 0 UX^.  6 5   0 PX/.- . , % % % * * % % * # * % . l l & = # = * & & = $ . $ , = . . - - 5 X @ UXIXpXk.SXIXIXFXcXcXcXzXzX",
"cXZXZXcXZXSXZXZXZXZXCXFXFXSXxXSXB   -     O > . y e.0 . , , * = > > > e r , = 1 r g - 8.8.0 g.IXCXcXcXSXcXcXSXZXZXSXSXSXSXZXSXZXZXcXSXSXSXSXSXFXFXf.u VXZXZXcXSXZXSXSXcXSXcXZXZXSXSXcXcXcXcXSXcXcXcXcXcXcXcXcXcXcXcXSXcXcXcXcXcXcXcXcXcXSXSXcXSXcXSXcXcXcXcXcXcXSXSXcXSXcXcXZXcXSXSXSXcXcXcXSXcXSXcXSXcXcXcXSXcXSXSXSXcXcXSXSXcXSXSXcXcXSXSXZXZXSXSXcXcXcXcXSXcXcXcXZXcXcXcXZXcXcXcXcXcXZXZXSXSXSXSXZXcXZXZXZXZXZXZXcXcXSXcXSXSXZXZXSXZXSXSXSXZXZXcXZXcXSXSXZXZXSXSXSXZXSXSXSXZXSXSXZXZXSXSXSXSXSXSXSXZXSXSXSXZXcXSXSXSXZXSXSXSXSXSXSXSXSXSXSXSXSXSXSXSXSXSXSXSXSXSXSXSXSXZXZXSXSXZXSXZXSXSXSXSXZXZXSXcXSXFXSXcXcXcXcXSXFXDXFXFXSXDXFXFXBX#X8XDXDXtX{.XXXXXXXXXXXXXXXX).3XwXtXyX5X'. XY.oXXXXX X X X X XXX X X XXX XXX X X XXX'.'.'.'.XXXX'.qXyX9X3X5XoXoXXXoXXX.X0X5XXXOXoXXXXXXXXXXX XXXoXoX{..X3XNXDXDXBXNX7XoXXXXXXXXXoXXXXX XXXXXXXXXXXXXXXXXXXXXoXXXoXXXoXXXXXXXXXXXXXXXXXXXXXXXXXXXXXOXoXtXDXFXFXKX{.oXKXDXVXDXVXDXyXoX XY. XoX'.XXXX'.'.qX(.1XqX5XR.).`.`._._.U.Y..XqX9XeXNXNX9X].). X X`.`.`._.`.).`.'.oXHXoX)._._.`._._.U._.U._.T.T.T.T.T.T._._.U._._.T._._._._._._._._._.`._._.U.U._.`. XOXXXXXXXXXXX X)._._._._._._._._.).U.`.).`.).).). X).).Y.).U.).G.].2XeXmXFXSXSXSXcXcXSXFXSXSXFXSXSXSXSXSXSXSXSXSXSXSXSXSXSXSXSXSXFXSXSXSXSXSXFXSXSXSXSXSXSXSXSXSXSXSXFXSXFXSXSXSXFXSXFXFXSXSXSXSXFXFXFXSXFXgX8.X     B f.  l B d.IXFXFXFXFXSXSXSXSXZXSXSXSXSXZXSXSXSXSXSXSXSXSXFXg.f.UXUXUX9.O . ; 1 1 $ > , $ X X - 5 = - q - X #XUXB   <   0 +XJXl . * = % % * * % % % * % * *   7.O.- 4 & & * > = $ - d.B O . e.7.  - 5 5 X 0 u IXFXlXxXxXcXcXcXcXzXzX",
"ZXcXcXZXZXcXZXcXZXZXZXcXjXk.k.xXB - q C 7.i O B 8.g.B # > # * = % . o , , e 7 f F & C IXAXIX7.0 7.FXcXcXSXcXSXZXZXcXSXSXZXZXZXZXZXSXZXSXSXZXFXj.AXa.- mXFXSXcXcXSXcXSXSXcXcXZXcXSXSXcXcXcXcXSXcXcXcXcXcXcXcXcXcXcXcXSXcXcXcXcXcXcXcXcXcXcXcXcXcXcXcXcXcXcXcXcXcXSXcXSXcXcXcXcXcXSXSXcXcXcXcXcXcXcXSXSXZXcXSXcXcXcXSXcXcXSXcXcXcXSXSXcXZXSXcXZXZXZXcXcXcXZXZXcXcXZXcXcXcXcXcXcXcXZXcXcXcXZXcXcXSXSXZXZXcXcXZXcXZXZXcXZXcXcXSXSXZXZXSXZXSXZXZXZXZXZXcXcXSXcXSXSXZXSXSXSXZXSXSXSXSXSXSXZXSXSXSXSXSXSXSXSXSXSXSXSXSXSXSXSXSXSXSXSXSXSXZXSXSXSXSXSXSXSXSXSXSXSXcXSXSXSXZXSXSXSXSXSXZXSXSXZXZXcXcXZXZXSXSXSXcXSXcXSXcXcXcXSXVXVXVXSXxXVXDXIXyX(.7XVXVXBX3X XXXXX XXXXX X X`.).'.rXeXeXwX5X'. X X`. XXXXX X X X X`. XXXXX X X X X'.).XXXX XXXXXY.5XJX}.'.XX0XoX.X'.XXoXHXoXXXXXXXXXXXXXXX XXX{.'.{.5X6XtXBXDXBXMXwXtX6X XXXXX XXXXXXX XoXXXXXXXXXoXXXXXXXXXXXXXXXXXXXXXXXXXXXXXoXXXXXXXXXXXXXXXXXXX X5XAXDXVXFXBX1XtXDXVXVXDXVXBXwXqX5XoXR.XXoX'. X).Y.5X6X/.3XqXqX'.U._._._.Y._._.Y.oXJXwXeXPXNX1X'.). X X`._._._.).). XXXoX`.U._._._.U.U._.T.U.U.U.T.T.T._.U.T._._._._.T.T._.T._._.U._._._._.).`.`.U._._.`. X XXXXXXXXX X).U._._._.U.U._._.U.U._.U.`. XU.).).U.).`.).).U._.U.)./.4XMXDXSXSXcXSXcXSXFXSXcXSXSXSXSXSXSXSXSXSXSXSXSXSXSXSXSXSXSXSXSXSXSXSXSXSXSXSXSXSXSXSXSXSXSXSXFXSXFXFXSXSXSXSXSXSXSXFXSXSXFXSXFXcXCXIX8.X 7   e.$X^ IXUXFXFXFXFXFXSXSXSXSXZXSXSXSXZXZXZXZXZXSXSXSXSXZXSXFXIXxXV B . - Y - < I O 7 %   d.yXPXB   ~ t.  ^ PXV X - X V <XIXC . * % * % % % % % * % % * * %   9.V   4 ; = * = * & - eXa.  - PX<X@ - X . . +   e.IXVXVXcXcXcXZXzXcXkX",
"ZXcXZXZXZXcXZXZXZXSXZXzXpXhXpXAXV 0 d.AXIX7.B ,XuX*XV o , > = = ; l l & e 6 1 7 N 1 B +X0 ^ V V -XSXSXSXSXcXSXSXZXSXZXZXSXZXZXZXSXSXSXSXSXZXIXV yX9.. NXgXgXFXcXSXcXSXSXcXcXcXZXSXSXSXcXcXcXcXcXcXcXcXcXcXcXcXcXcXcXcXcXcXcXcXcXcXcXcXSXcXcXcXcXSXcXcXcXcXcXSXcXSXSXcXcXSXcXSXSXZXSXcXZXSXcXcXcXSXcXcXcXcXcXcXcXSXSXcXcXSXcXSXcXSXZXcXSXSXcXZXcXSXcXcXZXSXSXcXcXcXZXcXcXcXcXcXZXZXcXZXcXcXcXSXcXSXZXcXZXZXcXSXSXZXSXZXcXZXcXSXSXcXcXSXSXSXZXZXSXZXZXSXZXSXSXSXSXSXZXZXZXSXZXSXSXSXSXcXSXSXSXSXSXSXSXSXZXZXSXSXSXSXSXSXSXSXSXSXSXSXSXSXSXSXSXSXSXSXSXSXSXSXSXSXSXSXSXSXSXSXSXSXSXSXSXSXZXZXcXZXSXSXSXSXSXcXcXSXcXSXSXFXDXnXDXFXVXFXAXrXR.].BXFXVX1XXXXXXXoXXXXXXXXX X`.`.XXqXtXeXtXrX5X'.'. XXX XXX XXX X XXXXX X XXX XXXXX'. XXXXXXXXX'.oX0X{.'.XX XoX5XqX0XHXoX0XXX XXXXXXXXXXXXXoXXX{.}.3XtXAXDXAXNXrX5XoXrXqXXXXXXXXXXX XXXXXXXXXXXXXXXXXXXXXoXXXXXXXXXoXXXXXXXXXXXXXXXXXoXXXoXXXXXXXXXXXXXrXDXFXVXFXDXeXBXDXDXVXDXVXBXtXyXrX0X'..X'. X X X).'.qX5XY.5XrX6XR.U.`.`._.`._._.).{.JXyX7XtXyXrX].'. XXX_._._.).).).U. X X_._._._._._.`._._._.U._._.T._._._._._._.`.T._._._._._._._._._._.).HXJXoX`.U.T._._.`.XX XXXXXXX)._.U._._.U._.).`._.).`. X X`.).).`.`.).U.U.).).U.).).`.'.3XrXBXVXSXSXSXcXSXSXSXSXSXSXSXSXSXSXSXSXSXSXSXSXSXSXSXSXSXSXSXSXSXZXSXSXSXSXSXSXSXFXSXSXFXSXFXSXFXSXSXSXFXSXFXSXFXFXSXSXFXFXFXdXk.j.0 < 1   y 9.B Q.IXSXFXSXSXFXSXSXSXSXSXSXSXSXZXZXZXSXSXSXSXSXFXFXcXZXIXV C y @XIXe.q U   O   9.IXIXIXX . t C u bXa.X V %X>XmXIXe.. % * % # % * % * % * * & * * * . ^ JXC $ < o . = = 2 . B ;X0 7.mXgXAXAXf.7.V V V f.g.iXFXcXcXcXSXcXcXzX",
"ZXcXZXcXZXcXZXZXSXcXcXxXhXiXk.hX&X;XBXj.-X&X&XnXj.g.0 # % * & % ; l ^ @ $ . t . = O   ^ B 8.AXFXSXcXcXSXcXSXSXcXSXSXZXZXSXZXZXZXZXZXSXSXcXZXFXB 0XO.. PXu 8.IXcXcXSXZXcXcXcXcXcXSXSXcXcXcXcXcXSXSXcXcXcXcXcXcXcXcXSXSXcXcXcXcXcXcXcXSXcXcXcXcXcXcXcXcXcXSXcXcXcXSXcXcXcXcXcXSXSXcXcXSXcXcXcXcXcXSXcXcXcXcXcXcXcXSXSXcXcXcXSXcXSXSXcXZXZXSXZXcXcXcXcXcXcXcXSXcXcXZXZXcXcXcXcXcXcXcXZXcXcXSXSXcXcXcXcXSXcXZXcXZXcXSXSXSXcXcXcXSXcXcXcXSXcXZXcXZXZXSXSXSXcXSXSXSXSXZXZXSXZXZXSXZXSXSXSXSXZXSXSXSXSXSXSXSXcXSXSXSXSXZXSXZXSXSXSXSXSXSXSXSXZXSXSXSXSXSXSXSXZXSXSXSXSXSXSXSXSXSXSXSXSXSXSXSXcXcXcXcXSXSXSXSXcXcXSXcXcXFXDXNXnXDXVXDXDXAXrXXXY.}.DXDX1XR..X.X'.{.oXoX'.XX XXX`.).{.rXrXtXtXyX6X{.'. XXXXX X XXXXXXXXX X XXXXX XXX'.'. XXXXX'.'.qX3X'.'.XX X'.qXPXPX5XXX XXXoX XXX XXX XXXoX.X'.6XNXAXmXAXyX5X XOXXX5X4X5XXXXXXXXXXXXXXXXXoXoXXXXXXXXXXXXXXXXXXXXXXXXXXXoXXXXXXXXXXXXXoXXXXXXX`. X`.XXyXVXVXDXVXmXBXAXVXVXVXVXmXBXNX6X]..XXXXX'.XX).XX'.Y.oX.XU.).oXrX5X'.U.`.`.U.`.`.U.`.XX5X6XqX1X4XyX7XR. X).).U._.U.).).).U._._.).)._._.U.`.`.U._.U._.T.U._._.U._._._._._.Y._._._._.U._._.T.U.oXHXGX X_._.T._.U.`.XXXXXXXXXX`.U.U.U._.U._.U.`.U.`.).). X`.U.U.).`.).).Y.U.U.).`._.`.`.'.{.1XeXDXSXSXSXSXSXFXSXSXSXSXSXSXSXSXSXSXSXSXSXSXSXSXSXSXSXSXSXSXSXSXSXSXSXSXSXSXSXSXSXSXSXSXSXSXFXSXSXFXSXSXSXSXFXSXFXFXSXFXFXbXC > 1 0 0 0 0 !.IXSXSXFXFXSXSXZXSXSXSXZXSXZXZXZXSXSXZXZXSXSXFXSXSXZXFXUXIXVXFXk.AXu C B ' a.IXpXIXf.  q   7.FXpXCXgX<XgXj.DXf.- o % * * % % & % % % % * * # * * # . C Y . - l l $ & = 1 . V f.NXSXpXxXxXcXIXUXIXIXUXsXlXSXcXcXcXcXcXzXcX",
"SXSXZXcXZXZXcXSXSXcXcXzXxXsXpXk.iXgXaXuXiX-XaXuXhXaX0 # > % & = o   7.;X7.^ =XV i C V <XFXFXcXxXcXcXZXSXSXcXcXSXSXSXSXSXSXSXSXZXZXZXSXZXSXCXIX^ l t 1 P.B nXFXcXZXZXZXZXSXcXZXcXSXSXcXcXcXcXSXcXcXcXcXSXcXcXcXcXcXcXSXcXcXcXcXcXSXSXSXcXSXcXcXcXSXSXcXcXSXcXSXcXcXcXSXcXcXZXcXZXZXSXSXSXcXcXSXcXSXSXcXZXcXSXSXcXSXSXSXcXcXSXcXcXZXZXSXcXSXZXcXcXcXSXZXcXZXcXcXZXcXcXSXcXcXcXcXcXZXSXZXcXSXSXcXcXSXZXSXSXcXZXSXcXSXSXSXSXSXcXSXSXcXSXSXcXZXcXZXZXSXSXSXSXZXZXSXSXZXSXSXSXSXSXSXZXSXSXSXSXSXSXSXSXSXcXSXSXFXSXSXZXZXZXSXSXSXSXSXSXSXSXSXZXSXSXSXSXSXSXSXSXSXSXSXSXSXSXSXSXSXSXSXZXSXSXSXZXcXZXSXcXSXSXSXcXSXZXSXSXDXNX8XDXFXVXDXPX6X'.OXXXoXJX1X'.oX.XoX{.}.rX5X.XXXXXXX X X X'.3XtXyXNXyXrX{.'.XXXX XXX XoXXX X XXX XXXXX'.'.XXXXXXXXoX0XqX}.oXXXXX.X5XJXJX3X'.XXXXXXXXXXOXXXXXXXoXoX5X6XNXDXmXDXtXoXXXXXOXXX].wXJX5XXXXXXXXXXXXXoXXXXXXXXXoXoXXXXXXXXXXXXXoXXXoXXXXXoXXXXXXXoX.XoXXX X XXX`.5XPXDXVXFXDXBXBXDXDXDXDXVXBXDXBX6XR.`.XXoXXXXXXXXXXXXX'.)._. XY.3XJX5X X X`. X_._.`.XX). X'.0X0X3X(.yXqXR. X X`.`.)._.).).)._.)._._.`.).`.`.`.).`._._._._.U._._._._._._._.U.).U._.`._._._._.U.U.).).`.OXOX_.T.U._._.`. XoXXXoXXX_.U.U._.`.U.).).Y.`.XX X X`.`.U.). XXX'.XX'.).Y.).`.XX`.XX`.'.(.wXmXFXSXSXSXSXSXSXSXSXSXSXSXSXSXSXSXSXSXSXSXFXSXFXFXSXSXSXSXSXSXSXSXSXSXSXSXSXSXSXSXSXSXFXSXFXSXSXSXSXFXFXFXFXFXSXIX` y l 1 y f.V V IXFXcXSXSXFXFXSXSXZXSXZXSXZXSXcXSXSXSXcXZXZXSXSXSXSXFXSXSXSXSXSXSXcXSX-XAXIXIXFXcXxXIXC   + ^ AXZXk.dXjXj.g.AX+X0 o * # o % * % * & & % * * # * & = & # . . . q PX#XX & 4 f . C PXB 8.FXxXpXxXhXxXxXcXxXFXSXcXcXSXcXcXzXzXcX",
"FXmXSXxXFXIXFXzXcXcXcXjXhXpXk.pXuX*XuXgXgXg.uX!.uXvX0 o , % & = $ B eXmXxXxXSXFXFXFXFXSXxXxXxXcXcXcXZXcXVXcXSXVXSXSXSXSXcXcXZXZXZXZXZXSXSXxXjX7.t D = t y SXzXzXcXcXSXcXcXSXcXZXcXcXcXcXcXcXcXcXcXcXcXSXSXSXcXcXcXcXcXcXSXcXcXcXcXcXSXSXSXcXcXcXcXcXcXcXcXcXSXcXcXcXcXcXcXcXcXcXcXZXSXSXcXcXcXSXSXSXSXcXcXcXSXSXSXcXcXcXSXcXcXcXcXcXSXSXSXcXcXcXZXcXZXcXcXcXcXcXcXcXcXcXcXcXZXcXcXZXcXZXSXSXcXcXcXSXSXZXSXcXZXZXcXSXSXSXcXcXSXSXcXSXcXcXcXcXZXZXSXSXSXcXZXcXSXSXSXcXSXSXSXSXZXZXSXSXSXSXSXZXSXZXZXcXSXFXSXSXSXSXSXSXZXSXSXSXSXSXSXZXSXSXSXSXSXZXSXSXSXZXSXSXSXSXSXSXSXZXSXZXSXZXSXZXZXZXSXcXcXSXSXcXSXcXcXxXSXDXwX6XNXVXDXDXKX3X'.XXXX.XoXoX X.XoX.X.X{.qX6X3XoXXXXX X X X`.`.).5XJXyXtXyXrX5X'.XXXX X X X XXX).XXXXXXXX'.'.XX.X'.'.oX5X{.oXoXoX5X6XJX5X{.XXXXXXoXXXoX.XXXXXXXXXoX{.6XtXAXmXmXBX3XXXOXXX X X3XMXyX5XXXXXXXXXXXXXoXXXXXXXXXXXXXXXoXXXXXXXXXXXoXoXoXXXXXXXXXoXXXXXoX X X`.`.U.6XPXDXVXDXVXDXmXVXDXDXVXVXVXmXBXtX'. XXXXX'.XX X XXXXX X`.).).U.Y.'.XXXX X`. X`.`.).`. X X).Y.oXHXR.{.3X3X'.XXXX X X`.`. X`.`.U.)._.)._.`.`.U.U.Y.U._.Y.U.U.Y._._.Y.U.U.Y.OXoX'. XU.).U.T._.T.T.T.B._.XXOXXX_._._.U.U.U.).XXoXXX XU.U.).`. X`.). X XXXY.).).`.U.U.U.'.oX5XoX'.).).).)._.`. X`._.Y.I.eXDXSXSXSXSXSXSXSXSXSXSXSXSXFXSXSXSXSXFXSXSXFXSXFXSXSXSXFXSXSXSXSXSXSXSXSXSXSXSXSXSXSXSXFXSXSXSXSXFXIXIXFXVXFX<XX @ h 1 - mXk.Z VXSXcXSXSXSXSXSXZXZXZXZXZXZXZXZXZXZXZXZXSXZXZXSXZXSXFXSXFXSXSXSXSXZXZXSXSXxXcXZXxXSXmX0 ^ f.FXpXk.dXpXpX*X<XyXq O * % = h o & * % * * & % % * % & # % # % % # . 7.PXl   4 7 - l Y O 1 ,XxXdXSXlXxXcXSXxXcXcXxXcXZXzXzXkXkXkX",
"a.7.UXSXFX7.aXFXzXcXzXxXFXhXj.j.aXmXAX*Xj.nXVXmXDXNX0 # , = = = . O.IXh.iXiXpXpXjXkXkXkXxXxXxXcXcXcXcXcXSXVXSXSXSXcXZXcXcXZXZXZXSXZXZXZXSXZXZXV l p.t ^ 7.h.SXZXcXcXSXSXcXSXSXZXcXcXcXcXSXcXcXcXcXcXSXcXSXSXcXcXcXcXSXcXZXcXcXcXcXcXcXSXSXSXcXSXSXcXSXcXSXcXZXcXcXcXSXSXSXcXcXcXSXcXSXSXcXcXSXSXSXcXSXcXSXSXSXSXSXSXcXcXSXSXSXZXSXcXZXSXSXZXZXSXSXZXZXZXZXZXcXcXSXZXcXcXcXcXSXcXZXcXcXcXSXSXcXSXSXcXSXSXSXZXSXSXSXcXcXcXcXcXSXcXSXcXSXSXZXcXZXSXSXZXZXSXSXSXSXSXSXZXSXSXSXSXcXZXSXSXSXSXSXZXSXSXSXSXSXSXSXSXSXSXFXSXSXSXSXZXZXcXZXSXSXSXSXSXSXSXSXSXZXSXSXSXSXZXSXSXSXSXSXSXSXSXSXSXZXSXSXcXcXcXSXcXSXcXcXVXDX7X1XtXFXDXDXtX].Y.XXR.oX5XoX.XoX.X5XoX{.}.qX5X].oXXXXX X X X X X`.oX0XJXyXtXtXrX5X.X X XXX X XXX X XXX XXXXX'.oXoXoX'. XXXXXXXoXoXHXqX}..XXXXXoXXXXXoX0XoXXXoXoXoXoX5XqXrXNXAXAXyX5XXXOXXXXXoXwXBXtX.XXXXXoXXXXXXXoXGXoXXXXXXXXXXXXXXXXXXXoXXXoXoXoXXXXXoXoXXX.X5XoX XOX`.XX'.9XMXmXDXFXVXDXBXVXVXBXBXBXBXmXVXNX6X'.XXXX X X X XXXXXXXXX X X).`.Y.).`.XXXX X). X XXXXXoX XXX).oXHX'.'.HXoXXXXX X`.`.`.`.XX X`.).).`._.`.U._.`._.U.U.U.`.Y._.).).U.U.U.U.U.OXHXGX).).U._.T._._._.T._.T.OX_.T._.`.`.`.T._.U.). XXXXX).U.).).`.`. XU.U.Y.).`.XX`.).Y.).Y.'.oXoX}.oX'.'. X`.U.)._._.`.'.$XbXSXFXSXSXSXFXSXSXSXFXSXFXSXSXSXFXSXFXSXSXFXSXSXSXSXSXSXSXSXSXSXFXFXFXSXSXSXSXSXSXSXFXSXZXSXSXIXg.nXIXFXIXj.7.^ - f - V a.xXSXVXcXSXSXcXSXZXSXZXZXZXSXcXSXZXZXcXZXSXSXZXZXZXSXSXSXSXFXSXSXSXSXZXZXZXZXcXSXZXcXZXlX-XIXSXk.k.jXk.k.lXIX9.q & > , o U ^   * & * % * * % % = & = & & $ & % = &   ^ d.0 0 - -   . l - 7.IXjXcXcXSXxXxXSXSXxXcXcXZXzXzXcXzXkX",
"bX7.7.FXIXu B IXSXjXZXgX^ +XgXAXf.^ L.8.<Xa.#Xa.9.B . = , & = = O B g.hXuXk.dXhXjXjXjXzXxXcXcXcXcXcXcXcXcXxXcXcXZXcXcXcXSXSXcXSXZXZXSXcXcXzXcXgXB t 1 f.IXgXIXIXcXcXcXcXSXcXcXcXcXcXcXcXcXcXcXcXcXcXcXcXSXcXcXcXcXcXcXcXcXcXcXcXcXcXcXcXSXcXSXSXSXcXSXcXSXZXcXcXcXcXcXcXcXZXSXcXcXcXcXcXSXcXSXcXcXSXSXSXSXcXcXcXcXcXSXcXcXcXZXSXSXSXSXcXZXZXSXcXcXZXZXcXZXcXcXcXcXSXcXcXcXcXZXZXSXcXcXcXcXcXSXcXcXZXSXSXSXSXZXcXcXcXcXcXcXcXcXSXcXcXSXSXZXcXSXZXZXcXZXcXSXSXSXZXSXcXcXZXSXZXSXcXSXSXZXZXSXSXSXSXSXSXSXSXSXSXZXSXSXSXSXSXSXSXZXcXSXSXSXSXSXSXSXSXSXZXZXZXSXSXSXcXcXSXcXSXSXcXSXSXSXZXZXcXcXcXZXcXSXmXnXbXVXSXDXbXeXBXSXDX6XY. XY.R.}.5X.XoXoXoXoXoX}.{.oX5X}.{..XXX X X X X XXX X'.'.qXyXtX9XwXrX6X'.'. XXX X XXX X XXXXXXXoXXXXXXXXXXX XXX'.'.{.oXoXXXXXXXXXXXXXXXoX.XoXoX.X.XXX0X5X0X3XqXqXqX}.oXoX X XXX}.NXMX6XXXXXXXXXXXXXXXXXGXOX XXXXXXXXXXXXXXXXXXXXXXXXXXXXXXXXXXXXX3XPXrX'. XXX].qXtX8XVXVXDXDXmXBXVXnXBXnXBXBXmXnXnXwX3X'.XX X X X X X XXXXX X XXXXX X`.U. X X X X X XXXXX X X X`.Y.oXHX5X.XXX X X`.`.`.`.). X X`.).)._.`.`.U.U.).).U.).U.U._.U.U.U.U.`._.U.U.U.'.HXoXU.U.U.T._.T._.T.T._._.T.T.B._.OXXX X).U.U.U.U.`.`._.).U.U.).`.`.`.`. X`.`.`.`.`.`.U.).)..X5X5X5X5X{..X'.).U.U.`.`.).{.4XBXFXFXSXSXSXSXSXSXSXSXSXSXSXSXSXSXSXFXSXSXSXSXSXSXSXSXSXSXSXSXSXSXSXSXSXSXSXSXSXSXSXZXZXcXIXV a.UXDXIXIXUXf.- w t   @ gXcXxXSXcXcXZXcXSXZXcXZXcXZXZXZXZXcXZXSXZXZXZXZXZXSXSXSXcXSXZXSXZXSXZXZXcXZXZXZXzXcXzXzXFXzXjXk.k.kXjXhXIXd.$ , 3 , ,   ^ B   > # % & * # % # # * & = ; .   . & = =   i e.PXtXa.^ V 0 @ 7.FXk.pXZXcXVXcXxXVXxXcXxXzXcXcXkXzXzX",
"FXIX' 7.PXY   ^ AXSXFXa.  l B a.O.  7 i ' . O     . * , > = 4 < 4 . - 8.FXgXpXpXjXxXzXzXxXcXcXcXcXcXcXcXxXcXZXcXcXSXSXSXSXSXSXSXSXZXZXcXcXcXCXiXd.Q , 7.AXIX8.g.FXcXcXZXSXcXcXcXSXcXcXcXcXcXcXcXcXcXcXcXcXcXcXcXSXcXSXcXSXcXcXcXcXcXSXSXcXcXSXcXSXcXSXcXcXcXzXcXSXcXcXcXcXSXSXcXcXcXcXcXSXSXSXcXSXcXZXcXcXcXSXcXcXcXcXcXcXcXSXcXcXcXcXcXcXSXZXcXcXZXZXcXcXZXSXcXZXZXZXcXZXcXcXZXcXZXZXcXcXZXZXcXcXZXSXcXSXcXcXcXcXSXZXcXcXcXZXSXcXcXSXcXZXZXSXZXZXZXZXZXZXcXSXSXSXSXZXZXSXSXSXZXSXSXZXZXSXSXSXSXSXSXSXSXSXSXSXZXSXSXSXSXSXSXSXSXSXZXSXZXSXSXSXZXZXZXZXZXSXSXSXZXSXSXSXSXcXSXSXcXcXSXSXcXcXZXFXNXrX5X6X7XmXVXVXFXDXDXBX3XY.`.'.P.2XrXqXoXoXoXoXoXoXoX5X5XoX{.oXoXoX XXX XXX XXX X XXX5X6XrXrXwX7XrX6X{.R.XXXX X XXX XXXXXXXXXXXXXXXXXXXXXXXXXXX'.XXXXoXXXoXoXXXoXXX'.XXXXoXoXoXXXXXXX'..XoX'.oXoXoXoXOXXXXX5XBXNX5XXXXXXXoXXXXXXXXXoXoXXXXXXXXXXXXXXXoXXXXXoXXXoXoXoXoXoXXX'.9XIXPX].oXrXtXBXVXBXDXVXDXVXDXmXmXBXVXnXBXmXmXnXmXNXwX}.XXXXXX XXX X XXXXXXXXXXXXX X X X X XXX XXX X).).U.).XXXXXXU.XXoXXX X X X X`.`.`.`.). X`.).`.`.`.`.`.`.U.`.`. X`.`.U.U.U.`.U._._._._._.U.XXXXU.U._._._.T._._.T._._.T._.T._.U.XX X X X`.U.U.U.U.`.`._._.U.`.`.`.`. X X X`.`. X). X`.). X'.5XqX5XqX0X5XoX).).U.`. X X'.3XeXFXFXSXSXSXSXSXSXSXSXFXSXFXSXSXSXSXSXSXSXSXSXSXSXSXSXSXSXSXSXSXSXSXSXSXSXSXSXSXSXSXZXxXIX^ V UXaXV FXg.0 1 f h q ^ IXSXzXSXZXcXZXSXcXZXZXZXcXZXZXSXZXcXZXZXZXZXZXZXZXZXcXZXSXZXZXSXSXZXZXSXcXZXZXZXzXCXZXzXkXjXk.k.k.cXFXAX' . 3 w , , . B JXl . , * % * * * % # & & & $ $ 7.7.B . $ 5 ; -   B UXUXIXUXaX<XDXxXxXcXcXcXcXZXcXcXSXcXzXcXcXcXzXZXzX",
"iXFX$X5 B B -   B eXf.C 1 e . . q % , ; & o , > 4 = > & = > & ; 4 > = - e.NXVXk.hXkXxXxXxXxXcXcXcXcXcXcXcXxXcXcXSXSXSXSXSXSXSXcXZXSXFXFXcXjXFXZ y ) 1 wXUXa.u V IXzXcXcXcXSXZXcXcXcXcXcXcXcXcXcXcXcXcXcXcXcXcXcXcXcXSXcXcXcXcXcXcXcXcXcXcXcXcXSXcXcXSXFXcXzXcXcXcXZXZXzXcXcXcXcXcXcXcXcXcXcXcXcXcXcXcXcXcXcXcXcXcXcXcXcXcXcXcXZXcXcXZXcXcXcXcXcXcXcXcXcXcXcXcXcXZXcXSXZXcXZXcXcXZXcXcXcXcXcXcXcXcXcXcXcXcXcXSXSXZXcXSXcXcXcXSXcXcXcXcXZXcXcXZXZXZXcXZXcXZXcXcXcXSXSXSXcXSXSXSXZXSXSXZXZXSXSXSXSXZXZXZXZXSXSXSXZXZXZXSXSXSXSXSXSXZXcXZXZXSXSXZXcXcXcXSXZXcXSXSXcXZXZXSXcXSXcXcXcXSXcXcXcXSXFXeX}.oXXX3XMXVXhXVXxXSXVX2XY. XY.].eXnXbX6XoX.X.XoXoX5XoX5XoX{..XoX'..XXX'.'. XXX X XXXXXXX{.5XrXwX7XwXtXrX3X].].'.'. XXX X XXXXXoXXXXXXXXXXXXXXXXX'.XXXXoXoX.XXXXXXXXX'.oXXXXXoXXXoXXX XoXXXoXoXoXoXoX XXXXX'.9XMXtX5XXXXXXXXXXXXXXXoXXXXXXXXXXXXXXXXXXXXXoXXX'.oXXXoXXX.XXXoX'.9XFXDX7XtXnXmXnXFXDXVXVXVXmXVXmXVXVXmXmXBXnXnXVXmXnXeX4XoX XXX X X XXX XXXXXXX X X`.`.`.).`. X X X X X`.XX`.Y. X X`.Y.XX XXXXX`. X X`.`.`.`.`.`.).`.`.).`.`.`.U.Y. X`. X`.U.).U.U._.U._._.)._._.U.XXXXD.T._.T.T.T.T._.T.B.T._.T.T.T.U.U. XXXXXXX XU.U.U.`.`._._._.U._.U.).`. X).).). X`.`.`.U.).XXoX5X5X6XqX0XoX'.Y.`.).`.`.'.].wXDXFXSXSXSXSXSXSXSXSXFXFXSXSXSXFXSXSXSXSXSXSXSXSXSXSXSXSXSXSXSXSXSXSXSXSXSXSXSXcXZXcXxX7.. e.UXV AX-X  1 f + @ g.xXzXcXcXcXcXcXSXcXZXcXZXZXcXZXZXZXZXcXZXZXZXcXZXcXcXcXZXZXZXZXZXZXZXZXZXZXZXcXcXZXCXzXZXSXSXZXSXAX9.B i O w 3 O . . ^ I.B . , & & * % % = * # # # & %   L.UXPXe.X . X X     u IXxXjXcXSXZXjXcXCXxXcXxXcXcXcXxXcXcXcXzXcXzXzXzX",
"VXgX8.e.>XPXe.i t y - m n , 8 $ 9 p 8 2 , > 2 2 4 = * = > = = 4 2 * 7 5 - 0 8.AXhXdXjXzXcXcXxXcXcXxXcXcXcXcXcXcXSXSXSXSXSXSXSXSXZXFXa.a.IXxXFX8.V b h ^ 8.V f.8.FXzXcXcXcXcXcXcXcXcXcXcXcXcXcXcXcXcXcXcXcXcXcXcXSXcXcXcXcXcXcXcXcXcXcXSXSXSXxXZXZXSXSXiXSXzXcXcXcXcXcXcXcXcXcXcXSXcXSXSXZXcXcXcXcXcXcXcXZXcXcXcXcXcXcXcXSXcXcXZXcXcXZXcXZXzXcXZXSXcXcXcXSXcXcXZXZXcXSXZXcXcXcXcXZXZXcXcXcXcXZXZXZXcXZXcXcXcXSXSXSXSXSXSXcXcXcXcXcXcXZXZXcXcXZXZXZXZXZXZXZXZXcXcXSXZXSXSXSXSXSXSXSXZXSXZXSXZXSXSXZXZXZXZXSXSXSXSXZXSXSXSXSXSXSXSXSXSXcXZXSXZXZXZXcXcXZXZXSXSXcXSXSXcXcXSXSXSXcXcXSXcXZXSXSX,XqX5X3XrXBXVXVXVXVXVXDX9XXX X'.4XNXmXmXbX3XoXoXoX5X5X5XoX{.{.oX.XoXoXoX{.'.'..XXXXXXXXXXXoX.X5X5XJXtXwX4XrX9X4X1X3X].'. XXXXXXXXXXXXXXXXXXXXXXXXX'.XXXXXXXXXXoXXXXX.X{.}..XoXoX.XXXoXXXXXoXoXGXoX.XoXXXoXoXXX5XyXBXtX6XoXoXXXXXoXOXXXXXXXXXXXXXXXXXXXXXoXXXXXoXoXoXoXoXoXoXXXoX.X4XBXmXnXDXmXFXDXVXVXVXVXDXVXBXmXVXVXVXmXVXmXmXmXbXeXeXtX6X.XXXXX XXXXXXX X X X X`. XXX`.`.).`.).`. XXXXXXXXXXXoXXX XXX XXX X X X X XXX X`.`. X`.`.`. X`. X X X`.`.Y.).U.`.`.`.U.).`._.U.U.U.`._.U.XXGX).U.T._._.T._._.T._.T._.T.T.T.T.T.`.).XXoXoXXX XU.).U._.U.U._.`._.`.).).`. X). X`.`.`.`.`.).Y..XoX0X3XqX5X5XoXXX'.).). XXX.X6XBXFXSXSXSXSXSXSXSXSXSXSXSXSXSXSXFXSXSXSXSXSXSXSXSXSXSXSXSXSXSXSXSXSXSXSXSXSXcXZXZXpX=Xi   (.7.0 f.^ q t q 7.FXxXkXcXZXcXcXcXcXZXSXcXZXZXZXZXZXZXZXZXZXZXZXZXcXZXZXZXcXZXZXZXZXZXZXZXZXZXZXZXcXZXCXZXVXaXeX%X^ l 7 O 3 w w O B a.^ 1 . . % % * % & & & & = & % * = = . B 7XBXAX8.V V V u B   7.IXcXxXjXcXCXZXZXZXSXcXcXcXSXxXcXcXcXzXxXxXzXkX",
"VXFXFXFXDXmXIXd.~ 1 O b H % 4 $ 2 6 & = 2 % , = > = 2 * & = ; & = = 4 5 5 5 - a.SXpXcXxXzXzXcXcXzXcXcXcXcXcXxXcXZXcXSXSXSXSXSXcXZXIXV V IXSXFXIXeXt 1 1 >Xa.8.jXZXzXzXzXcXcXcXcXcXcXcXcXcXcXcXcXcXcXcXcXcXcXcXcXcXcXcXcXcXcXcXcXcXcXcXcXSXcXcXcXxXFXuXZ FXzXcXcXcXcXcXcXcXcXcXcXcXcXcXcXcXcXcXcXcXcXcXcXcXcXcXcXcXcXcXcXcXcXcXcXcXcXcXcXcXcXcXcXcXcXcXcXcXcXZXcXSXcXcXcXcXcXcXcXcXZXZXcXcXZXZXZXcXZXZXcXZXcXcXcXcXZXZXcXcXcXcXcXcXcXSXZXcXcXcXcXZXcXcXZXSXcXZXcXcXcXZXSXSXZXZXSXSXSXSXZXZXZXZXZXSXZXZXZXZXSXSXZXSXSXSXSXSXZXSXZXSXcXZXcXZXZXZXcXZXcXcXcXZXcXSXcXcXZXSXSXcXcXZXSXFXFXSXVXDXPXrX9XeXDXVXlXVXmXbX8X4XoX`.'.wXnXVXgXnXwX{.XXoXoXoX5X5XoXoXoXoX.X.XoXoX].3XqX}.XXXX X XXXoX].{.{.6XJXwX1X3X].}.].3X6X3X'.'.XXoXXXXXXXXXXXXXXXoXoXoXXXXXXXoX.XoXoXXX{.0XJX}.{..XoXoXoXOXoX.XoX5XoXoX.XXXoXXX'.rXNXnXNXyX5XXXXXoXXXXXXXOXoXXXXXXXXXXXoXXXoXXXXXXXoXXXoXoXXXoXXXoX{.rXnXnXnXmXVXDXBXVXVXVXmXVXVXbXeXVXmXDXtXeXMXBXbX4X%XwX7X9X}.'.XXXX XXX X X X X XXX X X X X X X X X X X X XXXoX.XXX XXX XXX X X X X X XXX X`.`.`.`.).`.`. X X`.).).`.`.U.).`.).).).`.U.U._.U.U._.).U.oXOXU.U._.T._.T.T._._.T.T._._._._.U.U.U.).).XXXXXXXX'.U.U.U._._.T.`.)._.`.`.).`.U.XXXX).`.U._._.).).XX5X5X3X5X5XoX'.'.).).'. X'.3XMXFXSXZXZXSXSXSXSXSXSXSXFXFXFXSXSXSXSXSXSXSXSXSXSXSXSXSXSXSXSXSXSXSXSXSXSXZXcXSXjXxXeXB   l - B C + 1 X 8.k.dXcXzXzXFXIXFXcXcXZXZXcXcXZXcXZXcXcXZXcXcXZXcXcXZXZXZXZXZXZXZXZXZXZXZXZXZXZXZXZXZXxXFXg.  - - = > d 6 $ $ . ^ FXUXB . , * , % % % & & & & % # & % % = > . 0 7.bXVXSXZXFXjXFX8.8.FXxXzXZXxXcXjXxXcXzXcXZXxXcXxXcXxXcXFXIXIXZXkX",
"VXVXSXmXnXmXbXu 0 q O 6 9 $ $ B : 9 r 4 p 8 = . . $ = = = = = = = = < -   q . ^ IXlXnXhXzXcXcXzXzXzXcXxXzXVXIXFXZXSXSXcXSXSXSXSXZXFXV ^ UXmX7.f.4Xl e B 7.X g.FXkXzXcXzXcXzXzXzXzXzXzXzXcXcXcXcXcXcXcXcXcXcXcXcXcXcXcXcXcXcXcXcXcXcXcXcXcXzXSXzXxXIXg.V FXzXzXZXcXcXSXcXcXcXSXxXcXcXcXcXcXcXcXcXcXcXcXcXcXcXcXzXxXxXcXcXcXcXcXzXcXcXZXcXcXcXcXcXcXcXcXcXcXcXSXSXcXzXcXZXSXcXcXcXZXcXcXZXZXZXZXcXZXcXcXcXcXcXcXcXZXcXcXcXcXcXcXcXcXcXSXZXcXcXZXcXZXcXZXZXcXZXZXcXZXZXcXZXZXZXZXcXSXSXSXcXSXZXZXZXSXZXZXZXZXSXSXSXSXSXSXSXSXSXSXZXcXZXZXcXcXZXSXZXSXcXcXcXcXcXSXcXcXZXSXcXcXSXFXFXmXmXFXFXPXrX7XnXDXhXVXVXNX4X1XqX5XR.5XNXDXmXVXVXMX3X.XXXoXoXoXoXoXoX5X5X5X.XoXoXoX].9XPX6X'.XXXXXX'.5XqX5X.XoX0XrXrX6X3X5XR.].3XrXqX}.'.oXoXXXXXXXXXXX XXXoXoXoXXXoXoXoXoXXXoX.X0XqX{.oXoXoXoXoX5XoXoX5XoXoXoXXXoXoXoX6XNXBXNXBXBXrXoXoXOXXXXXXXOXXXXXXXoXoXoXXXXXoXGXoXoXoXoXoXoXoXoXoXoX6XMXBXnXmXDXDXeX7XBXDXDXVXDXBX7X7XDXVXNX3X].4XBXeX2XrXtX7XtX4XoX.XXXXXXX X X X X XXXXXXXXXXX X X X X X X X X).XXXXoXoXXXXX XXX X X X X XXX X`. X`. X`.`. X`.`.).`.`.`.`.`.`.).).).).)._.U.`.`.`._._.U.). X`._._._.`._._._._.T.T._.`.T.T.U._._._.U.). XoXoXoX'.).U.)._.`.`.`.`. X`.`.).`.`. X`.U.`.`.U.).`. X).XXoX0X5X5X5XoXXX'.'. XXXXX}.eXSXFXSXSXSXSXSXSXSXSXFXFXSXFXSXSXSXSXSXSXSXSXSXSXSXSXSXSXSXSXSXSXSXSXZXSXZXSXxXpXSXAX^ - 1 1 - q h 0 g.h.k.ZXxXFXnX8.aXFXcXZXcXcXZXcXcXZXcXcXcXZXcXcXcXZXcXcXZXZXZXZXZXZXZXZXZXSXZXZXZXZXZXCXZXAXV 0 q . & $ 0 ' a.B NXUX=X. , > % * * * * * & * % % % * * = * > < < . V gXjXk.xXk.xXZXCXCXSXkXxXjXCXcXcXSXcXxXCXkXCXSXFXFXIXa.7.7.hXkX",
"VXmXVXVXbXgXBX@XQ.f.0 O . ' 7.%Xq ; h - ; h O B 7.q $ * = & = = = & - ' 7.7.y L.UXQ.B &XSXzXcXcXcXzXzXxXFX&XV g.FXcXSXcXcXcXcXSXcXFXa.V PXa.0 u B t x t y e.DXpXzXzXcXcXzXzXzXxXzXzXzXkXzXzXkXkXzXzXkXcXcXcXcXcXzXzXcXcXzXzXcXcXcXcXcXxXcXcXzXzXxXFXg.V xXzXzXzXcXcXcXcXcXcXcXcXcXzXcXcXcXcXcXcXcXcXcXzXcXxXxXxXxXcXzXzXcXzXzXzXcXcXcXzXcXcXcXkXcXkXzXcXcXcXcXcXzXkXkXcXcXcXcXzXzXcXcXcXcXcXcXcXcXcXcXcXcXcXcXcXcXcXcXcXcXcXcXcXcXcXSXZXcXcXcXZXZXcXZXcXcXcXcXcXcXcXcXcXcXZXcXcXcXSXSXcXcXcXZXSXZXZXZXcXZXSXcXZXcXSXSXcXcXcXcXcXcXzXcXcXcXcXcXZXcXZXZXzXcXcXcXSXcXcXcXcXSXSXnX1X].9XAXDXeXeXBXVXxXVXBXeX6X}.6XPXwX9XBXDXVXVXVXBX9X'.XXXX.XoXoX{.oX.XoX0X.XoXoXXXoX].eXVX9X{.XX.XXX'.3XJXrX.X'.R.qXyXtX4X3XoX'.'.3XrXrX5X{.'.oXXXXXXX'.XXXXXXXX.XXXoXoXoXXXXXXX.X{.{.{.oXoX.XoXoXoXoXoXoXoXoXoXoXoX.X3XMXnXnXBXNXbXtX3XXXOXXXXXXXoXXXXXXXXXoXoXXXoXXXXXoXoXoXoXoXoXoXoXoX}.yXAXnXmXmXBXBX>X7XAXmXVXDXBXtX2XeXVXBX6X X X5XMXwXI.rXNXMXtXwX3X XXXXX XXXXX XXX X`.XXXXXX X X X`. X X X).).).XX XXXoX). XXX X X`. X X X X`.). X`. X X`.`.`.U.`.).`.`._.`.`.`.Y.).`.U.).U.U.`.`.U.U.U.U.U.).).U._._._.U.U._._._.T.U.T.U.U._._.U.T.U.U.XX.XoXoXXX X).U._.).`. X`.`.`.).U.`.`.U.`.U.`.`.`.`.`.U.). XoX5X5X3X5X5XoX'.'.'.XXXX}.9XDXFXZXcXSXSXSXSXSXFXSXSXFXSXSXSXSXSXSXSXSXSXSXSXSXSXSXSXSXSXSXSXSXSXZXZXcXxXxXdXSXIX7.u B 0 q 5 . a.IXSXnXVXPXB   8.FXzXcXzXZXcXcXcXcXcXcXcXcXcXcXcXcXcXZXcXcXcXcXcXZXcXZXZXZXZXZXZXZXZXZXcXSXIXBX,X8.8.i ^ UXPXB ' 7.0 o , * * % % * % * * % % * % # * * * , > 4 > o B =XlXk.xXk.k.CXh.CXFXSXjXh.dXlXhXFXIXFXIXAX8.7.7.7.X .   g.UX",
"DXVXDXDXbXeXbXbXbXAX$Xd.9.NX=X=X0 + /.C q 9.@ 8.UXC . 2 = * = = = = . ^ (.7.d.f.V B B DXVXlXzXxXxXZXSXvXPXV B <XSXxXSXcXcXcXcXcXxXFX>X0 ^ eXeXPXY e c t wXUXxXxXzXcXzXcXcXzXZXcXcXzXcXcXzXzXkXzXzXkXcXkXcXzXcXzXkXzXcXkXxXkXcXcXcXzXcXzXcXcXzXcXkXIXj.V cXZXzXkXkXjXzXzXzXjXjXxXcXzXcXcXcXcXcXcXcXzXzXzXcXzXzXzXcXzXcXzXcXzXcXcXzXjXzXzXzXzXkXzXkXzXzXkXzXkXkXzXzXjXkXkXcXcXcXzXkXzXcXcXcXzXcXzXzXzXcXcXSXcXcXzXcXcXcXcXZXcXcXcXcXcXcXcXZXcXcXZXcXxXcXcXcXcXcXcXcXzXZXcXZXcXcXcXcXSXcXZXcXcXSXSXSXSXSXZXZXZXZXZXSXcXcXZXZXxXxXcXcXzXzXcXcXzXcXZXZXzXcXcXSXcXcXcXcXcXZXcXVX7X].{.3XNXDXmXmXVXFXVXmXnXrX1X3XrXPXAXAXAXDXVXDXDXBXwX3XXXXXoXoXoXoX5X5X{.5X0XoX.XoX.XoX}.tXVXtX}.XXXXXXXX5X9X1X].oXoX5X3XyXyXrX5XoX{.{.}.qXJX0X}..X.XXXXXoXXXoXXXXXoXoXoXoXoXoXXXXXoXoX.XoXXXXXoXoXoXoXoXoXoX5XoXoXoXoX5XyXBXBXNXwXwXNXtX3XoXoXXXoXXXoXXXXXXXoXXXoXoXoXXXoXoXoXoXoXoXoXoXoX}.qXBXDXmXDXmXmXDXeXMXDXmXBXNX7XqX4XMXAXyXoXOXoX0XMXwX1X3XtXPX7X2X3X{.XXXX X X XXXXXXXXX XXX'. X XXX X X X X X`. X XXXXXXX'. XoX XXX X X XXXXX`. XXX`. X X). X X`.`.`.`.`. X X X`.U.). X`.).).`.).).U.U.)._.)._.).`._._._._._._._._.).U.U.`._._.)._.U.U.).`.XXoX'.oXoXXX X`.).).`.`._.`.`.`.`.).`. X XXX X X`._._.`.).XXoX5X5X5X5X5XoX.X'.XX.X.X{.2XmXFXSXSXSXSXSXSXSXSXSXSXSXSXSXSXSXSXSXSXSXSXSXSXSXSXSXSXSXSXSXSXSXZXxXSXFXIXFXcXlXFXCXFX8.- t ; B a.^ 0 B B X ^ VXcXzXcXcXcXZXcXcXcXcXcXcXcXcXZXcXcXZXZXcXcXZXZXcXZXZXZXcXZXZXZXZXcXZXZXcXxXcXSXSXSXIX8.. B q .     . , * * * * * * * = % * & > & * * = > , * > 4 6 . - 0 0 j.FXCXnXV V f.g.FXlXIXg.0 C ^ B C B O O + - O . - ^.^ ",
"mXFXIXtXwXeXbX<XeX,XNXPXNX,Xg.=X7.^ PX7.y tXL.tX7.- & , , = = & = = * $ 5 + ^ ' Y #Xf.AXIXFXFXFXIXIX` 0 q Y ^ ` SXcXcXxXcXcXcXVXxXSX@X1 h >XIXIXC w w q BXg.j.xXzXkXzXjXzXcXzXzXzXcXcXcXcXkXzXkXkXcXzXkXkXkXkXlXzXzXzXzXkXjXkXkXzXzXkXcXxXxXcXkXk.FX8.B sXjXkXkXkXkXcXkXzXzXzXjXzXcXcXkXkXzXzXzXzXxXzXkXxXzXzXzXkXzXcXcXcXxXkXzXjXjXzXjXzXjXzXjXcXcXkXkXzXkXzXzXkXkXkXkXkXkXzXzXkXkXzXcXcXzXzXzXkXjXzXcXcXcXzXzXzXzXcXcXcXcXcXcXcXcXcXcXcXzXcXcXcXxXcXzXcXcXcXxXzXkXzXcXcXZXcXzXcXSXZXzXcXcXcXSXSXSXSXcXcXcXSXcXcXzXcXzXxXkXkXzXzXcXcXxXzXcXcXcXxXxXcXcXcXcXcXcXZXZXVX,X1X{.oX4XMXAXmXmXDXVXmXnXeX3X5X3XtXBXDXmXDXDXDXBXAXMXqXoX.X.X.X.XoX.X5XoX5XoX5X5XoX.XoXXXoX1XNXmXtX{.XXXXXX'.{.6X1XP.oXoXoX{.5X6XqX5X5XoX.X.X}.5XqXrX3X{.{..XoXoXXXoX.XXXXXoX.X'.oXoXXXXXoXoXoXXXXXoX.XoXoXoXoXoXoXoXoXoX5XrXBXnXBXrX}.].wXtX6X.XXXXXoXXXXXXXXXoXXXXXXXoXXXXXoXXXoXoXoXoXoXoX{.3XNXBXmXBXmXBXDXBXbXNXmXBXNX4X3X6X2XBXBX6XXXGXHX5XwXtX/.'.3XyX4X1X6X{.R.XXXX`. X XXXXX XXXXXXXXXXXXXXX X X XXXXX X XXXXX'.). X X XXXXXXX'.XXXXXX XXXXXXX'.XX'. X X`.).`.).`. X`.U.).).). X`.U.).).`.`.`.).).).)._._.`._.U._._.)._._._.`._._.).)._._._._.).U.). XXXoX.XoXoXXX).).U._._._.`.`.`. X X XXX X`.`.`.`._.U.`.`.'.'..X5XoX5X5XoX{.'.'.'.XX'.].nXFXSXcXSXSXSXcXSXSXcXxXzXcXSXSXcXcXcXcXcXcXcXcXcXSXSXcXZXcXSXcXcXxXFX` V e.&XFXcXk.xX7.+ q 5 - . + t e ' NXIXSXkXzXZXzXcXZXcXcXcXcXcXcXZXcXcXcXcXcXcXzXcXzXcXZXZXcXcXZXZXZXZXZXZXcXcXcXZXxXxXkXk.CX8.  O o , * > , * * % * * & * * * * * % = * & * * * * * > = > > , & o 0 V B i $ ; < - 7.8.8.i . o . . o % , 3 w o ^ NXe.- . ",
"VXMX#XS.rXNXMXeXeXeXeX>XeX>X,X=X>XyX>Xa.a.yXPXB o 2 2 , , = = * = * * > 2 = % . l 9.f.<X^ e.a.V ^ C - t _ IX*X-XSXxXcXcXVXVXVXVXxXSXgXC O 7 Y ' y c w l 8.X g.ZXxXkXzXzXzXkXzXcXzXkXzXkXzXzXzXkXzXkXcXzXkXjXcXkXkXzXzXzXjXjXjXkXzXzXzXkXcXzXxXFXCXFX8.V xXzXjXjXzXzXkXzXcXcXzXzXcXcXzXpXjXzXcXzXzXkXkXkXxXkXkXkXkXkXxXkXzXzXzXzXzXzXcXzXzXzXzXzXcXzXzXzXzXkXzXkXzXzXzXkXzXkXzXzXkXkXzXcXzXkXkXzXjXjXcXcXcXzXkXzXzXkXzXzXcXzXzXzXcXzXcXcXzXxXzXcXzXzXcXzXzXcXzXzXzXcXzXkXcXZXcXcXSXcXcXzXzXcXcXcXSXSXZXcXcXZXZXcXzXzXcXkXzXxXxXgXgX<X,X,XbXVXcXxXxXxXcXxXxXcXSXcXVX<X4X3X}.}.4XBXVXVXDXVXDXbX7X4X6X5XrXNXAXVXDXVXDXDXDXDXNX3X'.XX.XoXoX.XoX5X0X5X5X5X0X5XoXoXoXoXoX6XBXBXtX}..XXXXX X.XrXrX5X5X{.5XoXoX].5X5XHX5XoXoXoX'.}.3XqXrX3X].{.{.oXXXXXXXXXXXoXoXoXoXoXoXoXoXoXoXoXoXoXoXoXoXoXoXoXoXoXoX6XNXAXBXwX5X.X.XqXMXyX3XoXoXoXoXoXoXoX.XoXoXoXoXoXoXoXoXoX0X0XoXoXoX3XrXAXBXmXBXNXMXMX8XMXAXBXNX6X{.5X3XeXAXyX5XoXGXHX5XwXtX1X{.}.3X6X4XrX5X{.'.XXXXXXXXoXXXXX XXXXXXXoXXXXXXXXXXXXXXX XXXXXXX X XXXXXXXXXXX XXXXXXXXXXXXXXXoXoXGXoX'.'.).`.`.`. X X`.`. X).). X`.`.`.U.).`.`.`.`.`.`._.`.`.`.`._.`.`.`.`.`.`.`._.`.`.`.`._.`._._._.).). XXXoX{.oXXXXX X`.).`._.`.`. X`.`.U.).`.`.`. X`.`._.`.).).'.XXoXoXoX5X5XoX'.{.'.XX'.].eXFXSXcXcXcXSXcXcXcXzXcXcXcXcXcXzXzXzXcXcXzXzXcXcXcXcXcXcXcXcXcXxXVX7.q 1 B 9.V j.IXB - f q q - - 1 O d.IXxXcXcXcXzXcXZXcXSXZXcXcXcXcXZXcXcXcXcXzXcXcXZXzXcXcXcXZXZXZXZXZXZXZXZXcXZXcXCXjXVXxXk.IX7.. 3 , , % * % , % * & * * > * * % % * = * = & * * > > > * > = < = 4 $ . . $ = 7 * & #     . < = * 2 , % # # % O Y yXV   . ",
"DXK.x.c.}.yXeXbXeXeXeXeXeX>XtXg.f.Q.g.W.UXHXC $ e 4 2 = , = & = * & , > , 2 > * % . - l   , 7 O . O 1 r E 7XFXcXcXxXVXVXxXxXVXVXSXDXgXNX' O O 5 F d , l 8.8.IXxXjXjXzXzXkXzXcXkXkXkXkXkXkXkXkXkXkXkXzXkXkXkXkXkXjXkXzXjXkXjXkXkXkXkXkXzXzXzXcXiXgXIXa.B dXFXcXjXjXkXcXkXzXkXkXkXkXcXkXkXcXkXkXzXkXkXzXzXzXzXzXzXzXkXkXkXkXzXkXkXzXxXzXcXcXzXzXcXzXcXzXzXcXzXzXzXzXkXzXzXkXkXkXzXzXkXkXzXkXjXkXkXkXzXkXcXjXkXcXkXkXkXkXkXzXkXzXkXzXzXzXzXzXkXzXzXzXzXzXzXcXzXzXkXzXcXkXdXkXkXzXkXcXkXkXkXcXzXkXcXzXkXcXzXzXZXcXkXzXkXkXzXxXbXwX1X].].3X}.1X2XbXnXmXgXhXcXSXVXVXeX4X3X5X{.1XtXBXVXVXmXVXVXeX2X6X4X6XtXAXDXVXVXVXDXDXVXVXAXyX{.XXoXoXXXoXoX5XJXJX6X5X5X0X5X5XoXoXoXoX9XAXbXtX6XoX'.XXXX].6XrXqX5X5X5X5XoX.XoX5X6X0X0XoXoXoX{.'.1X4XrXqX3X].{..XXXXX.XoXoX.X'.oXoXoXoX.XoXoXoXoXoXoXoXoX5XoXoXoXoX3XtXBXBXwX5XoXoXXX3XMXeX4X5XoX5X5X5X5X0X5X5X5XHX5XoXoXoXGX0XoX0X0XoX}.4XNXBXnXAXtXrX4X4X7XNXBXNX4XoX{.oX1XNXNXqXoXHX5X5XoX4XtX3X].5X].qX1X4XrX5X{.XXXXoXXXXXXXXXXX.XoXXXXXXXXX.XXXXXXX XXXXX X X XXX XXXXXXX'.XX XXX X X XXX'.'.'.oXHX5X'.).).`.`.`.`.`.`.).`.).U.).`.`.).).).).`.`._._._.U.`.`.`.`.`.`.`.`.`.`.`.`.`.`._.)._.`._._._.).).`. XXXoXoX{.oXXX X).).`.`.)._.`.`.`. X`. X`.`.`.`.`.`.U.`.).). XXX'.oX5X5XoX{.'.'.oXXX'.wXDXSXcXcXzXcXcXcXSXcXzXzXzXcXzXcXzXcXcXcXcXzXcXcXzXcXzXcXkXzXkXxXIXbXq ^ 0.1 B C - 5 9 7 - V a.7.B g.FXzXcXcXcXzXcXcXcXcXcXcXzXzXzXcXZXZXzXcXzXcXzXzXcXcXzXcXcXZXzXcXZXZXcXZXSXcXkXSXFXFXIXFXAXB . * * % % * % % * * % % * * * % % * % & & & * = % = = * = > = & & = = 4 = = & & = = & = = = & = # & = . 9.f.- .   X 0 B ^ ",
"IX/.M.M.).JXeXtXeXeXMXeXwX>X>X$X@X@X>XQ.F.U 1 s 8 > 2 2 2 = * = = = * O % * , > 4 , , , e c c + l H.8.C + 7.FXzXxXxXxXxXVXVXVXVXBX@XnXmXAX7.q : e e s h vXFXdXiXjXcXcXzXkXzXcXzXzXkXkXkXzXkXkXzXkXzXcXkXzXkXkXkXkXkXkXkXzXkXkXkXzXzXkXzXzXkXIXZ V UX@X1 >XDXnXxXkXkXkXkXcXkXkXkXcXkXcXzXcXkXkXzXzXzXcXzXzXzXzXzXzXzXkXzXzXkXzXzXcXcXcXcXcXxXzXxXcXkXzXzXcXkXzXkXkXkXcXkXkXkXkXzXcXkXzXkXkXkXzXkXzXjXkXkXjXkXcXkXkXkXkXzXkXkXkXkXzXkXzXzXzXkXzXzXcXzXzXzXcXzXcXzXzXzXkXjXcXlXcXcXkXkXkXcXcXkXkXkXkXzXcXkXkXkXkXzXzXzXlXnXeX1X{.{.oX}.5X}.{.{.5X4XrXwXtXeXeX4X3X3X0X}.].4XNXVXDXVXVXVXVXNX7X4X9XtXBXVXDXDXFXDXVXDXDXDXDXPXrXoXoXoXoXoXoX}.5X6X5X3X5X5X5X5XHXoXoXoX3XtXDXnXtXJXJX5X{.'.oX3X}.'.].5X5X5X5XoXoX.X5XHXJXHX6X}.oX.X.X].3XqX0X5X{.oXoX{..X.XoXoXoXXXoXoXoXoXoXoXoXoXoXoX5XoXoXoXoXoX}.rXAXNXrX3XoXoXOX X3XtXeX4X0XoXoX5XqX6X5X5X5X5XHXHXoXXXoXoX5XoX5X5X5X3XtXBXBXBXNX4XqX3X2XBXDXtX4XoXoX{.].6XAXNX5X5XHX5XoXXX4XtX4X}.0X5X5X}.5XJX6X5XoX.XXXoXXXXXXXXXoXXXoXXXoXXXXXXXXXXXXXXXXXXXXXXXXXXXXX X X XXXXXXX X X X XXXXX).'.'.oX5XoX).).).`.`. X`.).).).). X).`.`.).).`.`.`.`.).).`.`.`.`.`.`.`.`.`.`.`.`.`.`._.)._.`._.`.`._.)._.`.). XXXoXoXoXoXoXXX X).).`.`.`.`.`. X`.XX X X XXX`.`.`.`.). X). X'.'.'.oX0X0XXXoXoX.X'.'.1XNXSXcXzXzXzXcXzXcXcXcXzXcXcXcXzXzXcXcXcXcXcXcXcXzXcXcXcXcXcXzXkXIX^ y 1 q - + t f r 9 - g.IXIXFXSXxXcXcXcXcXZXcXcXzXzXkXkXkXzXkXzXkXkXkXjXkXcXkXzXzXSXSXcXzXZXzXcXzXZXcXZXFXFXFXgX<X9.V B 0 $ , , * * % * * % * * * , % * & * * * * * % & & * = = = < > = = > & & = = = & = = $ $ & = $ & $ * * * & . eXUX<XV i Q.AXFXIX",
"PXU.M.M.c.0XNX8XeXeXeXeXtX>X7X2X1XPXLX^ 1 3 w 3 6 > , , , = = & = = $ q 5 $ < 4 6 6 7 , f , a r q <XIXDX&XnXcXlXlXlXxXxXcXVXxXFXg.B a.AXmXDXDX7., e e & 7.j.j.cXFX&Xj.SXzXkXzXzXzXkXkXkXkXkXzXkXkXzXkXkXkXzXkXkXzXkXkXkXkXzXkXkXkXkXzXkXzXkXSX;X0 eX4XO a.7.0 lXkXkXkXkXcXkXcXzXcXkXkXkXkXkXzXzXzXzXkXzXzXkXkXzXzXkXzXzXzXzXzXzXzXcXcXzXzXzXcXzXcXkXzXzXcXkXxXjXkXkXkXzXkXkXkXkXkXkXzXjXkXzXkXkXkXkXjXjXzXzXkXzXkXkXkXkXkXkXkXkXkXkXzXkXkXzXkXkXkXzXzXkXzXcXkXcXkXjXzXzXzXcXcXkXcXkXcXkXcXcXzXkXzXkXlXkXjXkXzXjXzXxXnX7X].{.}.}.3X}.}.}.oX}.{.{.3X3X}.}.}.oX5X5X}.1XeXBXDXVXVXDXVXmXmXBXBXMXBXBXDXVXVXVXDXDXDXDXVXDXAXrX3XoXoX.XoXoXoX5XqXqX5X5X5X5X5X5X5X5XoX.XqXBXBXNX4X5X5X5XHX0XqX1X5X{.oX{.oX].5XoX.X5X5X3X6XqXqX6X3X'.'..XoX].oXoXoXoX5X5X5X{.oX.XoX'.oXXXoXoXoXoXoXoXoX5XHX5XoX.XoXoX3XtXNXeX5XoX0XoX.XXX3XeX7X4X5XoX5X6XqX6X5XoX5X5X5X5XoXoXoXoXoXoX5XoX3XtXBXNXNXtX4XqX6X1XMXBXNX4XoXoXoX.X}.tXBXtX5XGX0X0XXXXX6XtX4X].5X5X'..X}.5X6X3X{.oXoX'..XXXoXXXXXoXXXXXXXXXXXXXXXXXXX X X XXXXXXXXX X XXXXX'.XXXX X'.XXoXXXXXXX'.'.'.'.oXoX'.Y.).).'.).'.Y.Y.Y.).).`.).).).).`.`.).).).).`.`. X X`. X`.`.`.`.`.`.`.`.`.)._.`.`.`.`. X`.`. X X`. XoXoXoXoXoXXX X).).`._.`.`.`.`.). XXX X`.`. X`.`.`.`. X).).'.).'.oXoXoX'.'.oXoXXX'.3X7XVXSXcXzXzXcXcXzXzXzXzXcXcXzXzXzXcXcXcXcXcXcXcXcXcXcXcXkXcXxXcXnXAX` 7.a.0 1 9 7 7 X 8.iXj.dXlXxXxXxXcXkXzXzXkXkXkXkXkXkXkXkXkXjXkXkXkXkXkXkXkXkXzXsXIXFXkXkXcXxXzXzXFXZ ` g.0 $ & . . . = * % O % % % % * & % * * = & % = * % % * = = % * * = = > > = & * = = & & = = $ & & & $ * $ $ $ $ $ $ > . 7.PXUXUXI.IXDXpXuX",
"oXM.M.M.6.XXKXeXNXeXeXeXeXwXrXO.m U m e e 6 < < ; > < * = = = = > * # Y O.l < $ & ; t 9 v 1 % r . 0 DXVXVXVXzXxXxXcXFXSXVXVXmXnXL.^ h B ' e.=XC , d e 1 8.FXlXg.8.@ ` FXzXzXzXkXkXkXzXkXkXzXzXkXkXkXkXkXkXcXzXkXkXkXzXkXkXzXzXkXkXkXzXkXzXzXdX<X' V l   9.a.y mXzXkXcXzXzXcXcXzXcXcXkXzXzXcXcXkXzXzXcXkXzXzXkXkXzXzXzXzXzXzXcXzXxXxXcXxXcXkXcXcXzXkXzXzXxXcXxXkXzXkXzXzXzXzXzXkXkXkXkXkXkXkXzXcXzXkXkXkXcXkXkXkXkXkXkXkXzXzXzXzXzXkXzXkXkXkXzXkXzXzXzXzXzXzXzXkXkXzXcXkXzXzXkXkXcXcXcXzXkXkXkXkXzXkXcXkXkXzXkXzXVXbX4X1X}.}.5X}.].3X3X}.}.}.3X3X5X5X5X5X5X5X5X3X4XNXDXVXVXVXVXVXVXDXDXmXVXVXDXmXVXDXFXVXDXDXDXDXDXDXKX5XoXoXoXoXoXoX5X6XJXJXqX5X5X5X0X5X5X5X5X5XtXDXDXtX{.'.XX{.5X5XHX6X3X{.5XoX5XoXoXoXoXoXGX5X5X}.5XqX0X].'.'.XX.XoX.XoX'.{.5X5X0X5X{.{.oXoX.XXXoXoXoXoXoXoXoX5X5X5XoXoXoXqXPXtX6X5XoX5XoXoXoX6XMXeX4X5X}.qXrXrX6X5XoX5XoX5X5XoXoXGXoXoXoX5X3XrXMXNXwX6XqXJXqX6XtXAXAX4X{.5XoX.X{.4XAXBXrXHXJXHXoXoXXX5XtXrX}..X.XXX'.oX5XqX5X5XoXoXoXoX.XoXXXXXXXXX.XXXoXXXXXoX.XXX'. X XXXXXXXXXXXXXoXXXXXXXXX XXXXXXXXXXX'.'.XXXX'.'.'..XXX'.'.'..X0X0X5XR.Y.'. X). X`.`.).`. X X).`.`. X`.`. X X`. X X`.`.`. X X`.`.`. X X X X X X X X X X X'.oXoXoXoXoXXXXX'.).`. X`.`.`.`.`.XXXX X`. X XXX X X X'. X X'. X'.XXXXXXXXXXXXoXoXoX}.4XeXSXSXcXcXcXzXcXcXzXzXzXcXcXcXcXcXcXcXzXcXcXcXcXcXcXzXcXFXIXFXFXFXFXIXg.- 5 9 9 5 ` cXCXcXpXjXSXFXFXSXkXkXzXkXkXkXkXkXkXkXkXkXkXkXzXkXkXkXkXlXhXV B =XIXFXIXIXFXFXUX^   0 . = 4 ; ; = & & * % * % % * * % * & * * & * * * > = > = * * = * > > > * = * * = = & & = = * = = = # # $ = $ = # & > = . X 0 y X B a.,Xg.",
"_.M.6.6.6.c.qXNXeXNXNXeX%X%XqXU > w 3 w n m D.D.5 & = = = * = = = > & : B B 5 B C q . q   l B X - V DXVXnXsXxXxXFXmXf.&XaX,X8Xf.9.rXd.y > o q < e w w = f.@Xu @ - V g.zXkXkXzXkXkXkXkXkXzXkXzXkXkXkXkXkXzXkXzXcXcXkXzXkXkXkXkXkXkXkXkXkXjXkXSXa.q @.s.h h 1 7.SXjXkXzXzXcXzXcXcXcXkXkXkXkXzXzXkXkXzXkXkXzXkXzXzXzXkXzXzXzXcXzXzXzXzXzXzXzXzXzXkXcXzXkXzXzXlXkXkXkXjXzXkXkXkXkXkXkXkXkXkXkXjXkXcXkXlXzXkXzXkXkXzXzXkXkXcXkXkXzXkXkXkXkXkXkXkXkXkXkXkXkXzXkXkXkXkXzXkXkXzXzXjXkXzXkXzXzXzXkXlXkXlXjXcXcXzXzXlXcXVXbX4X].}.3X}.}.}.3X].}.}.}.}.}.5X5X}.5X5X5X}.1XeXBXVXVXVXDXNXMXwXtXNXBXmXVXVXVXVXVXVXVXDXDXDXDXVXDXNX6X}.oX.XoXoX.X.X5X5X3XrXqX5X5X5X5X5X5X5X5XrXBXVXVX7X'.XXXXoXXX.XoXrXJX1X].oXoX5X5X.X.XoXoX5X5XoXoXoX5XqX}.'.{.{.oX.XXXoX.X'.oX0X0X5X}.'..XoXoXoXoXoXoXoXoXoXoXoX5XoXoX{.6XyX9X}.5XoXoXoXoXoXrXKXrX3X}.oX3XrXrX5XoXoXoXoXoXoX5XoXoX5XoXoX}.rXNXtX4X3XqXqXrX6X2XBXBXrX}..XoXoX'.].eXDXtX3X0XHX5X.XoXoX3XtXrX}..X.XoXXXXXoX5X6X0X5XoX5X5X5X{..XoXXXoXXXoXXXoXoX.XXXXXXXXXXX'.XX.XXXoXXX X.XoXXXXX XXXXXXXXXXXXXXX'.XXXX'.'.'.oXoX'.'.'.5XqXJX0X'.Y.'.'.).).`.`. X X X X X X`.`.`.`. X X X X X`. X X X`.`.`.`. X`.`.`. X X`. X X`. X X XXX'.oXoXoXoXXX).).`.`.`.).).`.XX XU. XXX XXX X XXX'.'.XXXX X'.'.XXoXoX'.oXoXoXoX}.3XrXbXVXSXcXcXzXzXcXzXcXcXcXcXcXcXcXcXcXzXcXcXcXcXzXcXVX8.^ ;XIXSXFXIXnX- 4 6 7 ; q g.g.8.vXAX8.e.7.a.kXkXkXkXkXkXkXkXkXkXkXkXkXkXkXkXkXjXcXFXUXIXV   Y Y ' ^ e.9.f.Y + 1 5 = > $ & $ & O % # O # % # # % & & = # * % % % & * = & * & # & & = & & = & & = & & = $ $ = = # $ # $ # $ $ $ $ & O = > , + , O -   0 g.",
"~.N.6.6.6.6.XXJXNXtXtX9XqX4XHXQ e >.>.M d < l m ; * = = > = = = = 2 2 & # # - P.PXe.B 7.C e.<Xf.eXIXIXIXIXFXIXnX7.B ^ >XbX:XNXi.q ^ PXtXK.B $ , e e e 1 l 0 . q e.FXZXkXzXkXkXzXzXzXzXcXcXzXzXcXcXzXzXzXcXkXcXcXcXkXzXkXzXkXkXzXzXzXkXkXkXkXzXDX^ - ' ^ y B =XFXcXzXcXcXcXzXcXcXcXkXkXkXcXkXcXzXzXkXkXzXkXzXcXzXzXzXzXzXcXkXzXzXcXcXcXzXxXzXcXcXcXcXkXzXkXzXzXkXzXzXzXxXcXlXcXcXkXkXzXkXkXkXkXkXzXzXcXkXzXkXzXkXzXkXkXkXzXzXcXzXkXkXzXcXcXzXzXzXzXkXzXzXcXzXkXzXcXzXzXcXzXzXzXzXcXzXkXcXkXkXcXkXcXkXlXlXcXxXmXeX3X{.5X}.3X}.3X].1X].].3X5X3X3X3X3X5X5X5X3X4XMXVXSXVXmXnXeX3X3X3X6X4XbXVXFXVXVXVXFXVXDXDXPXtXMXDXAXyX3XoX5X}.}.oXoXoXoX'.'.6XqX0X0X5X5X5X5X5X6XNXDXVXVXwX{.XXoXoXoXoX5X}.JXPX6X{.oXoXoXoXXXoXoX5X5X5X5X.XoX5XqXrXqX}.oXoXoXoXoX.XoX{.5XHXqX5XoX.XoXoXoXoXoXoXoX5XoXoX5X5XoXoXoX5X5X5XoXoX5XoX5XoX5X3X3X}.oX.X}.qXrX5XoXoXoXoX5X5XGX5X5XoX5X}.qXyXyX6X5X0XqX5X5X}.rXPXyX3XoXoXoX'..X6XBXNX3X5XHX5XoXXXoXoX5XrXrX3XoXoXoXoXoXoX5X0XHX5X5X5XHX0XoXoXoXXXoXoXoXXXXXoXoXXX'.XXXXXX'.oXoX.XoXoX.XXXXX.XXX.XoXXXoXoXXXXXoXXXXXXXoX'.oX'.'.oXoX'.'.P.}.0XHX'.'.'. X`. X X X). XXXXX X).`. X`. X XXX X`.`. X X X`.`.`.`._.`.`. X X X X X X X X X). X'.XXXXoXoXXXXX X`.).).`.).`. X X X`.). X). XXXXXXXXXXXXX X X XXX.XoXoXoX{..XoXoXoX5X3XrXMXVXSXcXcXcXcXcXcXcXcXcXcXcXcXcXcXcXcXcXcXcXcXFX7.1 B V 0 ^ a.V - 7 7 9 4 4 - - . C ' @ -   8.cXzXkXkXkXkXkXkXkXkXkXkXkXkXkXkXjXcXsXV C f.PXB   O O         O 4 4 ; & & = ; $ = % # * # # # # & # = & * % = & = & * & & & = & * & = = = & = = & $ $ & = $ & & ; $ # $ & # $ $ & & 5 = . O & . o $ 1 . X g.",
"B.N.6.6.6.6.c.oXqX3XqX3X5X'.oX:.r v.).v % * o . * = = * > > = 4 > = = = = & . B tXKX%XIXKXPXBXPXUXNXa.B C Y ' B ^ f.NXeX>X;XQ.9.t > d.AXBXbX7.B 9 4 6 4 1 1 y a.AXk.k.zXzXkXzXzXzXcXcXcXcXcXcXzXcXzXcXzXkXzXcXkXkXkXzXzXkXkXkXkXzXkXkXjXkXkXpXhXIXY   t B PXIXa.uXcXxXzXzXzXkXzXcXzXzXzXzXzXzXcXzXkXcXkXcXzXkXcXcXcXzXkXkXzXzXkXcXcXcXcXzXzXzXcXcXcXzXzXkXzXzXkXcXxXmXvXbXeXbXgXlXzXkXzXkXkXkXdXkXzXlXkXzXcXkXkXkXkXkXjXkXzXkXkXkXkXkXcXcXzXzXkXzXkXkXkXzXzXcXzXzXcXcXkXzXkXkXkXkXzXkXlXkXkXkXkXkXzXcXxXVXnX9X3X}.{.}.3X3X].3X3X3X3X5X3X3X}.}.}.3X3X3X3X9XBXDXlXnXnXnX8X4X6XrXwXtXBXVXVXxXVXVXVXVXVXDXBXrX5X6XNXNX6X5XoXoXoXoX{.oX.XXXXX{.HXqX5X5X5X5X5X5X3XtXVXmXVXVXNX5X.XoXoXoX5XoXoX}.qXHX5X5XoXoX.XoX'..XoX5X5XoXoXoX].3XrXJX3X{..XoX.XoXoX.X{..X3X6XJXqX5XoX.XoX.XoXoXoXoX5XoXoXoXoXoXoXoX5XoXoXoX5XoXoXoXoXoXoXoXoXoX{.5X5X5XoXoX5XoXoX5X5X5X5XoX3XqXJXrX3X5XHX5X5X0X5X5XtXwX3X}.oX.X{.{.}.wXNX4XoXXXGX5XoX.XoXXXoXrXrX3X5XoXoXoX5XoX5X5X5X5X5X5X5X5X5X{.oX.XoX.XoXoX.X{.oX.XoX'..XXXoX'.oXoX.X.X.X'..X.XXXXXXX.XoXXXXX'.'.'.XX'.'.}.5X}.oX'.'.oX'.'.'.R.0XHX{.R.'.'. X X`. X X X X).).`. X X`.`. X`. X X X X`.`. X X X`. X X`. X X X X`. X X X X X X'.'.'..XoXoXoX'.'.).).`.).). X X`.).`.`.`.`. XXXXXXX'.). X X'.'.XXoX5XoXoX.XoX5X5XoX5X5XqXtXNXmXSXSXcXcXcXcXcXcXcXkXcXcXcXcXcXcXcXzXSXNX^ U 0.x , 1 1 7 7 4 4 < 5 t B I h + B C 8.FXcXkXkXkXkXkXkXkXkXkXkXkXkXkXkXkXdXcX*X@     - 7.B O g 5 5 5 ; ; 4 O $ $ = $ ; ; & # # o # o # o & & O o = % % * * = > * < = = = = & & & = = & & & # $ # $ $ & $ $ . $ . # # # . = O   C 7.- 0 0 l X   X 7.-X",
"~.N.6.6.6.6.6._. X).OXoXoXXXXXXXQ 7 U ; * 6 4 2 > = = = > > > > 4 = = = 4 = & . i y ^ H.B a.UXd.q 0 - O w , % Y NXMXwX>X>XeXwX7.C p q f.DXuXmXPXm > 8 e 7 1 7.FXxXxXzXkXkXzXcXkXcXcXcXcXcXcXzXzXkXzXcXzXzXcXzXkXkXkXcXkXkXzXzXkXzXkXzXzXzXxXxXuXaXL.q 3 q nXIX5 9.FXlXcXcXcXcXkXzXcXcXzXzXcXzXkXcXcXcXzXkXzXzXkXcXkXkXkXzXzXkXkXzXcXcXcXzXkXcXlXcXcXcXxXxXxXxXgXbX8XeXrX6X6X6X9X8XaXlXkXzXkXkXkXkXjXcXzXkXkXjXkXzXkXkXkXzXkXzXkXkXjXzXkXkXkXkXkXzXzXzXkXjXkXzXzXzXkXzXzXcXzXcXzXzXcXkXlXzXzXzXkXkXcXFXVX8X$X1X].}.}.}.3X6X3X3X1X5X3X3X3X}.}.5X3X5X3X4XeXAXmXnXnXgXVXDXMXtXMXBXBXmXVXVXVXVXVXVXVXVXDXKXqX5X5XqXtXyX6X5X5X5X5X5X5X5X.XoX'.oXJXrX6X5X5X0X5X3XtXDXVXVXVXDXDXtX5X5XoXoXoX5X5XoX{.5X5X0X5X0XoXoXoXoX5X5X5X5XoXoX.X}.3X5X}.oXoXoXoXoXoXoXoXoX{.}.}.0XHX5X{.oXoXoXoX5X5X5X5X0XoX5X0XoXoX5XoX5XoXoXoXGXoX5XoXoXoXoXoXoXoX5X5X5X5X5X5X5X5X0X5X5X0XJXrX6X5X5X0X0X0XHX5X5XqXJXqX5X5X5XoXoX}.6XNXNX3XoXoXoX0X5XoXGXoXoX6XrXqX5X5X5XoX5X5X5X5X5XoX0XoX5X6X6X5XoXoXoXoX{.}.4X4X3X{.oXoXXXoXoX.XoXoXoX.XoXoXoX.XoX.XoXoXoXoXoXXX'.XX'.'.'.}.JXqXqX5XoX'.'.{.'.'.oX5XHXoX'.'. XXX X XXX X X X X X X X X X`. XXX X XXX X`. X X X X X X X X X X X X X XXXXX X XXXXXoX'.oXoXoXoXoX'.).). X`. X XXXXXXX X X XXX XXXXXXX X X XXX X X'.XXoXoXoXoX.XoXoX5X5X5X5X6X6XtXmXSXSXSXcXcXcXcXcXcXcXcXcXcXcXcXcXzXVXI.y  . .t c r e 8 2 4 4 < - 0 q t y wXIXIXzXdXkXkXkXkXkXkXkXkXkXkXkXkXkXkXkXjXlXxX&Xg.g.8.@XL.5 1 j q + q 4 4 ; 4 ; 4 #   $ % = & o % # # # & o - q # = & & & & & # & & & % % % = & = = = & & $ & # $ $ & $ $ # $ # # # # # . - 7.W.IX$XUXNXIXtX%X;X,Xg.",
"N.N.6.6.6.6.6.M.OXOX`.`.OX_.U.).OXc.| = % < = * = * * = = = = = = = 2 = = & 4 = $ . . &   i ^ q O w r D d e W 3XtX;X>X7X>X7X4X' Y t O 1 9.AX&X^ 1 9 8 4 ; ^ Q.V B g.SXcXcXzXzXcXzXzXzXzXzXzXkXkXzXkXkXzXzXzXcXkXzXkXcXkXzXkXkXzXcXcXFXVXVXlXVXDXbXeXi . B IXa.C eXVXlXxXcXzXcXcXcXzXzXkXzXkXkXzXzXzXkXkXzXkXkXkXkXkXkXkXkXkXkXkXkXkXkXzXxXlXlXlXVXnXnXbXbXeXeXeXwX7X7X6XqXqX0X6X6X9X8XaXsXlXkXkXkXkXkXzXkXjXkXjXkXkXkXkXkXkXkXkXkXkXkXkXkXkXzXkXkXkXkXkXkXkXkXzXkXjXzXzXkXkXkXcXcXkXcXxXkXzXkXzXSXVXbX>XeXtXJX6X3X].3X3X1XqX1X].3X1X3X].}.{.5X}.}.4XMXnXnXbXeXbXmXVXVXBXBXBXmXVXVXmXVXVXDXmXmXnXDXNX6X5XHX5X5XwXtX6X5X5X5X3X5X5X5X5X'.'.5XrX6X6X0X5X5X5XwXDXDXVXVXmXVXVXNX6XoX5X5XoX5XoXoXoXoX.XoX0X0X5XoXoX5X5XoX5XoXoXoXoX.XoXoXoXoXoX.XoX.XoXoXoXoXoX.X{.}.5XqX6X5XoXoX5XoXoXoX5X5X5X5XoX0X5XoX5X5XoXoX5X5X5XoXoXoXoXoXoX5XoXoXoX5X5XoX5X5X5X5X5XJXJXJX5X5X5X0X5XoXHX0X{.5X5X5X5X0XoXoXoXoX3XtXMX4X}.oXoX6XqX3X5XoX5XoX3XtXwX5X5X5XoXoX5X5XoX5XoXoXoX5XJXJX0X5X.XoX5X3XrXBXDXMX2X3X.XoX.XoXoX5XoXoX.XoXoXoX5XoXoX{.{.oX{.oXoXoX'.oX.X'.}.5X1XqXKXJX3XoX'.'.'.'.'.0X0X5X{.oX'.XXXXXX X X`.XX X X XXX XXX X XXXXX X X X X X X X X X X X X X X X X XXX XXX'. XXXoXoXoX.XoXoXoXoXXX'.'.).).).XXXXXX`. X).'.oXXX'.XX X X XXX X X).'.'.XXoXoXoX5XoXoXoXoX5X5XoX}.2XtXBXSXVXcXcXcXcXcXcXcXcXcXcXcXcXcXxXAXe.^ S.l 1 1 1 6 2 4 7 $ B @XV B a.IXjXh.FXIXcXjXjXkXjXkXjXkXkXkXkXkXdXkXkXkXjXjXlXlXjXFXa.X e e < 1 - ; - ; ; ; & & 5 B - O & % # # #   . o   C.9.  = & # * & = & & = * & & & $ # . . & $ # # $ $ # #     $ $ $ # # . o $ o . d.7XW.%XW.f.8.u f.*Xg.g.",
"B.N.M.6.6.6.6.N._._.OXOX`._.B.N._.*.8 2 2 > = * 2 * * = > > = = = = 4 4 4 = ; $ 4 4 6 = 6 = . & 1 e ! B.~ P F.rXwX7X7X7X7XwXZ.Y p.C O o . i q O 4 7 9 6 q &XgXV B ;XIXAXnXxXkXzXzXkXzXkXzXkXkXzXzXzXzXzXzXkXkXzXcXkXkXcXcXkXzXkXcXcXg.a.BXmXAXa.^ PXY . B 9.- 7XAXlXnXVXVXlXlXcXcXzXcXkXzXkXlXkXzXjXzXkXzXkXkXkXzXkXzXzXzXkXzXzXkXlXxXlXVXlXmXnXnXeXeXwXtXwX9X9XeXnXnX7X6XqXqX6XqX6X9X7X8X,XgXlXzXkXkXkXjXkXzXkXkXkXkXzXkXkXkXkXzXkXkXkXkXkXkXkXkXkXkXkXzXkXzXzXzXkXzXzXzXzXcXcXcXxXVXgXhXcXSXlXaX,X8XMXPXeXrX6X6X5X3X].qXrX3X}.3X3X3X5X5X5X}.3XrXMXnXbX,XbXAXBXFXVXVXVXVXVXVXVXVXmXmXbXbXbXVXVXBXrX5XGXHX5X5XrXrX5X5X5XqX6XqX6X5X0XoXoXHXrX6XqX0X5X5X4XDXDXDXBXBXVXVXmXBXtX5X5X5X5XoXoXoXXXoXoXoXoXoXoX0XoXoXoXHXoXoXoXoXoXoXoX0XoXoXoXoXoXoXoXoXoXoX.XoXoXoX}.6XJXJX5XoXoXoX5X5XoX5X5X5X5X5X5X5X5XoX5X5XoX5XoXoXoXoX5XoXoX5X5X5X5X5X5X5X5X5X5X5XHXJX0X3X6X0X5X0X5X5X5XoX5X5X}.5X5X0XoXoXoX5XrXNXtX3X5XoXoXrXJX5XoXoXoXoX3XtXtXqX5XoXoX5XoXoX5X5XoX5XoX5XJXJXqX0X5X5X5X6XyXVXVXDXBXeX3X5XoXoXoX5XoXoXoXoX.X.X{..XoXoXoXoXoXoXoX.XoXoXoXoX{.oX].}.JXJX5X5XoXoX'.'.{.{.}.5X0X5XoX.X'.XXXXXX XXXXXXXXXXXXXXX'.XX'.'. X XXXXXXX XXXXX X X X X X X XXXXXXXXXXXXXXX'. XXXoXoXoX'.oXoXoXoXXX X X X X X'. XXX'.0XJXHX.XXXXXXX XXX X). X X'. X'.XXoX5XoX5XoX5X5X0XoXoX5X5X3XwXeXnXSXSXcXcXcXcXcXSXcXcXcXcXlXhXIXIXIXg.8.7.5 4 6 6 7 & i IXmXhXFXDXg.V 8.8.h.kXkXkXkXkXkXkXkXkXkXkXkXkXkXkXjXjXdXpXk.xX8.  + O   . m - . $ $ 5 5 . ^ 3XX & & o * % . B B X B #XC . * & & < = * & & & & * = * $ - B i . & = $ # . $   l l   . . # $ # $ $ = .     B }.s.PXPX!.!.g.j.g.",
"N.M.M.6.6.3.6.~.~.B._._._.N.N.~.T & % , 2 = 4 = & = = = > = = & 4 = = = = 4 4 < = ; = > 4 1 2 e F 0.R.HXGX5X6X1X4X7XeX7X$X7XH.C C e.7.l 4 O 4 9 p 4 6 < q f.>XQ.NXPX9.l Y bXVXlXlXlXzXlXzXlXzXkXkXzXzXkXlXlXzXlXzXlXlXlXzXzXxXhXhXgX8XNXbX8XAXd.B Y q = 5   ^ eXnXnXbXbXbXbXnXhXlXlXlXzXzXkXkXlXkXzXkXkXcXkXkXkXkXkXkXkXzXzXzXxXxXhXnXmXnXnXnXMXtX8XeX7XtXeXeX8XnXFXFXDXbX2X6X6XqXqX6X6XrX9X7X8XbXgXlXzXkXkXkXkXkXkXzXkXkXkXkXkXkXkXzXkXkXkXkXkXkXkXkXkXkXkXzXkXzXcXcXlXVXgXeX,XeX7X9X4X>XnXnXvX7XtXKXtX2X1X3X3X5X3X5X3X6X3X].}.5X}.3X5X5X3X4XeXBXnXbXbXBXDXDXBXmXmXmXmXmXVXVXVXVXMXwX6X7XnXVXDXtX5X5X5X5X5X6XrX6X5X5X5XqXqXqXqXqX5X5X5X6X6XqX6X6X6X6XNXDXDXNX7XMXDXVXBXbXbXwX6X5X5XoX.XoXoXoXoXoX.XoX.XoX.XoXoXoX5XoX.XoXoXoXoX}.5X5X}..X{.oXoXoXoXoX.XoXoXoXoX5X5XqXJXqX5XoXoX5XoXoXoX5X5X5X5X5XoX5X5X5X5XoXoXoXoXoXoX5XoXoX5X5X3X5X5X5X5X5X3XqXJX5X5X5X5X5X5X5X5X5X5XHX5X5X5X5X5X5XoXoXoX3XtXtX6X}.oX5XoX6X6X}.5X5XoX5X3X4XrX6X5X5XoX5X5X5X5X5X5X5XoXoX5X6X5X5X5X0X5XrXNXeX;XeXNXNXtX3XoX5XoXoXoXoX.XoXoXoX.XoX.XoXoXoXoX'.oXoXoXoX.XoX'.'..X{.}.}.{.5XoXoX'.'.'.'.'.{.5X0XqX5X].{.'.XXXX X'.XXXXXX'.XXXX'.'.'.'.XX XXX XXX XXX X X X X X X XXXXXXXXXXXXXXX'.'.'.'.XXXX X'.'.oXoXXX'.'.XXXX'.XX X'.oXJXPXLXqXoX'.XXXX X XXX X XXXXX XXX'..X0XHX5X0XoXoXoXoXoXoX5X5X3X6XrXNXDXVXcXSXcXcXcXcXxXxXhXhXnXnXnX&Xj.IXl = 4 4 4 1 - V 7.eX8.7.+XK.a.Z sXk.k.kXkXjXkXkXkXkXdXkXkXdXkXjXjXdXdXdXk.jXj.V ^ ' 9.q k B 9.e.X ; q X d.7.  . - : # # - 7XPXC . . . & % # % * * % % & % * % % * $ 5 oXP.- . > # - q . . i .XC 0 i   $ $ . $ o .   . . t   ^ BXaX*X!.g.g.",
"N.M.M.6.6./ / 3.~.OX~.~.~.~.OX=.> 2 6 > 6 4 ; = = = = = > = 2 = > < # # = & h U 4 7 9 = + U B M ).HX.XE.3X1X4X2X4X$X4X7XwX$Xf.H.i.l e.K.' l j 7 9 7 9 8 7 : : 0 7.7.h Q S.MXbXbXbXgXgXgXgXgXhXhXlXlXlXlXhXhXlXhXgXgXgXgXbXbXbXbX8XnX$X9.JXeXeXeXJX7.$ 6 q l rXL.n.PXeXeXtXeXeXeXbXbXnXgXlXlXcXkXkXkXkXkXzXzXzXkXkXzXzXzXxXxXVXnXbXbXeXbXnXnXnXbXbXbXbXbXMXBXBXnXnXmXmXnXDXBX9X4XqX4X4X9XrX9XrXrX9X7XeXgXlXlXzXkXkXkXzXkXkXkXkXkXzXkXkXkXkXkXkXkXkXzXzXkXkXzXzXkXxXhXbX8X4X2X4X4X4X3X6X3X$X;X:X,XtX4X4X1X3X3X5X5X3X3XqX3X1X].3X5X5X5X5X5X6XrXNXBXNXwX4XwXDXDX8XeXVXDXDXmXVXmXVXNXyXqX6X4XnXDXVXNXqX5XHX5X5X6XrXrX6X5X5XqXqX6X5X6XqXqX0X6X0X5X0X0X5X5XyXAXVXBX4X1XrXBXVXnXnXbXNXNX6X3XoXoXoXoXoXoXoX0X0X5X5X5XHX5X5XoX5X5X5X5XoXoXoXoX5X5X5X}.oXoXoXoXoXoXoXoXoXoX5X}.5X6XJXJX0XoX5X5X5XoX5X5X5X5X5X5X5X5X5X5X5X5X5X5X5XoXoXoX5X5X5X3X6X5X5X5X5XqXJXHX5XoX0X5X0X5X5X5X5X5X5X5XHX5X5X5X5XoX}.3XrXwX4X}.5X5X0XoX5X5X5X5X5X5X5X3X5X5X6X5X5X5X5X5X0X5X0X5X0X5X5X5X5X5X0X5X5XqXJXPXNX$X2X#XtXPXrX5X5XoX5X5X5XoX.XoXoXoXoX.XoXoXoXoX.XoXoXoXoX.X{.oXoXoXoX.XoXoXoXoXoXoX'.'.oXoXoX'.5XqXrXqX5X{..X'.XXXXXXXXXX XXX.XXXXXXXXXoXXXXXXXXXXXXX X XXXXX X X X XXXXXoXXXXXXXXX X'.XX XXX X X'.XX.XXXoXXX'. XXXXXXXXX5XLXJXJXLX5XXXXXXXXX XXXXXXXXXXXXXXX'.XXXXXX.XoX0X5XoX0X5XHX5X5XHX0X5X0X4XeXBXVXxXVXVXVXxXlXDXDXnXPXUX=Xg.f.q > 6 4 > 7 1 O   i -   1 . y mXcXjXjXkXkXkXcXcXkXkXkXkXjXkXlXjXjXdXdXpXpXk.hXVXVXnXIX7.. 0 8.IX7.X 5 C 3Xi X B ^.e.    ^ BXIXi   & & & % * & & % % & = = * & * * = # i 6X#Xl .   i t.. # . X P.JXJXB   . - % 5 ' d.f.B $ 9 C.vX!.*X*X&Xj.",
"N.~.N.3.3./ A w [ 6.~.6.3.K H 8 & , 2 & & # $ $ = = = * = = = < < & h O.h o 5 m + 7 u.@.P G.'.9.].5X3XE.}.P.1X6XJX9X7XW.7XQ.a.+XyXY + y y - $ O = 4 7 8 5 q i q C 9.L.KXNX7X8XeXeXeXeXeXeXeXeXbXbXbXnXbXbX8X8X8X8X7X7X7X7X9X7X7X7XeXrXm Y PXNX,XIX9.= > q +XIXC A PX7X7X7XtXwXwXeXeXeXeXbXgXlXlXkXjXzXkXzXkXkXcXcXlXlXhXnXnXbXbXbXeXMXeXNXBXBXBXmXmXmXnXBXbXbXeXeX7XeX4XeXAXNX4X4X4XrX4X9X9XrXrXrXrXwX7X8XbXnXgXlXlXkXkXkXjXkXkXkXkXkXkXkXkXkXkXkXkXkXzXkXjXlXsX>X4X4X4X6X3X6X6X6X6X5X1X$XbXnX7X4X}.}.5X6X5X5X3X5X3X3X3X3X5X5X5X}.3X}.3X4XeXNXwX4X].5X2XBXBXbXNXVXVXmXVXVXmXBXtX5X5XrXeXBXVXNX6X0X5X5X5X6XtXtX9X6X5X5XqXqX1X3X}.6XrX6X6XqX5X0X5X6XrXNXnXVXwX1X3X6XwXBXBXnX8XnXAXNX4XoXoXoXoXoX.X}.qXJX0X{.oXHXHX5X5X5XoX5X5XoXoXoX{.}.5X0X5XoX{.oXoXoXoXoX5X5XoXoXoX}.}.5XqXJXqX5XoX5X5X5X5X5XoX5X5X5X5X5X5X5X5X5X5X5XoXoXoX5X3X1XtXtX1X5X5X5XJXJX5X5XoXoX5X5X5X5X5X5X5X5X5X5X0X5X5X5XoX3X4XeXrX3XoX5X5XoX5X5X5X5X5X5X5X5X5X}.oX5X5X5X5X5X5X5X5X5X5X5X5X5X5X5X5XoX5X5X3X6XPXPX7X#X1X1XrXtX3XoXoXoXoXoX.XoX.XoXoXoXoX{.oX5X{..X.XoXoXoX.X.X.XoXoXoXoXoXoXXX.XoXoXoX{.{..X.XoXoX3XqXqXrXqX5X].{.'.oXXXXX'.XXXXXXXXXXXXXXXXoXXXXXXXXXXXXXXXXXXXoXXXoXoXXXXXXXXXXXoXXXXXXXXX X'.'.'.'.'..XoX.XXXXX'.XXXX'..XHXLXKXHXoX'. X'.XXXX XXX'.XXXXXXXXXXXXXX'.'.XXXXXXoXoXoXGXGX0XoX5X5XGX5X5X4XwXMXmXgXgXgXbX7X#XIXS.9.4XPX^ O 3 2 4 > 4 1 h h Y i.B . 1 a.cXk.dXkXjXkXVXaXuXcXlXlXlXdXjXjXjXdXjXdXpXpXpXpXiXiXh.hX8.  ^ f.8.Q.V l - 5 . X 8.@X8.B q d.a.C . = = & * # # & & % & % & & % * & % & & . i 7XKX7.- - ^   . #   X 7.eXbX7.V 9.  . B eXMX4Xq B tXaX*X:Xg.&Xg.",
"_.5.N.M.} } d w w w z s w % * 2 9 * 2 8 o Q B . < = > * > > > > < & k m. .$ 5 t l $ B v.].K.i.i.G.G.3X3X5X].3XV.O.S.JX$X%X%X>Xa.f.K.B O q Y 7.e.C > 8 4 h d.%XQ.>XeX8X@X7X>X7XeXeX7XwXwXtXwXwXwXtXwXwXwXwX9XwX9X9X4X4X4X9X9XrX9XwX9XtXJXC ^ JXNXe.- 4 4 l PXyX^ q.tXwXwXwXwXeXwXwXwXwXwXeX8XbXgXhXlXzXzXcXzXxXxXVXnXbXbXnXbXnXnXNXbXBXbXnXBXNXbXbXbXbXbXeX7X9X4X4XrXrX4X4X9XtXwX4XrXwX9XwX9X9X9XwXwXwXrXwX7X7X7X8XbXVXlXkXjXkXkXkXjXkXkXkXkXkXkXzXkXkXkXcXlXvX7X4X1X3X6X6X3X3X6X6X3X3X4XMXBXtX4X3X5X5X3X5X3X3X5X6X3X5X3X5X5X5X5X5X3X3X6XyXwX2X1X5X3X4XtXBXVXDXDXVXVXDXBXBXNX9X3XqXqXeXDXDXtXqX5X0XHX5X5XrXyXKXrXqX6X6X5XrXrXqX3X0XqXrXrXJXqX0X6XrXNXMXnXAX9X}.0X6X4XtXNXNX7X4XbXBXNX6X}.oX5X0X5X5X3XJX6X.XoXoXoX5X5X5XoX5XoXoX5X5XoX5X}.3X3X5XoXoXoXoXoXoXoXoXoXoXoX5XoX5X}.6XJXJX0XoXoX5X5X5X5X5X5XHX5X3X5X5X5X5X5X5X5X5X}.oX3XwXNXyX3X5X5X5X5X5X5X5X5X5XoX5X5X5X5X5X5X0X5X5X0X5X5XoX5XrXKXtX3X5X5X5X5X5X5X5X5X5X5X5X5X0X5X5XoX5X5X0X5X5X5X5X5X6X6X5X0X5X5X0X5X5XoXoXoX3XwXKXAX4X^.(.#XtXqX}.oX5XoXoX5X5XoX5XoX5XoXoXoX5X5X}.oX5XoXoXoXoXoXoXoXoXoXoXoXoX.XoX5XHX5XoX{.oXoXoXoX5X3XqXrXqXqX5X3XoX{..XXXoXXXoXoXoXXXoXoXoXoXXXXXXXXXXXXXoXoXoXoXXXoXXXXXXXXXXXoXoXoXXXXXXX X'.XXXXoXoXoXoXoXoX.XoXoXoX'.oX5X0X5XoXXXXX XXX'.XXXXXX XXXXXXXXXXXXX XXXXXXXoXoXoX'.'.oXoXoXGX0XoX5X5XoX5X4XeXbXbX<XKXQ 1 O.t O e 5 % 3 3 > 4 4 , 1 U l t i.e.^ f.DXdXdXdXdXpXcXnX@ ` FXhXlXlXlXlXzXcXjXdXdXjXpXpXiXsXsXuXgX&XV 9XAXg.8XAX^.0 + X V <X7.e.Y q $   . = > < $ * & & & = & = & * * * & * % % & = . - ' rXH.^ a.7.i   . .   8.gXnXg.bX^ i   7.:X&X,X8X:X&X-XaX!.&Xg.",
"! 1 _ %., r a r 9 3 3 % 8 8 6 , # 6 a O h _.k o < = = > = > > = > , & h w.+._ l v.m q Y ].].].S.].E.}.S.S.P.6X9.. 1 O.1XrXP.2X9XL.f.d.^ e.PXeX%XQ > 6 , h f.f.8.@Xg.Q.Q.$X>X7X7XwXwXwX9XrXwXrX9XrX9XrX4X9X9X9X4XrX6X4X4X4XrX9X4X9X9X4XrXR.m ' 6X#Xl 6 4 h B 0 L.PX9X9XwXwX7XwXwXwXwXwXwX9XwX7X7XeXeXbXnXnXmXmXbXbXbXnXnXmXnXnXbXnXBXnXbXnXbXeX7XeX8X8XtXtX4X4XrXrX4XrXrXrX4XrX4X4X4XwXtXwX9X4X9XwX9XwXrXwXrXrX9XrX7X8XbXgXhXzXkXzXkXkXkXkXkXkXdXkXzXxXhXaX8X7X4X6X3X6X1X1X3X6X3X4X6X6X4XwX4X1X3X5X3X3X3X3X5X5X3X5X5X5X3X5X3X3X5X6X4XqX6XqX9X4X2XwXeXBXAXVXmXVXmXVXBXAXNXyX9XqXqXrX7XBXVXNX6X5X0X0X5X0X5X6XJXrXqX6XqXqX6XyXKXJX6X5X6XqXrXHX6X6XtXAXNX8XNXNX6X5X5X6XrX6X4XtX4X(.9XMXBXtX4X5X5X0X5XoXoXqXHXoXoXoXoX5XoXoXoXoXoX5X5XoX5X5X5X}.}.5X5XoX}.oXoX}.oX5X5X5XoXoX5X5X}.3X3XqXHX5XoXoXoX5X5X5X5X5X5X5X5X5X5X5X5X5X5X5X}.}.4XKXtX1X3X5XoX5X5X5X5X5X5X5X5X5X5X5X5X5X5X0X5X5X5X5X5X5X5XrXrX6X3X5X5X5X5X5X5X5X5X5X5X5X5X5X5XoXoX5X5X5X5X5X5X0X5X5X5X0X5X5X5X5X0X5X5X0X5X5X3XNXBXNX;X#X#XtXrX3X}.oXoXoXoX5X5XoXoX5XoXoX{.5X5X}.}.oXoXoXoXoXoXoXoXoXoX.X.XoX.X{.oX5X5X5XoXoX{..X{.].3X5X}.5X6XqXJX0X}.{..X.X.XXXXX.XXXoX.XoX.XXXXXoXXXXXoXoX'.XXXXXXoX.X'.XXXXXXoX.XoX.X.XXXoXoXXXoXoXoX.X.XoXoXoXoXXX.XoX{.'.'.'.oXXXXXXXoXoXoX XXXXXXXXXXXXXXXXXOXXXXXXXXXoXoXXXXXXXXXXXoXoXoX'.'.{.oX6XwX7X8XeXJXi.t 1 % , w 3 3 3 3 , 1 > 4 7 k 9 1 O + 8.FXuXiXdXcXVXIXAXB i 7XBXbXnXnXsXgXvX&XnXxXpXpXk.pXsXsXsXsXuXnXPXbX!.gX,XQ.KXL.9.' a.a.7.B   . o $ = > O # & $ & & # & & % * & & & & & & & & % * %   $ 0 V e.Q.eX' . o   0 aX*Xg.g.vXbXa.g.&Xg.g.g.g.&Xg.g.g.g.g.",
"v f Q # . # 4 = & 6 p 7 e 6 7 r e ~ ~ 4 U k . > = = = > > * > > > > 2 & 9 @. XO.^ B 0.Y. XR.HXD.Y.oXoXG.{.S.P.3XY O > B _ B B ^ 9.H.qX9.l l 0 - ; 6 e > h d.$X@X>X;XeX$X>XeXeX7XrX9XrXrXrX9X9X9X9XrXrX4X4X6X9X9XrX9XrX4X9X4X9XrXrX4XJXs.l N g h i.' 2 s r . l rXwXwXwXwXwXwXwXwXwXwXwXwXwX9XwXrX9X9XwX8XeXeXeXeXeXMXDXVXVXmXmXmXDXFXVXbXnXnXbXeXeX8XeXeXwXrXrX4XrX6XrXrXrXrXrX4XrX4XrX7XrX9X9X9XwXwXwX9X9X9XwXwXrX9XwX7X7X,XvXsXlXzXzXkXzXkXkXjXlXlXgX>X4X6XqX3X3X6X6X4X3X3X4X6X6X6X6X1X1X1X5X5X5X3X3X5X3X6X6X5X6X6X3X3X5X3X6X6X6XqX6X}.}.1X7XbXBXnXBXBXDXVXDXBXKXtXwXrXrXrXJX6X7XBXDXBX4X5X0X5X0X0X0X5X6X4X6X5X0X0XqXrXrXqX6X5X6X6XqX6XqXrXNXBXDXNX7XNXNX4X6X6XqXqX}.].rXrX2X4XyX8XNXtXwX5X5X5X0X5XHX0X0XoX5X5X5X5X5X5XoXoX5X5X5X5X5X5X3X3X5X6X0X5X5X5X5XoX5X5X5X5X5X5XoXoX5X}.3X3X5X5X5X5X5X5X5X5X5X5X5X6X6X5X5X5X5X5X5X5X5X5X6X6X3X5X5XoX5X5X5X5X5X5X5X5X5X5X5X6X0X5X5X5X5X5X5X5X5X5X5X3X5X5X5X5X5X5X5X5X5X5X5X5X5X5X5X5X5X5X5X5X5X5X5X0X0X5X6X6X0X0XqX0X6X5X5X5X0X6XqXqXNXnXBXnXbXbXBXNXrX3X5X5X5XoX5X5X5X5X5X5X}.oX5X5X3X}.}.}.5XoX5X5XoX5XoXoXoXoXoXoXoX.XoXoXoX5X0XoX}.JXJX#X5XoXoX].5XrXJXqX3X{..XoX.X.X.XoXoX.XoXoXoXoXoX.X.XoX.XoXoX.XoXoXoXoXoX.XoXoXoX{.oXoXoXoXoX.X.X'.'.'.oX'.oXoXoX.XoX.XoX'.oX'.oXXXXXXXoX5XGX.XoXXXoXoXXXXXoXXXoXXXoXXXoXoXoXoXoXXXXXoXoXXXGXJXHXoXoX1XrXwXwX9X7X6XG.y.O.m , e w > 3 > 4 > 6 1 O . 4 k ^ 8.g.j.nXmXAX7.^ B i wXAXnXbXNXNXMXMXKXC i e.BXVXhXpXiXiXaXaXaXaX&XbXmXIXbXnXAXIX<XV X X   $ . # & $ . & & & $ # & & & & % & & & * * % & & * # % * * , * . . . - i C q : i V W.!.*X-Xg.&X*X&Xg.g.g.&X&XaX-Xg.g.8.g.",
"J 4 U ; 5 = . t v ; 7 7 = . p 2.v ) ~.E > # = & * * = * * * * * * 2 > = > = Y m. Xn.O.F.v.t m m t Q u.O.D..XHXJXLX9.l , e e x 7 ; 1 Q ^ - - : = 9 , 3 6 4 q C O.' e.3X4X9X2XtX7XJXrX9X9X9X9XrX4X9X9X4X4X4X4X6X9X4X9X9X4X4X4X4X9X4X4XrXJXP.Q f r 7 7 , p t 9 ^.tX4XwXwX7XwXwXwX7XwXwXwXwX9X9XwX9X9XrXrXwXwXwXtXwXtXtXbXnXNXbXnXDXIXFXDXnXnXBXBXnXbXbXnXeXtX9XrX9X9X4XrX6X4X4XwXrXrX4X9X9X9X4XrX9XrXwXwXwXwX9X9X9X9XwXwX9X9X7X7X7XeX,XgXlXzXkXlXhXgX7X9X4X4X3X3X4X6X3X3X4X4X3X1X4X6X3X3X3X3X3X6X3X3X5X5X3X3X3X5X5X6X3X5X3X3X5X6X5X5X3X}.].1X4XbXnXVXNXtXtXNXAXNXyXrX6X6XrXJXJX6X4XMXBXNX9X3X5X0X5X6X6X6XqXrX6X6X6XqX6X6XqX6X5X5X6XqX6X6XqXwXMXDXVXBXtX7XMXtX6X5XqX6XqX}.].rXKXeXrXtX8XeXMXMXtX6X5X5X5XoX5X5X5X5X5X5X6X5X5X5X}.oX5X5X5X5X5X5X5X3X5X0X0X5X5X5X5X5X5X5X5X5X5X5X5X5X5X5XoX5XoX5X5X5X5X5X5X5X5X5X3X5X6X6X6X6X3X3X}.oX3X5X}.5XoXoX5X5X5X5X5X5X5X5X5X5X5X5X6X0X5X5X5X6X5X5X5X5X5X5X5X5X5X5X5X5X5X5X5X5X5X5X5X5X5X5X5X0X5X5X5X5X5X5X5X5X0X6X5X5X0X0X0X6X5X6X5X5X6X5XqXtXMXmXnXBXBXnXVXMXwX6X3X5X5X5X5X5X5X5X5X5XoX5X5X}.}.5XoXoXoXoX5X5XoXoXoXoXoXoXoXoXoX{.oXoXoXoXoXqXUXUXKX}.oX'.oX.X3XqXJXrX3X3X].{.{.oX.XoXoXoXoX5XoXoXoXoXoXoXoXoXoXoX.XoXoX.XoXoX.X'.'.oXoX.XoX.XoXXX'.oXXX'..X'.'.oX'..XoX.XoXoXXX'.XXXX'.'.oXoXoXoX.XoXoXoXXXoXXXXXXXXXXXXXXXoXXXXXoXXXXXXXOXm.;.c.OXHX5X4X4X7X4X1XA.p.n.HXm.r > , > , > 1 > < $ i C 0 ^ UXAXbXKX1X^ C q - i %XPXeXbXNXeXMXMXeXPXqXY 1 l d.%XNXAXDXbXvX:X&X,X>Xa.a.;XAX@Xf.@X%X1XY O 2 6 8 = ; ; = # # # & # & & * % % % * % * % & $ % & * # % * & & 2 & % . . $ ; t B q B e.$X$XbX:X;XMX,X:XQ.a.a.a.@Xf.f.wX",
"=.c v r v 5 h m.LXQ . < v ! ! o.T.N...8 % , > * * * > = < > = > > * > > 6 , & q ^ O.l P _ l m r.m 2 f e h l ' ^ 7.P.G.Q m e G x U Y Y A.rX4Xd.l > 3 2 > > , 4 & & B ^ U ^ 9.yXKXI.3XrX9X9X4XrX9X9X4X4X4X4X6X4X4XrX4X4X4X9X9X9X4X9XrX9X9XPX}.7 a z r p p t B 4XeX7XwXeXwXwXwXwXwXwX7XwXwXwXwX9XwXrX9X9XwXtXwXtXyXtX9XrX9XtXtXMXBXFXFXFXDXDXmXBXBXBXmXVXmXMXeX7XtXtXwXrX6X6X6XtXrXrX9X9X9XwX4XrX9XwX7XwX7X9XwXwX9XwX9X9X9XwX9X9XwXwX7X7X,X,XbXeX7X9X4X6X6X1X3X4X4X6X4X6X4X6X3X4X4X4X3X3X3X6X3X3X6X3X3X5X6X6X4X6X6X5X3X3X3X5X3X5X3X5X3X1X4XtXBXDXBXtX4X6X4XyXNXtXyXtXrXJXrXqX3X4XbXBXMX4X3X5X5X0X6XqX6XqXJXJXrX6X0XqX6XqX6X0X5XHX6XrXrXqXwXNXmXVXVXNX4X9XBXtX3X5X6XqX5X5X}.6XyXwXrXNXtXtX8XtXMXtX6X5X5X5XoX5X0X0X5XqX0X0X5X5X5X5X5X5X5X5X5X5X5X5X5X6XqX0X5X5X5X5X5X5X5X5X5X5X0X5X5X5X5X5X5X5X5X5X5X5X5X5X5X5X5X5X3X3X6X6X6X5X].}.}.5X5X5X5XoX5X5X5X5X5X5X5X5X5X5X5X0X5X5X5X0X6X6X6X0X5X5X5X5X5X5X5X5X5X5X5X5X5X5X5X0X5X5X5X0X5X0X5X5X0X5X5X5X5X0X0X0X5X5X5X5X5X6X6X0X6X5X0X6X3X6XtXBXnXnXnXmXnXBXNXtXrXrX3X5X5X5X5X5X5X5XoX5X5X3X5X5X5X5X5X5XoX5X5X5XoXoXoX5X5XoXoXoXoX5XoX5X5X3XPXIXqX}.5XoXoXoXoX5X5XqXrXqX6X3X].}.oXoX.XoXoXoXoX5XoXoX5X5XoXoX5X5XoXoXoXoXoXoXoXoX{..XoXoX.XoXoX.XoXoXoXoXoXXX.XoX'.oXoXoXoXoXoXoXXXXXoX.X'.oXoXoXoX5XoXoXoX'.oXoXXXXX XXXXXoXXXXXXXXXXXXXOX! , S F U.JX6X3X6XqXJXm.I , 9 ; , 8 w 3 3 , 4 4 < . e.PXK.l C B C B 5 , 7 B L.KXNX8XMXtXMXtXMXtXtXtXJXKXp.l f l C C 9.1XPXeXeX>X;X8.a.f.8.7.f.$XrXe.5 = * * = * = # # # & & & & & * & & & % = & & & * & & & & & & # * # # & = & * # # . . o # # q C ' Y B ^ K.qX^ q 1 - i - q B ",
"M.M.5.T e % l.LXHXB.U N.B.OXc...2.t # , 3 * * * > * * > 1 < > > > > > > > > 7 = & O < % 9 y. .@.Q 7 , m U h q - y 9.5X5XF.Q h 1 ^ p.Y B ' C i = * * 2 * 6 8 9 7 7 t.s.Y Y K.PXI.Y 5XtX4XrXrX4X9X4X4X4X4X6X4X4X4X4X4X4X4X4X4X4X9X9X4XrX2X4XJX9.h 7 9 p , 1 d.Q.Q.eX7XwX7XwXwXtXwXwXwXwX9X9X9XrX9X9XwXrX9XrXwXwXwXrX9XqX6XrXrXwX8XnXBXBXNXNXeXeXeXMXVXVXVXVXBXBXnXnXeX7X4XrX6X6XrX9XwXtX7X9X9X4XwXwXwX9X9XwX9XwX9X9X9X9X9X9X9X7X7X9XwXwX9X9X4X4X1X3X4X3X1X6X3X6X3X3X6X6X6X4X3X3X3X6X3X6X1X3X3X6X3X3X3X3X6X6X6X6X3X5X3X5X3X3X3X3X3X1X4XeXnXVXmXbX9X4X1X6XtXNXbXNXMXKXJXrX5X5X6XtXbXMX9X3X5X5X5X6XqXqX6X6X6X6X6X6X6XqXHXqX6XqXqX6XrX6X9XtXMXVXVXmXVXeX2X7XNXrX5X5X5X0X3X5X}.3X4X2X4XNXMXeXtXtXeXMXtX6X3X5XoX5XoX5XqXqX6X5X5X5X3X5X5X5X5X5X5X5X5X5X3X3X5X6X0X5X5X5X5X5X5X5X3X5X5X5X3X5X5X5X5X5X5X5X5X5X5X5X5X5X5X5X5X3X3X3XqX6X3X3X1X3X3X3X5X5XoX5X5X5X5X5X5X5X5X5X5X5X5X5X5X0X5X5X6X6X0X5X5X5X5X5X5X5X5X5X5X5X5X5X5X6X0X5X5X5X0X5X5X0X5X5X5X5X5X5X0X5X5X5X5X0X5X5X5X5X5X0X5X5X3X6X4XtXBXBXnXnXnXnXbXbXNXMXtXrX5X5X5X5XoX5X5X5X5X5X5X5X5X5XoX5XoXoX5X5X5X5X5X5X5XoXoXoXoXoXoX5XoX}.}.}.}.5XoXoX'.oXoXoX.XoX3X6XJXyXqX3X}.}.oXoX{.}.}.}.oXoXoXoXoXoX5X5XoXoXoXoXoXoXoXoX{.oX.XoXoX.X{.oX{.oXoXoX.XoX'.'.oXoX'.{.oX.XoXoXoXoX'.oXoXoXXXoXoXoX5X5XoXoX.XoXoXXXXXXX XXXXXoX XXXXX'.XXXXb.;.r v Q ).HX0._ ~ E ! e , O , , , , 6 > , 1 4 . ' 7X/.h < B : . C C f.PXAXeXeXtXMXtXeXtXtXtXtXtXrXrXPXqXt.k z r r e Y ' {.O.HXUXUXUXPX].K.B X . . # # o o # . # & $ & # & & # & = # & % & = * # = & * # & # # % # # * # % # & # % % % % * o # . . . O . O - + h U t q q 5 1 ",
"M.M.N.M.=.c W W Q >.c.HXOXOXX.3 * , 3 3 2 = * * > > > * > > > > > > > > > 2 4 4 4 ; 9 4 < m -   - & % m  .m P @.0XJXqXI.1X}.u.m ; q m h O . # * 3 , * * ; = O l B C d.L.9.d.e.C A.JXrX9XrXrX9X9X9X6X9X9X4XrXrX4X9X9X9X9X9XrX9XrXrX9X4X2X2X1X9X1X' ; p 7 B KX>XQ.7X8XKXKXtXwXwXwXwX7X9X9X9X9XrX9X9X9XrXrXwXwXrX9XrXrXrXrXrXwXwXwXeX7XtXeXeXwXwXwXtXBXVXVXVXVXVXmXBXnXbXtXwXrXrX6X6XrXKXtXwX4XrX9XwXwXrX9XwXwXwX9X4X9XwX9X7X7XwX9XrXqXrX4X4X4X6X6X6X3X6X4X6X4X3X4X4X1X6X1X3X3X6X3X3X6X6X4X4X6X6X4X4X3X3X3X6X5X3X3X5X6X6X3X3X3X3X4XeXnXVXnXbX7X2X2XrXtXNXAXNXNXNXtXrX5X5X5X6XtXnXeX4X3X5X5X5X5X0X6XqX6X5X5X5X6XqXqXqXqXHXqXqX6XqXqXrXwXNXBXmXmXVXVXMX7XtXNX6X5X5X5X5X5X0X5X3X6X6X6XrXNXMXtXtXtXMXMXwX6X5X5X0X5X5X5X6X5X5X5X5X5X5X5X5X5X5X5X5X5X5X5X5X3X6XqX0X5X5X5X5X5X5X5X5X5X5X5X6X6X6X5X5X5X5X5X5X5X5X5X5X5X5X5X5X3X3X3X6XqXrXtXtX4X3X3X5X5X5X5X5X5X5X5X5X5X0X5XHX5X0X5X5X6XqX0XqX6X5X5X0X5XqX6X0X5X6X6X6X6X6X6X6X5X3X5X0X5XqX5X0X0X6X5X5X6X0X0X6X5X0X6X5X5X5X3X0X6X5X5X5X5XqX6XrXtXMXeXNXBXnX8XeXNXBXBXNX7X6X3X5X5X5XoX5X5X5X5X5X5X5X5XoX5X5X5X5X5X5XoX5X5X5XoX5XoX5XoX5X5X0XoXoX5X0X5X5XoXoXoXoXoXoX{.}.3XqXrX3X}.}.oX5X5XqX6X5X3X5XoXoXoXoXoXoX5X5X5XoX5X5XoXoXoXoXoXoXoXoX.XoXoXoX.X.XoXoX.XoXoXoX'.'.oXoX{.oXoX.XoXoXoXoXoXoX{.oXoXoX5X5XoX5XoXoXoXXXXXXXXXXXXXXXXXXX XXXOXm.U ;   j | r , w 1 w O , > 7 4 7 , 6 > > 2 2 > & - q Q ^ 1XyXf.].^.IXAXAXbXeXeXtXtXtXtXtXtXtXtXyXrXrXrXPX}.Y , c e e = 4 . < t B B m 4 6 O O # & * & % * # = & & & & & & & & = & & & & & & & & & & & * % # * # # % & & % # & $ # # & o # % * % > % 4 = , & $ . . 5 - - - + ",
"M.c.c.5.M.5.c , s 6 a x m M e 2 3 3 3 , , , > * * * * * * * = = > = = = > = > 6 4 4 4 4 = & = . q Y 5 O $ $ $ q ].rX#XH.K.d.qXq.5 t u.S.l . $ # , * * = = - ' +Xa.- Y tX%XL.d.f.PXJXrX9XrX4XrX4X4X9X9X9XrXrX9XrX9X9X9X9X9X4XrX9X4X9XwXtX4X4XeXtXJX^ ; ; y Z.W.@X$X7Xs.9.4XtXwX9X9X9X9X9X9X9X9X9X4X4X9XrXrX4X4X4XrX6X6XrX9X9XrX7XwXtXtXeXeXeXtX7XeXMXBXmXmXmXmXVXnXnXnXNXMXtXtX4X6X2XtXNXeX4X9X9XwX9X9X9X9XtXtX7XeXeXeXtXtXtXwX9X4X3X6X4X6X6X6X6X4X3X6X4X3X4X6X6X3X1X1X3X3X3X3X3X6X4X4X6X6X1X1X6XqX4X6X1X3X3X5X3X3X5X5X3X3X2XwXbXnXbX8X4X1X3X4XeXNXNXBXMXNXyX9X6X5X5X5X4XtXbXeX4X3X3X5X5X5X5X0X6X6X5X6X6XqX6X6XqX6XqX6X6XqX6XqX6X4XtXBXmXVXmXVXmXBXMXeXrX3X5X0X3X5X5X5X5X6X3XqX5X4XyXNXeXtXtXMXeXtXrX5X5X5X5X5X5X5X5X5X5X5X5X5X5X5X5X5X5X5X5X5X5X5X5X5X5X5X6X5X5X5X5X5X5X5X5X5X3X3XqXJX6X5X5X5X5X5X5X5X5X5X5X5X5X5X5X5X3X3X3X6XtXNXBXtX4X1X3X5X5X5X5X5X5X6X5X5X5X5X5X0X5X6X0XHX0X6X5X5X5X5X0XqX6X6X6XqX6X6X6X6X6X6X3X5X5X5X5X5X6X0X6X0X6X0X0XqX6X5X5X6X6XqXrX6X3X5X6X5X5X0X5X3X5X6X3X4X4XwXMXeX7X7XeXNXbXnXBXtX4X6X5X5X5X5X5X3X5X5X5X5X5X5X5X5X5X5X}.oXoXoXoX5X5XoXoX5X5X}.}.5X5X5XoX5XHX0XoXoXoXoXoXoXoXoX}.3X3X}.{.oX}.3X6XJXJXrX3X3X3X}.{.oX{.oX5X5X5X5XoXoXoXoX}.oX5X5XoXoX{.{.{.}.}.oX{..XoXoX.X{.'.oX.X.X.X{..XoXoX.XoXoXoX'.{.oX{.{.{.oX5X5X5X5XoXoXXXXXXXXX'.XX XXX'.Y.'.LX_. .x , % 4 3 > , U ! | X.T e 4 > > > > > > > > , o k v X ^.f.X h ^ B C #XyXeXtXwXtXtXrXtXwXyXrXwXrXrX2X9XJXi.l O > , 3 e w O % o 3 s n n a * & # # & & & % & * # # % & # & & & # & & & % = & & % * # * # # # & # % % % % # $ & # # # # # % * * # * = 4 ; q B Y ].B C @.^ ",
"M.c.c.c.c.N.R s z 3 3 , 3 , 3 3 e > > 2 3 > > * * > > > < > > = = = = > < > < > < 4 8 4 4 4 7 = 4 ' C $ & ; ; - S.rX4X4X1Xd.s.^ q 7 h i B Y B - & > = = & - d.+Xa.e.f.eXNXMXNX$Xs.G.qXwX9X9XrX4XrXrX9XrXrX9X9X9X9X9X9X9XrX9X9XrX9XrX6XI.qXrX4Xa.$X/.q 9 y #XbX>XKXd.5 0 I.tXwXwX9X7XwXwXtXwXwXwXrXrXwXrXrX4X4XrXrX6X6X6XrXwXtXrXwXwXtXtXNXMXMXMXNXMXbXeXbXnXnXnXmXnXnXnXBXNXNXtX9X4X9XtXtXeX7XeXtX8X7X%X7X7XtXMXNXMXMXtXtXrX4X4X6X6X6X6X6X4X6X4X6X6X6X6X6X3X6XrX6X4X3X6X6X4X6X4X6X6XqX6XqX3X3X6XrXqX3X3X3X3X5X6X6X4X4X4XwXtXeXeX9X2X3X5X6X3X7XbXeX7XyXwX4X3X5X5X0X6X4XtXMXwX2X1X3X5X5X3X6X6X6X6X5X5XHXHXqX6XqXqXqXqX6XrXqXqX6X6XwXBXBXmXBXBXmXmXVXBXtX4X6X5X0X5X6X5X5X5XqX6XqX6X6X9XyXyXtXwXtXeXMXtXrX6X5X5X5X0X6X3X3X3X3X3X5X3X5X5X5X5X5X6X5X5X6X5X5X5X5X5X5X5X5X5X5X5X6X5X5X5X5X5XqXJXqX5X5X5X5X5X5X5X5X5X6X5X5X5X5X5X5X3X3X3XwXMXBXNXtXtXtX6X6X6X0X0XHX0X5X5X5X5X0X0X0X5X5X5X5X5X0X5X6X6X6X6X6X5X6X6X6X6X6X6X6X6X6X6X0X0X0X5X6X5X5X5X0X6X6X6X6X6X6X6XJXrX6X5X6X6X6X6X0X6X6X0X6X3X3X3X9XtXMXeXwXtXBXnXnXnXmXNXtX4X6X6X5X5X3X3X5X}.5X5X0X5X5X5X5XoXoX5X5XoX5X5X5X5X5X5X5X5X5X5X5X5X0X0X5XoXoXoX5XoXoX5X5X5X5X}.5XoXoXoX5X3X5X6XrXJXJXJX5X}.}.oX5XoX5X5X5X}.oXoX5XoXoX}.5XoX5XoX5X}.}.5X5XoXoXoXoXoX{.oXoXoXoXoX{.oXoX5XoXoX.XoXoX.X'.{.{.{.oXoX0X5X5X5X5XoXoX'.oXXXoXXX'. X Xu.^ t | I , 7 e % j W _.r.r O O o % 3 2 > 4 > > > 2 3 3 > d , q l e b f ; i 0XyXwXtXrXrXrXrXrXrXrXrXrXrXrXqX3X#XJXrXV.9.B $ o . . * * % . # , 4 o % = * & & & # * & & = & = # & & = $ & & & & & & * % & & = & % # & & % # & & % $ # # # # $ # o o * * > & = 1 B LXPXJXoXoXHXHX",
"c.c.c.c.5.c.<.s 3 w s w w w w 3 > 3 3 > > * * * > = > > < < > * * * = = = > > > < > > 8 7 1 9 < $ 1 h q h - + B oX1XI.4X1XP.d.s.^ 1 1 q 7.#XtXi.4 = = = ; $ - y 9.^.;XtX5X3XPX9.w d R 6XrX4X4X9XrX4X4X9X9X9X4X4X4X9X9X4X9X9X9X7XwXrXY y  .Y #XKXyXs.q 4 q yX+XB ^ B q S.yX7X9X9XtX7XwXwXwXwXwX9XwX9X9X4X4X6XrX6X6X6X6X6XrXwXwXwXwX9XeXMXnXBXBXMXMXMXeXeXnXnXBXnXnXnXnXnXNXbXeXtXyXtXwX8XbXbXnXnXnXnXnX8XeX8XeXeXeXeXwX7X4X4X6X6XqX6X6X4X6X6X4X4X6X4X4X6X4X1X6XqX6X3X6X4X6X6X6X4X3X1X6X4X4X3X4X1X4X4X3X3X6X5X6X3X4X4X9XeXMXeX9X3X5X5X6X6X6X4XNXBXeX6X6X4X5X5X0X5X6X4XeXeX7X4X3X3X5X3X5X5X3X6X6X6X0X6X6X6XqXqX6X6XqX6XqX6XrXqX6X4XbXBXBXMXeXtXBXmXnXBXeX4X0X5X5X6X5X3X6X3X6X6X6X6X6X1XrXyXwX4X9XtXeXeXyXrX6X6X6X6X6X6X5X3X5X6X6X5X5X5X6X5X5X6X6X3X6X5X5X5X5X5X5X5X6X5X5X5X5X6X5X5X5X3X5X6X6X5X3X3X5X5X5X5X5X6X6X3X3X3X6X5X5X5X5X3X6X4XtXNXBXBXMXNXyX6X3X0X0X0X}.}.5X5X5X6X6X5X5X5X6X6X5X5X6X6X6X5X5X5X6X6X6X6X6X6X6X6X6X6X0XqX5X3X5X5X6X5X5X5X6X5X0X6X6X6X6X6X3X3X0X5X6X5X5X6X6X5X6X3XqX3X6X4XtXMXeXMXNXnXnXbXnXBXBXNXeX9X6X3X3X}.}.5X5X5XoX5X5XoXoXoX5XoX5X5XoX5X5X5X5X}.5X5X5X5X5X5X5X5X5XoX5XoXoX5X5X}.5X5X5X}.5X5XoX}.5X5X5X3X6X6XJXPXHX5X5X}.oX5X5XoX}.}.oXoX5X5XoX}.}.}.oX5X5XoX5X}.oXoXoX}.oXoXoX.X.XoXoX.XoX{.oXoXoXoXoXoXoXoXoX.XoXoX{.oXoXoXoX.XoXoXoXoXXXoX'.XXXX'.OX0.q $ 9 1 N l.! ! E , 6 4 , % = 9 7 > 2 > > 2 2 , 3 3 3 , d c 6 I G , F ).qXrX4XrXrXrXrXrXwXwXrXrXwXrXrXrXqX3X4XI.I.rX4XqX^ t ~ m 5 . . $ & $ $ = & & & # & & & # # & & = & # # ; = # $ & * & & & & & # = & = # # & % # # & & # # # # # # $   X q . * 1 ; 2 e + y O.R.oXF.D.D.",
"c.M.M.c.c.c.M.R , 3 e 3 3 , 3 3 6 3 6 , 4 > > * , > = * > * * = > * = > > = 4 4 4 > 8 7 6 % < < : . 1 ' n.9.O.p.HX4XI.3X9.Y H.6X].Q h l d.$X4XO.$ = = = > > # 7 m t 1X0Xt 6 U ).O.F 0.qX9X9X9X9X9X9XrX4X4X4X4X4X4X9X9X9X4X9XrX9XrXJX' t W 7 9.4Xe.B 6 8 5 q - - t l 7.KXwX7XwX7XwXwXwX9X9X9X9X9XrXrXrX9X6X6X4X9XrXrXrX6XrXrXwX9X7XeXMXBXBXBXBXBXBXmXnXNXBXmXmXmXnXnXmXBXbX7XeXMXNXMXMXnXnXnXmXnXnXnXnXnXMXtXtX9X4X4X4X6X6X6XqX6X6X6X6X6X6X6X6X6X6X6X6X6X6X3X4X4X1X1X6X3X4X4X4X4X3X1X3X3X3X6X6X3X3X1X3X3X6X6X4X4X7XtXMXeX9X4X6X6X6X6XqX6X6X6XwXwX6X6X6X5X5X0X5X3X9XtXtX9X4X3X5X3X3X3X6X5X5X5XqXqXqX6XqXrXqXqX6XqXqXqXJXrXrX4X9XtXBXMXtX9X9XwXbXmXmXmXtXqX0X6X6X6XqXqXqX6X6X6X6X5X6X6XrXtXyX6X6XrXtXtXMXtXrXqXqX6X6X6X6X6X6X6XqX6X3X6X6X6X6X6X6X6X6X6X6X6X5X5X6X6XqX6X6X5X5X6X6X5X5X5X5X3X3X5X6X5X6X5X6X5X6X6X6X6X3X5X6X5X6X5X5X0X6X3X6XrXyXNXbXMXNX4X3X3X6X0X5X}.0X5X6X6X6X0X0X6X0X6X0XqX6X6XqX6X6X6XqX6X6X6X6X6X6X6XqX6X0X6X5X6X6X0X0X6X5X6X6X6XqXqXqX5X5X3X6X6XqX6XqX6X6X6X4XqXrXrXrXrXrXrXrXeXNXBXBXbXmXBXBXeXMXBXmXBXMX7X6X1X1X3X3X3X5XoX5XoX5X3X5X5X5X5X5X5X5X5X5X5X5X5X5X5X5X5X5X5X5X5X0X5X5X5X5X5X5X5X5X5X5X5X5X5X5X5X5X5X5X3X5X5X5X}.5X5X5X5X5X5XoXoX5X5X5X5X5X}.5X5X}.}.].}.5X5X5X5X5X5X5X5X5XoXoX5X5XoXoXoXoXoXoXoXoXoXoXoXoXoXoXoXoXoXoX{.{.'.{.oXoXoXXXoXoXXXXX'. XXXm.b.U.U.XXT.= z 6 , w 3 e 3 | HX:.= 3 2 3 > > % o * 3 3 w w 3 j ).l 0.KX6X6X6XqXrXqXrXrXrXrXrXrXrXrXrXrXrX6X4X1X1XL.e.F.t.| | P ~ I t.@.; & , * 2 & & & & & = & & $ # # & & & & # # & & = & = & & & & % = & & % * # & # = # & # $ $ & & . i A.'.l . = O > , r 1   @.oXD.Y.D.",
"M.c.c.c.c.5.l.c.~ d a 6 M G 8 , e , e , O # = = > = > > * * = * = = = $ $ = 4 4 4 < 6 1 q B q + l C O.G.}.3X0XE.S.I.6X6XV.l B s.A.0XO.> t C i & , > = = > > > p d % m U , w , o.LXqXJX9X4X9XrX4X9X9X4X4X4X4XrX4X4X4X4X4X9X7X4XrX9XrXJXs.9.Y B i - ; p 8 6 < 5 5 h /.KX7X7X9XwX7X9X9XwX9X9X9XrX4X6X9X9X9XrX6X6XrXJXrX6XrXrXrXwX7XeXbXBXBXBXeX8XMXBXnXBXBXBXmXnXnXnXnXnXBXeX7XMXNXnXnXBXnXnXnXmXmXnXbXbXeXwX9X9X6X6X6XqX6X6X6X6X6X4X4X6X6X6X6X6X4X4X6XrX6X6X4X6X4X6X4X4X6X6X4X6X6X6X6X6X3X6X3X6X3X3X3X6X6X4X4X7XeXNXeX9X4X6X6X0X6X5X5X6X6XqX5X3X4X6X6X0X3X5X5X4XrXtXeXrX6X3X3X6X3X6X6X6X6X6X6X6X6X6XrXrXrXrX6XqXqX6XqXrXrX4X7XNXNXMXwX4X6XqX4XtXmXnXBXtXqX6X0X0X3XqXrXrXqX6X3X3X5XqX6X6XwXyXrX6X4XwXtXeXtXtX6X6XqX6X6X6X6X6X6X6X6X6X6X6X6X6X6X6X6X6X6X6X6X6X3X6X6X6X6X6X6X6X5X5X6X5X6X5X5X3X3X6XqX3X6X6X6X6X5X6X6X6X5X5X6X5X6X6X5X5X0X5X3X6XrXKXMXMXNXwX4X6X5X3X3X5XqXrX6XqX6X6X6X6X6X0X6X6XqX6X6XqX6X6X6X6X6X6X6X6X6X6X6X6X6XqX6X6X6X6X6XqX6X6XqX6XqX6X6X5X6XqX6X6X6X6XqXqX6X6X6X4XrXrXyXrXrX6XrXeXbXnXnXmXbXeX2X4X7XnXmXmXBXNXeXeXeXrX6X3X}.5X6X4X2X3X5X5X3X5X5X5X5X5X3X5X5X5X5X5X5X5X5X0X5X5X5X5X5X5X5X5X3X5X5X5X5X5X5X5X5X5X5X5X5X5X5XoXoXoXoX5XoX5X5X5X5X5X5X5X5X5X5X5X5X5X3X5X}.oX5XoX}.5X5X5XoX5X5XoXoX5X5X5XoXoXoXoXoXoXoXoXoXoXoXoXoXoXoX{.oXoX.XoX'.XXoXoXXXoXoXXX'. XY.'.XXXXY.).`.k o r m._.D , O  .u.l = 3 2 3 , = m Q f o 7 1.7   l LX3X0X5X3X3XqX6X6X6XqXqX6XrXqXrXrXqXqX4X6X6X3X1X3XI.].O.$ w . o % . = . o , 2 % * & = * % & & & & # = # & # # $ # # & # & = & = * % & & & # & % # * & = & # * # & % % * . Y JXP.oXv.O._ :.Q 1 7 t m.Y.D.U.U.",
"c.c.c.c.M.l.c.c.c.5.<.W 4._.;., % r R I I r > = > > < > > = > = > = = t k = 1 9 r I h q q.LXS.9.V.'.0X].R.H.P.(.HXP.A.i.G.9.^ n.' Q _ t , = > * > > 2 , > > > > g s w 3 I U e t #X7X$X4X9X9X9X9XrX4X4X4X4X4X9X9X9X9X4X9XrX9X9XwXwX7XwXPXPXtXyXyXH.h 6 6 8 7 5 O.e.J.eX8XtX7X9X9XwX9X7XwXwX9X9XrXrX6X6XrXrXrXrXrXrX6X6X9XwXeXeXbXBXnXNXeXeX7X7XbXBXbXnXnXnXnXBXmXmXnXnXBXNXNXBXBXnXnXnXnXBXnXnXbXeXwX9X4X6X6X6X6XqX4X6X6XrX6X4X6XqX4X6X6X6X6XrX4X6X4X6X4X4X4X6X6XrX4X6X6X4X4X6X4X6X6X4X6X6X3X3X6XqX6X4X2X9XeXNXtX9X4X4X6XqX5X6X6X6X6X5X6X6X5X6X6X0X6XqX6X5X3XrXNXtX9X4X3X6X3X3X6X6X6X6XqXqX6X6X6XqX6XrX6XqXqXrXqXrXrXrX9XeXNXNXeX9X6XqXqXrXrXNXnXBXMXtXqXqXqX6X6XqX3XqX6XqX5XqX6XqXqXrXrXwXrXrXqXqX9XNXtXyXrX6X6X6X6X6X6X6X6X6X6X6X6X6X6X6X6X6X6X6X6X6X6X6X6X6X6X6X6X6X6X6X6X6X6X6X5XqX6X6X3XqXqX6X6X6X6X6X6X6X6X6X6X6X0X6X6X5X6XqX5X6XqX6X3X6XwXyXNXBXMXNX9X3X1X6XJXNXBXNXtXwX6X6X6XqXqX6X6XqXqXrX6X6XqXqX6X6XqX6X6XqX6X6X6X6XqXqX6XqXqXqX6XqX6XqX6X6XqX6XqXqX6X6XqXqX6X6X6XqX6XqXqXrX6XqX6XqXqXwXeXNXnXAXMX7X4XrXwXNXbXnXmXmXVXVXBXBXtXrX1X6XPXPXNXyX3X5X5X5X5X5X3X5X5X5X5X5X5X5X5X5X6X0X6X6X6X6X5X5X5X5X5X5X5X5X5X5X5X5X5X5X5X5X5X0X5X5X5X5X5X5X5X5X5X6X5X5X5X5X3X5X5X5X3X5X5X5X5X5X5X}.}.5X5X5X5X5X5X5XoXoXoX5XoXoXoX5XoX5X5X5XoXoXoXoXoXoXoXoXoXoXoXoXoXoXoXoXoXXXXXXXXXXX'.).).).Y.Y.XXv.m | XX X:.P Q I > = , 3 , 6 4 # ' LXG._ O.LXp.| Y.5X}.5XoX5X5X6X5X5X6X6X3XqX6XqX4X4X4XrXqX6X1X1XI.].I.qXG.m z w % = 9 o = 6 > > * = * = * = & * * & & & & = & & = & $ & & & & & = & & & & & # * & & & & & & # & & = * > * , . B ].i.n..XR.XXOXD.b.Y.Y.D.Y.U.U.",
"c.c.M.l.c.c.c.4.5.l.c.,.5.,.N.Q x l.<...4.g = = > = * = > = * > > = $ Q T.I 7 , 6 I U Y oX}.9.F.].C.H.I.].P.].A.9.Y l + l O.^ Y U e B ^ f O 4 7 7 > * = > * & 5 r e s , 9.IX7.^ 3X4X2X4XwX9X4X9X9X9X9X9XrX9X9X9X9X9X9X9X7XrX9X9XwXyXIXIXPXKXPXNXPXl , e > % ' UX+XZ.tXeXeXwXwX7XwX7XwX7X7XwXwX9X9X4XqX6X9XrXrX6XrX4XrXeXMXnXnXnXbXnXbXeX8XeXMXMXnXnXnXnXBXnXnXnXnXnXnXnXBXnXnXbXnXnXnXnXbXeXwX9X6X4X6X6XqX6X6X6X6X4X4X4X6X6X6X6XqX6X6X4X6XrX6X6X6X4X4X4X4X4X4X4X4XrX4X4X4X4X4X6X4X3X6X4X4X6X6X4X6X4X7XeXNXeX9X4X6X6X6X5X5XqX6X5X6X6X6X6X6X6X6X5X6X6X5X6X3X3XrXtX4X4X6X5X5X3X3X3X6X6XqX6X6X6XqX6X6X6X6XrXrXqXqXqXrX4X7XeXBXbX9X4XrX6XrX4X4XeXnXnXMXeX9XqXqX6XqX3X6X4XqX4X6X3X6X6X6XrXrX4XqX6XrXrX9X9XyXNXtXwX4X6X6X6X6X6X6X6X6X6X6X6X6X6X6X6X6X6X6X6X6X6X6X6X4X6X6X6X6X6X6X6X6X6X6X6X6X6X6X6X4XqXqX4X4X6X6X6X6X6X6X6X6X6X6X5X6X6X6X0X6X6X6X5X5X3X9XtXMXBXnXNXtX1X2XeXBXBXBXBXNXtXrX4X6X6X6X6XqX6X6X6XqX6XqXqX6X6XqX6X6XqXqX6XqX6X6XqXqX4X6X6X6X6X6X6X6X5X0X5X6XqXrX6X6X6XqX4X6X3X6X4X6X3X6X6XqX3XwXtX9X9XtXeXtX4XrX9X8XnXnXbXnXmXmXnXnXBXNX7X7XtXnXDXMX2X3X1X6X4X4X1X3X3X5X3X3X3X5X5X5X6X6XqX6X5X0X6X5X5X6X5X5X5X5X5X3X5X5X5X5X5X5X5X5X5X5X5X5X5X5X5X5X5X5X5X5X3X5X5X}.5X5X3X5X3X5X5X3X3X5X5X}.5X5X5X5X}.}.}.}.}.oX5X5XoXoX5XoX5XoXoXoX.XoXoXoXoXoXoXoXoXoXoXoX'.XXoXXXXXXX'.'.'. XY.).).Y.Y. XOXOXU.D.U.).oXD.E 2 3 3 , 4 6 % C F.F.oXoXR.oXHXoX.X.XoXoXoX5X5X5X0X6X5X5X5X3X6XrXJXJX5X0XJX9X6X1XI.C.H./.P.A.O.C u.LXl > 8 * , = > * & * > = * % * & # & & & & # = & # # & & & & & $ & # & & & % # = & # & # $ & .   % > > > . B XXn.p.v.F.V.Y.Y.Y.Y.Y.U.U.D.",
"N.M.c.l.c.4.c.l.c.,.1.1.,.o.c.c.c.4.X.b 2 O > > * * > > = = 4 * > > = < Y r. .7 t & l t q.Y q i.].C.C.P.0X}.{.9.y t Q Q Q ~ h O 4 7 l ' ' C q < 4 > 2 = < = i e.C % e % q #X#X6XrX4X9X7X9X9XwX9X9XrXrX9XwX9XwX9X9X7XwX7X9XrXwXrXtX2X^ Y d.f.Y ^.rXi > 8 3 5 Z.;Xg.eXyX8XeXyXPXtXwXtXtX7XwXwXwX9XrXrXwX9X9X9XwXtXtXtXMXnXnXnXnXbXnXbXnXbXbXMXBXnXnXnXnXmXBXnXnXnXnXnXmXnXnXnXnXnXnXnXNXeXwX9X4X4X6X6XqX6X4X6XrX6X6X6X6X4X6X6XrX9XqX4X6X4X4XrXrX4X4X4XrX9XrXrXrX9X9X9X4X4X9X4X6X6X6X6X4X6X6X4X6X2X4XeXNXeX7X2X4X6XqX6X0X5X6X6X6XqXrXqXqX6X6X6X6X6X6X6X6X6XqX6X4X4X4X6X6X3X6X6X6X3X6X6XrX6X6XqXrXqXqXqXrX6XqXrXrX6X9XeXNXBXeXrX4X4XrXrXrXrX7XbXBXMXeX7X9XqXqXqXqXqX4XtXtXwXrX6XqX6XqX6X6XqX6X6X6X6XrXwXrXwXtXwXrXrXrX6XrX6XqXqXqX6XqXqXqX6X6X6X6X4X6X6XqX6XqX6X6X6X6X6X6X6X6X6XqX6X6X6X6X6XqX6XqXqXqX6X6X6X6X6XqX6XqX6X6XqX6X6XqX6X6X6XqX6X6X6X6X6X6X4XwXtXMXBXNXeXeXtXNXbXnXnXBXBXMXwXrX4X6XqXrXqXqXqXrXqXqXqX6X6XrX9XrX4X6XrXqX6XqXqXqX6XqX6X6XrXrX4X6X6XqX6XqXqXrXqX6XrXrXrXrXrXrX4X4XqXrX6X6XqXyXyX6X1X4XwXyXrX9XtXMXBXBXnXnXnXmXmXnXmXBXBXNX8XeXeXeXrX4X4XwXtXtX4X6X3X3X3X6X5X5X6X0X6X6XqXqX0X0X0X5X5XqX6X0X6X5X5X5X5X0X6X6X5X6X5X5X5X5X5X5X5X0X5X5X5X5X5X6X5X5X3X}.3X5X5X3X3X5X5X5X5X5X5X5X5X5X5X3X3X3X3X5X3X5X5X5X5X5X3X5XoX5X5XoXoX5XoXoXoXoXoXoXoXoXoXoX.XXXXXXXXXXX'.'. X X). X X XY.Y.Y.Y.U.`.D.Y.D. XXXx , 6 6 6 6 > U n.n.Y.'. X X'.XX.X.XoXoX5X5X5X5X5X5X0X5X5X5X6X}.q.Q 9 7 p.JX].JXLXHXJX6XrXJXPXJX{.' 9 , , 2 2 = * * > * > = & * * & & & * & & & = = = & & & & & = & & & & = * & & = & % & & & . m Q q . , 4 r > l :.OXF.Y.F.Y.F.G.Y.Y.Y.U.Y.",
"H $.N.M.M.c.M.l.M.4.l.M.c.c.c.) I 6 4 , > > > * , * > = > = * , = > > % = 9 m U  .~ ~ P q.q.9.oX].S.}.n.O.O.G.F.q.O.0.| m g Y O.^ 9 O ; Q ^ l 1 > > 2 < = $ ^ $Xd.' ' Q Y 9.J.4X4X4X9X4X9X9X9X9X9X9X9X9X9XwXwX9XwX9XwX7XwX9X7X7XtX4X^ i ' 9.. 0 B < 6 3 3 9 rXNXJ.>XtXeXKX1X' 9XtX8XtXtXeX7X7X7XwX7XeX8XeXeXNXnXBXnXnXbXnXbXbXbXbX8XbXnXnXbXnXbXnXbXnXnXnXBXnXbXnXnXnXnXnXnXmXnXnXbXtX7X4X6X6X6X6X4X6X4X4X6X6X9X6X6X9X4X4XrX6XrX4X4X6X4XrXrX9X9XrX9X9XrX9XrXrX4X4X4X4X4X4X6XrX6X6X4X6X6X6X4X2XwXMXeX7X4X4X3X6X5X6X6X5X6X3X3X6X6X6X6X6X6X6X6X6X6X4X6XrXrXrX6X6X6XqX6X6X6X3X6X6X6X6X4XrXrX6X6XqXrXrX6XrXrXrX6X9X9XeXMXNXeXrX4XrX4XrXrX4XwXeXbXeX8X9X4XrX6X6XqX6X4XeXbXnXbXtX4X6X6XqX6X6X6X4XrXrX6XrXrXrX9XrXwXtXwXrX9X6X6X6XqXqX6X6X6X6X6X6X2X6X4X6X6X6XqX6X6X6X6X6X6X6X6X6X6X6X6X6X6X6X6X6X6X6X6X6X6XqX6X6X6XqX6X6X6X6X6XqX6X6XqXqX6X6X6XqX6X6X6X6X3X6X4XwXtXNXNXNXeXbXBXnXbXnXnXBXBXtXwXwX9XrXrXqX6X6XqX6X6X6X6X6XrXwX9XrX4X6XqX6X6XqX6X6X6XtXNXMXeXwX4X6X6XqX6X6X6XqX4X9XrXyXyXtX9XrX6X6X6X4X4XrXrX1X6XqX4X6XqXrXrXtXMXBXAXDXVXmXmXmXnXnXBXBXNXNXeXMXeX7XeXbXBXBXBXtX7X9X4X4X6X6X6XqX6X6X6XqXqX6X5X5X6X3X6X6XqX0X3X5X5X5XqX6X6X5X5X6X5X5X3X5X5X5X5X5X5X5X5X5X5X5X}.].5X5X3X5X3X3X5X5X5X5X5X5X5X5X3X3X6X6X3X3X5X5X3X5X5X5X5X5X5XoX5X5X5X5X0X5XoXoXoXoX{.oX'.'.oXoX'.XXXX X X XY. X X XY.Y.Y.).D.U.U.G.Y.Y.v.XXx.9 , 6 3 3 4 3 1 y.D.Y.Y. XR. X XoX.XoXoXoXoX5X5X5X5X5X5X5X3XHXA.5 ; n e 1 r & l  .| O.@.0._ Y l ; o , 2 , , 2 * * * = = = * = * & & = & = & & & # & = = = # * & & & & & o   & & & # & & # & & . D.LX'.Q 9 o 2 a e h  .Y.Y.F.Y.Y.Y.Y.Y.Y.D.Y.",
"3 e J J ,.<.{ J F N J M I F m 4 > , > > 2 > > > > > , > < > > > 4 * > > > O % = l b.`. XoXY.A.O.u.V.F._ q 7 _ }.0X9.1 O & 1 ~ D.p.C 9 2 < ; < = 6 1 > < ; q P.a.J.9XrXrXrX2X2X4X7X7X9X9XwX7X9XwXwX9XwXwX9XwXwXwXwX7XwXwXwX9XwX7XwXtXPXPXJXJXP.C < e p 3 > 4 9.f.f.rXPXPXPXl l JXeXeXtXtXeX7XeXeXeXeXbXnXBXnXnXmXVXnXbXbXeXbXbX8X8XbXnXbXnXbXbXnXnXnXnXbXnXnXnXnXnXbXnXnXmXnXnXeXeX8XeXwX4X4XqX6X4X4XqX4X4X6X6XrXrX9XrX9X6X6X9X4XrX9X4XrXwXwXwX9XrXrXrX4X9X4X4XrXrX4X9X4X6X4X6X6X4X6X4X4X4X4XtXMXtX4X2X6X6X4X4X4XqX6X6X6X6X6XrX4X4X4X4X6X6X6X6X4XqXrXrX4X4X6X6XqXqX6X6X6XqX6X6X6XqX6XrXrX6X6XqXrXrXrXrXrXrX4XwXeXNXtX9X9XrXrXrXrX9X4XwXeXeXeX7X9XrX6XrX6XqX6X4XeXBXBXnXBXNXtXrXqXqXqXqX6XrXKXJXrX6X6XqXrXrXrXtXtXyXwXrXrXrXqXqXqXqX6X6X6X6X6XqX6XqX6X6X4X6X4X6X6X6X6X6X6X6XqXqX6X6X6X6X6XqX6X6X6X6X6XqX6XqX6X6X6X6X6XqX6XqX6XqX6XqX6X6X6XqXqX6X3X6XqX6X6X6X9XtXtXMXNXBXbXnXnXmXnXmXmXBXBXMXeXtXwXqX6XrXqXqXqXrX6XqXrXtXyXyXwXrX6XrXrX6X6XrXqXtXNXBXBXNXtXtX4XqXqXqX6XqXqXqX4XrX9X9XwXtXtXtXwXrX9X9X4XrXyXyX9XrXqX6X1X3X4XwXtXBXBXnXnXmXmXBXBXBXBXBXBXBXNXNXNXBXnXmXbXnXMXMX7XrX6XqX6X6XqXqXqXqXqX6X6XqX6XqX6X6X6X6X5X6X5X0X5X6X6X6X6X0X6X0X5X5X0X6X6X0X6X6X5X5X5X5X3X3X5X5X5X5X3X3X3X3X5X5X5X5X5X5X3X5XJXJX3X3X5X5X5X5X3X6XqX5X3X5X5X5X5X5X5X5XoX5XoX5XoXoX{..XoXoX'.XXXXXXXXXX X X).).Y.Y.Y.Y.Y.Y.Y.Y. XOXGXD.t , 7 7 , 6 7 4 = O.oXY.Y. X XXX XXXoX.XoXoXoX5X5X5X5X5X5X5X5X5XHXoX@.h , e % , O o O % O O O O % , > > , 2 > * = 2 = > = & * > = & & = = = % & = & & = & & & = & & & = o 7 Q . # , & = * * & & # i O.GXHX). .B 7 k < . O.XXG.Y.Y.Y.Y.Y.Y.Y.Y.",
"3 e 3 O 6 7 3 , > = > # , # % , 4 4 2 , > , , > > * > > > > > * * > * * = * 4 % & 1 l m B l l & 9 t h q h t t A.rXP.B t B r ; $ 1 9 l m h 4 1 4 > > 4 > > - i.tX7XJ.W.#X#X$X4X2X4X4X7X7X7X7XwX9X9XwX9X9XwX9XwXwXwXwXwX7X7X7XwX7XeX7XyXf.y Y A.u.m > , , 8 1 Y 7.rXPX^ 9.s.0 C.PXeXeXeX8XeXeX8X8XbXbXnXnXnXnXmXmXnXbX,XeXbXeX8XeXbXbXbXbXbXbXnXbXnXnXnXnXnXnXnXnXnXnXnXnXnXeX8X7XeXeXwX7XrXrX4X4X9X4X4X6XrX4XrX6XrX9X9XrX6X9X6X4XrX9XrXrXwXwX9X9X9X9X4X4X4X4X9X9X6X4X4X6X4X4X6X4X6X6X4X6XrX9X9X4X2X4X6X4X6X4X6X6X4X6X6X3X4X6X4XrXrX6X6X6X6X4X4X4XwXrX4X4X4X6XqX4X6X6XqX6X6X6XqX4XqXrXrX4X6XqXrX6X9XrXrX9X9XwXNXtXwX4X9X4XrXrX9X7XwXeXeXeX7XwX9X4XrX6X4XqX6X4XwXNXBXmXnXnXMXtXrXrXrX6XqX6XrXyXrXrX6XrXrXqXrXrX9XwXyXyXwX9X4XqXrX4XqX6XqX6XrXqXqX6X6X6X6X4X6X6X6X6X6X6X6X4XqXrXrX6X6X6X6XqX6X6X6X6X6X6X6X6X6X6X6X6X6X6X6X6X6XqX6X6X6X6XqX6X6XqX6X3X6X6X6XqX6X6X6X4XwXtXbXMXBXnXbXmXVXmXmXmXnXnXNXeXtXrX4X9XrX4X6XqXrX4XwXtXyXyXwXrXwX4X9X4XqXqX9XtXNXNXNXNXNXeXwX4X6XrXqX6X6XqX6X6XrX6X9XtXMXBXNXeX7X4XwXtXyXNXyXwXrXrXqX6X4X1X4XeXBXnXnXmXmXnXmXnXBXmXnXBXBXnXnXbXnXbXnXbXbXMXtX4X4X9XrX9XrX4XqX4XqX6X4XqXqXqX6X6X6X5X5X3X6X6X6X5X6X5X5X0XqX0X0X6X6X6X6X6X5X6X6X3X0X5X5X3X5X5X5X3X3X3X5X3X3X3X5X5X5X3X3X6X5X3X3X3X5X5X5X3X5XqX5X}.5X5X5X5X5X5X5XoX5XoX5XoXHXHXoXoXoXOXoXXXXXXX'. XOXOXOXOXoX'.F.XXU.U.OXw._  .k # 4 , 4 4 4 > 6 4 1 0.`.Y.U.U.`. X'.XXoX.XoXoXoXoX5X5X5XoXoX5X5X{.3XHXG.Y x.S O O , , w , 3 3 3 , , * , * * = , * * = * % = * * & = & . $ = & & # & & # & * # & = * % * $ 5 OX+.  % , & % % % * = = O Y '.R. XHXU.D.q.0.G.R.G.G.G.G.Y.Y.Y.Y.F.",
"e a e 3 3 * > 4 7 < > 2 > , , > > > * > > > > > > > > > > * = > > = > = = * = < 7 , > O % # 2 2 2 # , 1 m m l l Y i.].F.).q.^ t < $ U ~ j 7 4 4 1 > 4 4 4 < q ^ H.1X1XL.#X%X%X$X9X7X7X7X7X9XwX9XwXwXwXwXwX9XwXwX7XtXtX7X7XwXeX7XwXeXNXqXY 7 = . 1 h 9 e v h U l ' ^ - ; l s.PXtXeXeXeX8XeXeXeXbXbXbXnXbXbXnXnXbXbXeXeXbXMXbXnXbXnXnXnXnXnXnXnXnXnXnXnXmXnXnXmXnXnXmXnXbXeX8X8X7XtXMXtX9X9XrXrXrXwXrXrX9XrXrXwXrX9XrXrX9XrXrX9XrXrXrXwXwXwXrXrXrXrXrX9X4X4X4XwX9XwX9X9X4X4X4X6X4X4X4XrXrXrX4X4X4X6X4XqX4X4X6XrX4X6X9X9X4X4X4XrXrXrX6XrX4X4X4X4X4X4X2X4X4X6XqX6X6X9XrXrX6X6X4X6XqXqXrXrXrXrXrXrXrXrXrXwXwXyXNXtXwX9X4XrX4X9X7XeXeXMXeXeX7XwXrX9XrXrX4XrXqXrXwXMXBXBXmXBXeXMXNXwXrXrXqXrXrXrXwX9XrXrXwXrXrXrXrXrXrXtXtXtXwX9X9XrXqXrXrXrX6X4X4X6X4X6X6XrX9XqX6XrX6X9XrXqX6X6X6X6X6XqX6XqX6XrXqX6XqXqXqXqX6XqXqXrXqXqXqXqX6XqX6XrX6X6XqXqXqXqXrX6X6XqX6X6XqX6X6XqXqX6X4X9XtXNXnXBXnXnXnXnXnXmXmXmXBXNXeXwX7XwXrXtXwXrX4XrX4XrX9X4X9X9XwXyXtXwX4XrXwXtXeXeX8XnXBXMXrXrXrXrXqXrXqXqXqXrXqXrXrXtXtXMXbXMXeXwX7XtX7XwX9XwXyXJXrXrX6XqXrXNXBXmXBXmXBXBXmXBXVXVXmXmXmXmXmXmXBXNXeXMXMXtXeXeXtXMXbXbXeXwX4X4X6XqXqXqXqX6XqXqXqX0X6X6X6X6X6X6X6X6X5X5X6XqX6XqX6X6X6X5X6X6X6X6X6X6X3X5X5X5X5X3X5X5X5X5X5X3X5X5X5X3X3X3X3X5X3X5X5X5X5X6XJX6X3X5X5X5X5X5X5X5X5X5X5X5XHXp.v.JX5XHXU.m.GX XXXXX`.w.+.w. .0.OXOXw.t F | e % % * 3 8 , , 4 2 2 6 4 6 > t w.`.D.). X'.XXoX.XoXoX5XoXoX5X5XoX5XoX5X{.}.].oXGXQ m  .r.M.s , , , , , , , % % * > * 2 , > > = * > * = * < . m x o > = & = & = & * & = = > = 4 < o o OXn.$ o = & * % & $ . $ $ l Y.A.V.G.'.'.oXR.G.G.Y.G.Y.Y.Y.F.Y.Y.",
"z 3 3 6 8 2 8 = > > > * & = = = = = < = * > > * > > > > * = > = = * * * = % = = * 2 8 3 6 2 2 2 2 2 6 > 4 q ' Q B ^ s.e.i.5XHXA.t.9.D.^ O o o % 2 1 > * < 4 = : ^ I.#XL.#X+X$X$X$X7X7X7X9X9X9X7XwX7XrX9X9XwXwX7XwX7XeXwXtX7X7XwX7X7X7XyXPXJXi.Y Y ' m 4 > > , O , + e 1 O.'.rXtXeX8XeXeXeX8XeXbXbX8XeXeXeX8XeXeXeX8XeXeX8XBXnXbXbXnXnXnXbXbXbXbXbXnXnXnXnXbXbXnXmXnXbXeXeXtXeX7X7XtXwX9X9X9XrX9XwXwXrX9X4XrXwXwXwX9X9X9X9XrXrXrXrXrXrXwXrX9XrXwXrX9XwXrXrXrX9XrX9XrX9X9X9X4X4X4X6X4XrX9X4X4XrX4X6X6X6X4XrX9XrXwXwX9X9X9X4X4X9X9X4X4X4X9X9X4X9X4X4X4XrXrXrX4XrXrX9X9X9XrX4X4XqXrX9X6XrXrXwXrXrXwXwXwXwXyXNXwX9X4XrX4X4X9XwXeXNXbXtXeX7XwXwX4XrX9X4X4XrX6X9XeXBXmXBXBXbXeXeXtXrX6XrXrXqXqXrXrXtXwXwXrXwXrXrXrXrXrX9XwXtXtXwX9X9XrXrX9X9X9X4X4X4X6X6X6X9XrXrX9X9X9XrXrXqX6X6X4X6X6X6X6XqXqX6X6XqXqXqX6XqX6XrXqXrXrX6XqXqXqX6X6XrX9XrX6X6XqXrX6XrX6X6XqXqX6X6X6X6XqX6X4X6X4X7XMXNXnXnXbXnXnXnXnXmXmXmXNXbX8XeXMXNXwX9X9X4XrX4X4XrX4X9XwXNXNXyXwXrXrX7XeXeXeXbXnXnXeXrX4XrXrX6XrXrXqX6X6XrX6X6X4X4XwXMXMXbXbXbXeXeXtXNXtXtXwX9X4XrXrXtXBXBXnXmXmXVXVXVXmXmXBXVXmXmXmXBXbX8X7XeXeXeXeXtXNXBXBXmXnXNXMXeX9X9X4X9XrXrX6X6XqXqXqX6X6X6X6X6X6X6X6X6X6X6X6X6XqX6X6X6X5X6X6X6X6X6X5X6X3X6X5X5X3X5X6X6X5X6X5X5X5X5X3X5X5X5X5X5X5X6X5X6XqX5X5X5X5X5X5X5X5X5X5X5X5X5XHXO.7  .OXLX_ m HXOX).OXy.6 7 p , O m ~ 9 > w 3 , 6 6 6 3 > 2 6 , 4 4 > 6 7 4 9 6 w.XXU.U. XXXXXoXoXoXoXoXoXoXoXoXoXoXoX.X{.].R.XX .P XXm.M , , , , O O % % % % % * , , % = = > * * * % & O ; b.t o , * # = , = # & = & . # > ; & > . : LXHXq o & & & o h ' i ;   Y .Xi.p.D.D.G.G.G.G.G.G.Y.G.Y.XXXXD.",
"a d d r j 7 4 6 4 & = = = & = = > * 2 > > > > > > > > > > = > < > > = > > * = & > 2 6 4 4 > 4 , , , 2 4 % o 7 e ~ c.v.9.9.9.s.A.P.P.d.9.' ' 9.Y = < > > < > & m XX5XqX4X#XW.%X4X%X7X9X4X4X9XwXwXwXwXwXwXwXrXwXwXwX7XwXwXtXwX7XeXeXwX7X7XtXNXPXtX1XC . , , , 3 3 2 l 9.S.n.C 2XtXeXeXeXeXeX8XeXeXMXeXeXeXeX7XeXwX7XeXeX7X8XeXbXMXMXbXnXbXnXbX8X,XbXnXmXnXnXbXbXbXnXbXeX7XwXtX7X4X4X4X9X9XwXwXwXwX9X9X9XrXrXrXwXtXwX9X9XrXrXrXrXrXwXrXwXwXrXwXwXwXwXwXwXrXwXrXrX9X9X4X9XrXrX9X9X9XrX4X4X4X9X4X9X9X4X4X4XrXrXwXrX9XwXwXwXrX9X4X9X4X9X4X6X9X9X9X9X9X9X9XrX9XrXrX6X4XrX9XrX6X6XrXrXrXrXrXrXrXwXwXwXwXwXwXtXtXrX9X9XwXrX9X9XeXNXMXbXeX8XwXrXrXrXwXrX9XrXrXrXrXwXMXBXmXBXBXMXbXNXtXtXrXrXrXqX6XqXrXrXtXtXtXtXrXrXrXrXrXwX7XtXMXMXeXwXrXrXrXrX9XrX4X6XqXqX6XqXrXrXrXqXrXrXrXrXrX6XqXqXqXrXqXqX6X6X6XqXrXrXrXrXrXrXqXqXrXrXqXrXrXqXqXqXrXrXrXrXrXrXqX6XrXrX6XrXrXrXrXrX6X6XqXqX4XqX9XwXwXeXNXBXnXnXmXmXmXVXBXnXbXMXBXbX8X7X7XwX9XrXrXrXwXrX9XwX9X9XwXrXrXtXtXNXBXVXmXmXBXMXtXtXrXrXqXrXqXrXrX6X6X6X6XqX4XwXwXMXNXBXBXBXBXAXmXmXBXKXwX4X4XeXBXVXVXVXBXmXmXmXnXmXmXmXmXVXmXnXbXeXtXtXeXyX7X9X4XtXMXnXbXnXBXBXNXMXtXtX7XwXrXrXqXqX6X6X6XqX6XqX6X6X4X6X3X6XqX6X6X6X6X6X6X6X6XqX6X6X5X5X6X6X6X6X6X5X3X5X5X6X6X6X5X5X5X5X3X5X5X5X5X6X5X5X3X5X5X6X5X5X5X5X5X5X5X5X5X5X5XHXF.~ ~ OX;.4 ~ U.XXGX:.a J z , 6 % , > a z w 3 8 4 6 3 3 2 4 4 4 4 4 > 4 7 p 6 M B.U.Y.XXXXXXXXXXoXoXoXoXoXoXoXXXoX.X{.{.'.'. XU.M.1., o , , , O t = o % % * o O , , < 9 = > * > , , h 5 l r o , * * * * # = * = & o  .U o > * = 2   q y.l . * & & % # q.5XA.Q ^ V.A.'.G.A.G.F.G.XXOXXXY.Y. Xu.u.HX",
"/ #.W s r 1 4 > > 9 & % = = = = = = = = > * > > > > * * > = = > < = = = * * = $ & = 4 & o o , , > , & = l C ;   . h l ^ '.A.'.n.A.i.H.I.rXJX5XB & < = = < < > = l Y 9.A.JX4X#X$X4X%X4X7XJXPXJXwXrXrXwXwXtX9XwXwXrXtXwXwXeXwXeX7X7XwXPXPXKXNXKXIXIXC o , , > 8 > l qXPX(.' 9.tX8XeXeXeXeXeXMXtXeXeXeXeX7XtXeX7X7XtXtXtXeX8X8XMXbXeX8X8X7X8X8X8X,X,XnXnXnXnXbXbXbXeX8X7X4X4X4X9X9X9X4XrXwXwX9X7XwX9X9XrX9XrXrX9XwXtXwXrX9XrXrXrXwXwXwXwXwXwXwXwXwXwXwXwX9X9XrXrX9X4X4XrX9XrX9XrX4X4X4X4X4X9X6X4X9XrX4X4X4XrXrX4X4X9X9X9XwX9X4X9X4XrX9X4X4X9X9X9X9X9X9X9X9XrX9X4X4XrX9X9X4XrXrXrXrXrXrXwXwXwXwXwXrXrXwXwXrX9X4XwXwXwXeXeXtXMXMX8X7XwXwXwX9XrXrX9XrXwX9X9X9XtXMXnXmXmXBXBXBXMXNXwXtXrXwXrX4XrX9X9XyXyXyXtXwXwXrXwX9XwXtXeXtXMXMXtXwXwXrXrXrX4XrXrX6XqX6XrX6XrXrXrXqXrXrXrXrXrX6XrXqXrXrX6X6XqXqX6XqXrXrXrXrXrX6XrXqXqXrXrXrXqXqXrXrXrXrXrXrXrX6XrX6XrX9XrXrXrXrXrX9XqX6XqXrXqX4X4X4XwXMXBXnXnXnXmXmXnXnXmXnXbXmXnXbXbXeXeX8XwX7X7XtXtXtXwX9XrXrXrX9XrX7XtXMXBXmXmXnXBXNXMXeXtX6X6X6XyXyXwX4X6X6XqX6XqX6XrXtX8XeXnXBXmXmXVXVXBXNXtX7XMXBXmXVXVXmXmXnXmXmXnXnXmXmXnXBXBXNXBXNXMXNXNXtXrX3X3X9XMXbXbXeXeXeXMXMXMXMXMXeXrXqX6X6X6X6X6X6X6X6X9XwXwX4X6X6X6X6X6X6X6X6X6X6X6X6X3X3X6X6X6X6X6X6X3X3X3X3X3X6X5X5X6X5X5X5X5X5X5X5X5X5X5X3X5X5X6X5X5X5X5X5X5X5X5X5X5X5XoXHX`.N P T e 2 1 m x.B.g 3 a 6 r 6 r e 3 3 e 3 4 = = 3 4 > 4 4 4 4 > > 4 1 6 8 1 9  .`. X X XXXXXXXoXoXoXoXoXHXGX'.XXXX'.'.'.Y.D.U.U   , , , . k HXQ . * %   f Q , r @.+.< o * 3 , 3 v >.U o > , # % * % % * & = & O l 5 # = # = * & .   . # # % # & # . h q.p.p.oXY.@.XXXXY.'.`.+.^ '  X X5   - 0.",
"4.6.X., % r M = = X.k # = o . & > > * & > , 2 > 4 > = = > = > = * = > * = & 7 l m < $ B ^ U & * 6 2 2 & l D.F.O. .m.m.m. .Q _ _  .P Y 9.q.Y 5 # > > 4 * = < 4 , # % 4 O Y 3X$X#X$X$X9XJXe.B ' PXwXwXtXwXwXwXwXJXJX6XJXwX9X7XwX7XtXwX9.7.LXLX9.q.^ ; * 2 > = > , t ^ i i 1XPXMX7XeX8XeXtXKX4XwXtXtXtXtXwXwXwXwXwXyXtXtXtXeXeXtXeXeX7X7X7XeX8XbXvXbXnXnXnXbXnXbXeXeX7XeX9X9X4XwXrX9XrXrXwXtXwXwXwXwXwXwXrXrXrXrX9XwXtXwX9XrXwXwXrXrXwXwXwXwXwXwXwXwXwXrXrXrXrXrXrX9XrXrX9XrXrXrX9X4X9XrX4XrX9X9X9X4X9XrX4XrX9X4X4XrX4XwXwX4X4X9X9XrX9X4X4XrXrXrX9X4X9XwXwXrX9X9X9XwX9XrXrXrXwXrXwXwXwXwXwXwXwXrXrXrXwXrXrXrXwXtXtXtXeXeX8XeX7XwXwXtXwXwXwXwXrXrXwXwXwXeXtXBXmXBXmXnXmXBXmXBXtXtXrXrXrXrXrXrXwXwX9XwXwXtXtXtXtXyXtXyXtXtXeXbXNXNXtXtXwXwXrXrXrXrX9XrXrXrXrXrXrXrXrXrXrXrXrXrXrXrXrXrXrXqXqXrXqXrXrXrXrXwX9XrXrXrXqXrXrXrXqXrXrXrXrXrXrXrXrX6XrXrXrXrXrXrX6XrXrXrXrXrX6XqX6X6XqXrX6XrX9XMXNXBXnXbXnXnXnXmXnXmXmXmXnXBXMXBXMXeXeXeX7XtXtXwXrXtXwXtXrXwXwXrX9XtXbXnXBXmXmXBXNXNXwXrX9XNXMXwXrXrXrX6XrXqXqXrXrXrXwXtXMXmXVXDXmXmXBXBXNXBXmXVXmXBXnXmXBXBXBXBXmXBXBXBXBXmXBXBXBXBXNXNXNXyXrX4XwXNXBXNXbXMXtXtX7XwXMXNXtXtX6XqXqXqX6XqXqX6X6XrXKXKXJXrX4X6X6XqX6X6XqX6X6X6X6X3X6X6X6X6X6X3X3X6X3X6X3X0X5X6X6X6X6X6X6X6X5X5X5X6X5X6X6XqX5X6X0X0X5X5X5X5X5X5X5X5X5X5X'.Q 7 F c n S 6 > 9 r. .7 s , 6 e e 6 e e g 2 = q l = 4 4 4 > > > 4 4 4 4 8 9 7 6 e U `.XXGXGXoXoXGXHXoXGX:.t m.GX'. X'.'.'.Y.Y.U.u.O.b.b.x.| ~ +.l o . # B F.Y = e 9 q i B r > 3 > o _ | # * * * * % % & > & * & * . # & = * = $ = & * & & # # # & & > o = - l v.| O U ~ +.m.| = = . m ~   $ . 5 ",
"3.4.4.T F X.4.T v *.U # & h U 7 , = & G 8 , = # * = > * = > = * = & = * & & = $ U _ Q Y.HXXXm * , = 2 = $ q ^ O.@.u.Y.@.t , % , 8 > < < ; = > > > > = > > = = . . = f m Y ].PXtXrXrX6XB l i.^ 9.yXrXrXwXrX9XrXrXB q ' PXyX9X7X7X$XrXB . l h - O % , , , > 1 $ h m 1 7 q.PX+X$XeXtX8XKXtX7.B #XKX7X7XtXwXwX9XtXwXwXtXwX7XwXwXwXtX7X7X7X7X;X8XBXnX,XeXnXbXbXeXtXeX7X9XtXtX9X9X9X9XrX9X9XwXwXtXwX7XwXwXwXwXwX9XrX9XwXtXtXwXwXwXwXwXwXwXwXwXwXwXwXwXrX9XrX9X9XrXrX9XrX9X9XrXrX9X9X9XrX9X9XrX9X9XrX9XrX4X9XrX9X9XwX9XrX9X9X9X4X4XrX9X9XrX4X4X9XwX9X9XrX9X9XwX7X9XwX9X9XwXwXrXwXwXwXwXwXwXwXwXwXwXwXrXrXwXtXwXtXtXtXtXeX8X8XtXeX7XwXwXwXwXwXwXwXwXwXtXeXeXMXBXmXmXmXnXBXnXmXmXBXeX7XrXrX9XrXwXwX9XrX9X9X9X9XwXtXtXtXNXNXtXeXeXbXbXMXMXeXeXtX9XrXrXrXrXrXrXrXrXrXrXrXrXrXrXrX6XrXrX6XrXwX4XrX6XrXrXrXrXrXwXeX7X7X9XrXrXrXqXrXqXrXrXrXrXrXrXrX4X4X6XrXrXwX9XrX4X4X4XrXrX9XrX4XrXrX6X9XrX6X4XrX7XeXeXNXnXnXnXbXBXmXBXBXbXbXBXmXnXMXbXbXbXMX8XtXwXwXtXwXtXtXwXwX6XrX9XtXMXBXnXnXmXBXbX8X8XtXeX4XrXtX9XrX4X6XrXqX4XrX6X9X9XtXBXBXVXDXmXBXmXmXnXmXnXnXmXVXmXmXmXmXmXBXmXnXNXBXMXBXBXBXMXMXMXNXNXtXNXBXnXBXBXNXtXwX2X4X4XtXMXtX9XrX6X9XrXqX6X6X6X4XwXwX9X4X6XqX6X6X6X6X6X6X6X6X3X6X3X6X6X6X6X6X3X6X6X4X6X4X6X6X3X6X6X6X6X6X3X5X5X5X5X4X6X6X6X6X6X0X6X5X5X5X5X5X5X3X5X}.oX/.D.`.m , t S 7 2 B o.v 4 e 6 , 1 , 3 e 4 , > y._ $ 2 > > > > > < > 4 4 < 4 1 ~ o.~ HXm.+.@.T.OX_.T.XXLX~ O v XX'.).R.Y.Y.Y.F.Y.m. XoXF.oXm.l k ^ _ Q u.GXY . 3 % 6 V.oXm.9 % * % % = = # * * % & % * % & * & & & = = & & & * * & # & & % # % # # & & * > % $ $ = = 4 O < 1 > 4 r 6 , $ O o $ U ",
"5.3.5.5.5.5.-.6.X.r e 4 6 ] N.r 3 , p *., o 7 x = = > > > = = = * = = & ; $ & # . m b.v.u.'.0.k 7 k t f f & .   . O t 6 = h Q l 1 8 8 > 4 4 4 > > > > > > > $ l Y ; , Q y._ ' Y B ' ^ - ].UX#X7.PXtXrXrXtXwXyX#Xl t U p.H.yXKXKX7X4XqXO.m m 9 = > > 2 > < $ B qXa.h 7 H.eX+X$XwXLX4XK.V V d.JXwXwXwXwXwXwXwX9X9XtXwXwXrXwXwXwX9XwX9XeXeX8X8XMXbX8X8XeX8XeXtXwX9XwXwXtXwXwXwXwXwXwXrXrXwXtXwXwXwX7XwXrXwXwXwXrXwXrXwXtXwXwXwXtXtXwXwXwXwXtXwXwXrXrX9XwXrXwXrX9XwXwXwXwXwXwXrXrXwXwXwXwXtXwX4XwXtXtX9XrXwXwXwXrXrXwX9XrX9X9X9XrX9XrXwX4X4X9XrX9X9XwX9XwXwXwXwXwX7XwX7XwXwXwXwXwXwXwXwXwXtXtXtXwXwXwXtXtXtXtXtXtXeXeXeXtXtXeXwXwXwXtXeXwXwXtXtXtXeXeXNXBXVXBXNXMXMXBXBXmXmXBXeXwXrXrXwXwXwXtXtXtXtXrX9XwXtXyXtXtXtXtXtXtXeXMXbXbXbXnXMXtXwXrXwXtXtXwX4XrXrXrXrXrXrXrXrXqX9XrXrXrXrXwXwXrXrXrXrXrXrXrXrXtXNXMXeXeX7XwXwXrXrXrXrXrXrXrXrXrXrXrXrXrXwXwXrX4X9X9X9XrXwXrX4X6XrXrXrXrX9XrXrXrX4X9XwXNXMXBXbXMXbXMXMXbXeXeXbXBXnXBXBXBXBXBXbXMXMXtXtXtXtXtXwX9XrXrXrXwXeXMXMXmXBXBXnXNXnXBXeX9X9XtXtXtXwXrX9XrXrXrX6XrXrXrXwXyXNXBXBXmXVXVXnXmXmXmXBXVXVXVXVXmXBXVXBXnXnXBXBXNXeXeXbXNXBXBXBXBXBXBXmXmXBXBXNXNXwXwX9XtXNXNXMXtXwX7XwXrX9XrXrXrX4X4X2X6XqXrX4X9X4XrX4XqX6X6X6X6X6XqX6X6X4X4X6X6X6XqX6X6X6XqX6X6X6X6X6X6X6XqX6X6XJXrX6X6X0XqX5X5X5X6X6X5X5X5X5X5X}.5X5XHX5X{.q.+.q.XX&.r % O , , r z , U  .= O h 6 1 q . & 4 2 > 4 4 1 4 4 < < ; = > = 7 Q B.m , % k OXl 2 l  .U z 6 y.XXY.Y.Y.G.F.m.`.O.^ OXXXOXU.m.`.GX}.0X5XB # 6 3 = 9 Y B 5 # * * * * % # * * * % & * * & * & * & * * = & & & < 4 & # & & % & & # & % & = * * 4 = > 2 4 , > , 4 > 4 4 7 6 = $ 6 4 ",
"4.3.4.3.4.3.=.4.} , 3 a % b #.> 3 % N E > F <.5.4 = > = > > = & * > % & >.Q . = , $ k t t B ^ P | v.~ 1 7 t g 7 f O = & = ~  XQ = 2 4 4 4 > > * > > > * > > . O.LXp.B   . & < # 5 - C /.JXtXPXPXK.I.PXrXrXwX9XyX'.Q M 1 - ' ' ^ 6X1X1X^ l @.h % 1 = > > 4 $ i 4XyXd.9.wXKX4XJXs.Y C y d.PXJXtXwXwXwXwX9X9X9XwXwXrX9X9X9X9XwXrX9X9X7XtXMXeX7X8X7X7XwXtX9XwXrX9X9X9XwXtXwXwXwXwXwXwXwXwXwXwXwXwX9XwXwX9XwXrXrXwXwXwXtXwXwXwXeXtXtXtX7XwXwXwXwX9X9XrXrXrXwXwXwXwXwXwXtXtXwXwXwXwXwXwXwXwXtXwX$XwXtXtXtX9X9XwX9XwX7X9XwXwX9XwX9X9XwXwX7X9X9XrX9XwX9X7X7X7X7XwXwX7XwXwX7XwXwXwXwXwXwXwXwXtXtXtXtXwXwXtXeXtXtXtXeXeX8XeXtXeX7XtXwXwX7XtXeXwXeXtXtXeXwXeXNXBXBXNXeXeXeXtXBXmXnXMXtXtXwXwXwXwX9XwXtXyXtXwX9XrX7XtXtXtXtXeXtXMXbXbXbXbXbXnXnXMXMXwXeXMXMXwX9XrX9XrXrXrXrX4XqXrXJXtX9XwXtXtXeXNXtXrXrX9XrXrX9XwXMXBXBXBXnXbXeXeXwXrXrXwXwXwXwXwXrXrXrXwXwXrXrXwXrXrXrX9XwXrX9XrX9XrXrXrX9XrXrXrX9X9X4X9XNXNXMXbXbXbXbXMXeXeX8XnXNXMXNXMXMXBXBXBXnXMXeXtXtXwXwXrX6XrXwXwX9XwXtXtXMXMXmXmXmXmXnXbX7X8XMXnXbXtX9X9XrX9X9XwXrXrX6XrXwXtXnXmXmXmXBXmXnXBXmXmXVXVXmXmXmXmXVXmXnXBXBXBXbXbXNXBXnXnXBXBXnXnXmXBXnXBXBXBXBXNXAXNXbXBXBXNXMXNXMXtX8XwX9X9X4X4X6X6X4X4XtXtX7XwXrX9X4XqX4X4X6X4X4X6X6X6X6X4X4X4X4X6X6X6X4X6X6X6X6X6X6X6X6X6XJXJX6X6X6X6X6X5X5X6X5X5X5X5X5X5X5X0X5X5X5X5XHXJXHXGXGXm._ _  .B = a , ^ HXY B U.m . m l > 2 > > > 4 1 > 4 = 9 x.v & 7 7 O < 7 x z 6 ;.m % = = 7 6 e OXOX XY.U.XXY.U.b.x.+.:.+._ ~ T.OXoX.XGXY.h , e 2 , O . . % * , % % * * & * % % * & % & & & % & & * & & & & & & = # # & # & # $ # & # & & & & = = > & * > 4 > < > > > 4 7 . = &   ",
"5.3.3.4.5.3.4.4.3.A z n % ( { o a F E { -.M.-.g * > > = > > > & > > > ; :.m.~ 7 = 8 p z E U Q P +.0.Q t k k Q ! :.~ I m r & 5 = 2 7 6 > > > > > > = = = > < & q 9.HXJXO.k ; 5 9.0Xs.qXPXPXKXp.HXB h 9.L.tX9X9XrXB   $ < m 7 = . q q : O O O + 4 4 < > > 4 6 = q C e.6XO.B B e.B 1 t B 4XwX4X9XwXwX9XwXrX9X4XrXJXtX9X9XrXrX9XwX9X9XwXyX9X7X7XwX9X7XwXtXwXwXwXrXwXwX9XtXtXwXwXtXtXwXwXtXwXtXtXtXwXwXwXwXrXwXwXrXwXwXtXtXeXeXeXMXBXMXbXeXeXwX7X9XrXwXwXwX9XwXwXtXwXwXwXwX7XwXtXtXtXwXwXtXtXtX7X7XwXwX7X7XwXwXwXwXwXwXwXwXwXwXwXwXwXwXwXwXwXwXwXwXwXwXwXwXwXwXwXwXwXtXtXwXwXtXtXtXtXtXtXtXtXtXeXeXtXtXtXtXwXwXwXtXtXtXeXtXtXtXtXeXtXeXeXtXeXtXeXeXeXtXtXMXMXMXtXtXtXtXMXBXMXNXtXtXrXrXwXwXwXtX7XwX9X9X9XtX7XeXNXNXeXtXtXMXbXnXnXnXnXnXbXBXMXeXbXBXMXtX7X9X9XrXrXrXrXrX6XwXKXKXwX7XtXMXBXAXNXtXwXrXrXrXrXrX9XeXeXNXBXBXBXBXbXtXrXrXwXtXtXrXwXwXwXwXwXwXwXtXwXwXwXwXwXwXrXwXrXwXwXrXrXwXrXwXrXrX9XrXwXtXtXMXMXNXMXBXMXbXbXMXBXMX8X7X7XMXNXBXBXVXBXNXeXtXeXwXrXwXwXrXwXwX9XwXwXtXNXmXmXmXVXBXnXnXnXVXVXBXeXwXtXtXtXtX9X6X6XrX9X8XNXVXmXVXmXmXVXVXmXVXmXBXmXVXVXVXVXBXmXVXmXVXBXBXmXmXnXBXBXBXBXBXMXBXnXBXBXAXBXBXBXBXBXBXMXeXeXMXMXBXBXNX8X7X4X4X2X6X4X9X9XtXtXtXwX4X9XwXwXtX9XrX4X4X6XqX4X6X6X4X4X6X6X4X6X6X6X6X6XqX6XqXqX6X6XqX4X6X6X0X6X5X5X6X6X6X6X5X5X0X6X0X6X0X0X5X5X5X5XGXoXoXOXLXUXUX~ + 1  .Y.Y.XXXX:.;.`.! # 3 4 4 2 4 4 4 4 > Y LX+.r > 4 , , , r g > P x.~ q , p 4 4 I m _ T.b.! g x.`.OX,.O , 3 O j Q >.+._ I 7 > , % , , > , > % * * , % % & * % = = & % & = = & = = * * * & & & & & & & * & & # $ & & & & & = & & = = = = = 4 = = > < 4 ; h h ; G 9 ",
"3.3.3.3.3.4.4.-.4.4.4.-./ 5.{ A { #.-.5.M.) e # > = = * = * = * & * 4 = h N.m.r.v o , m XXD.b.x.m.b.D.m.m.x.>.U x e r U G > , 4 6 > 4 4 > > > = = = = * = = > o 5 l ^ O.' p.P.JXPXqXLX^ i.^ . m x s . ^ KX4X7XrXe.7.i.}.9.> , e , O , o 1 h 7 = O = 4 = 1 4 7 4 . l Y e l h t ^ s./.rX2X7XwXwX7XrX9XrX9XrX9X9XrX9X4XrX9XrX9XrX9XrX9X9X9X4X9XrX4XrX9X9XwXwXrXtXwXwXwXtXwXwXwXtXwXtXwXwXtXtXwXwXwXwXwXwXwXwXwXtXtXtXbXMXbXMXnXmXmXmXnXnXbXeX8XwX9X7XwXwXwXwX7XwXwXwX7XwXwXtX7XwXwXtXwX7X7XtXtXwX7XtX7XtXwXwXwXwXwX7X7XwXwXwXwXwXwXwXwXwXwXwXwXwXwXwX7XwXwXwXwXwX7XtXtXwXeXtXtXtXtXtXtXtXtXeXwXtXeXtXtXtXwXwXwXtXeXeXtXtXtXtXeXtXtXeXeXeXeXeXwXtXeXtXtXtXtXtXtXtXwXeXtXMXMXMXtXwXwXrX9XtXtXeXeXeXeXtXtXtXMXBXBXMXeXeXeXbXnXnXbXnXnXnXnXnXMXbXeXnXBXnXeXtXwX9X9XrXrXrXrX9X9XtXeXtXeX8XBXBXBXbXeXtXwXwXrXrXrXrX9XeXeXnXmXmXBXMX7X9XwXwXwXwXrXwXwXwXwXwXwXwXwXrXwXwXwXwXwXwXwXwXwXwXwXwXwXrXwXwXrXrXrXrXwXNXNXBXnXBXBXBXnXnXNXMXeX7X7XwX7XtXNXBXBXBXBXBXMXtXeX7X9XwXwXrXwXrX4XrXwXeXNXBXnXmXmXmXmXmXVXmXnXMX8XbXBXMX7XwX9XwXwXtXNXBXBXBXBXVXmXmXVXmXnXnXBXVXmXVXmXmXmXmXVXVXmXmXmXmXmXBXnXMXNXMXMXMXBXBXBXBXBXDXBXBXNXMXMXNX7X7XMXBXBXMXMXMXtXtXtXwX4X4X7XeXeXtX7X7X4X9XtXtXtX7X4X4X4X4X6X6X6X4X6X4X6X6X6XqX6X6X6X6XqXqX6X6X6XqX4XqX6X6X6X6X6X6X6X6X5X6X5X5X5X5X6X6X0X5X5X5X0X0X0XGX~ h Q ' Q M c.U.O.F.P l c.m $ O , > > 2 > > 2 4 > > 9 Q  .c.;.E M M g p , 1 r.OXLX~ O 4 6 6 % # $ f 5 # . 1 ~ ~ g 3 w w 3 , O % o # O * 2 , * , = > % * * % * = % * % % * * # * % & & & * = & & * * & % # $ # & o # * & & & # & & $ & & & = & & = < & = ; = & < < & q OXB 7 N.",
"3.5.5.3.4.4.4.4.3.4.3.3.3.$.=.5.6.4.M.X.N = > 4 > * > > > = > = > = 6 > = I N.T.c.r & & :.XX X).D.m.U.U.U.n.D.;.1 O , , 6 7 8 9 9 < 7 1 > 1 > > > = * = 4 * > 4 2 O ; . $ t.{.B Y ^ Y O 1 7 6 l l - ^ 3XrX9X7X9XtXJXPX].- 1 t < 7 h 7 Q Q 1 $ 5 h & < < 4 1 7 4 l A.P 1 G.p.; 9.UXIXUXPXeXwXwX9XwX9X9XrXrX4X4X4X4X9XwXrXwXrX9XwXwX9X9X4XwX9XrXrXrX9X9X9XrXwXtXtXtXwXtXwXwXwXtXtXtXtXwXwXwXwXtXwXtXtXwXtXtXeXMXMXBXnXmXmXmXmXmXmXmXnXnXnXnXnXbXeXeX7XwXwXwXwXtXwXwXtXtXtXtXeXwXtXtXwXwXwXtXtXtXtXtXtXtXwXtX7XwXwXwXwXwXwXtXwX7XwXwXwXwXwXwXwXwXtXtXwXwXwXwX7XeXtXtXtXwXtXtXtXtXtXtXtXtXwXeXeXtXtXtXtXwXwXtXtXtXtXtXtXtXtXtXtXtXtXtXeXtXeXeXeXtXtXtXtXyXtXNXtXyXtXeXeXNXNXMXeXwXwXwXwXtXtXMXtXtXtXtXtXtXBXBXBXMXeXbXbXMXnXnXnXnXnXnXnXnXnXbXeXbXnXnXMXNXMXtXeXtXtXwXrXrX9XrXyXKXMXbXnXBXBXmXmXBXMXMXtXtXwXwXtXyXeXMXBXBXmXNXeXeXeXtXwXtXrXwXrXtXtXtXwXrXwXtXwXwXwXtXtXtXtXtXwXwXwXrXwXtXtXtXtXyXwXwXwXyXMXNXBXBXBXBXBXBXBXNXMXMXMXMX7XeX7XeXeXMXNXBXBXBXMXMXtXtXtXtX9X9XrXrXrXwXeXtXMXMXMXnXnXmXnXnXnX8X8XnXnXMXMXNXeXtXtXMXeXMXeXeXMXBXVXDXVXBXnXnXBXVXmXmXVXVXnXBXBXmXmXmXmXBXbXMXMXNXeXeXtXtXMXBXNXBXMXMXMXBXNXMXNXKXMXKX8XtX7X7X7XeXMXMXMXtXeXwXwXtX8XeXMXtX7XeX7XeX7X7X7XwX7X4X4X6X4X4X6X6X6X6X6XqX6X6X4XqXqXrX6X6XrXrXrX6X0X6X6X0X6XqX6X6X0X0X6X6X6X0X0X0X6X0XHX0XHXHXGXHXy.F U Y  .U. XXXD.B.c g g . * , 2 4 , > 4 4 > 2 4 6 > , O v 5.OXOX`.B.U.1.l.HX! 9 7 4 3 3 7 7 9 * = # 2 > % . . # 3 3 3 > 2 3 2 2 6 2 2 , , 2 * * * * % * > # * * * = % = = * * & = # # & * & = * * & % & & # & # = & # # % & * & & % & * = = = = 4 = = ; ; = < < 7 $ Y B.N ] ",
"5.[ [ 5.3.=.4.4.3.=.$.3.=.4.4.5.6.E r = > > 1 * = * * > < = * = 4 * * = 2 . x l.T.b.N . 1 _ _ b.Y.D.D.m.n.U._.b.Q I M , > < 6 ; 4 7 < = $ = > = > > > = = = = = > = 9 4 & 7 k O & $ < B I > h (.3XS.JXrX4X9X9X4X4X$XwXS.. B u.- C 3X^ 0XC ; ; C ' & ; ; < < 7 1 ; Q U = ^ P.; 1 oXF.^ H.tXwX9XwXwXrXrX9XrXrX9X4XrX4X6XrX9XrXwX9XwX9X9X9XrX9X9X9X9XwXwX9XrXwXwXtXtXwXwXwXtXwXwXtXwXwXwX9XwXwXwXtXtXtXMXbXBXmXmXnXmXnXnXmXmXnXmXnXnXnXmXnXmXmXnXnXnXbXeX8XeXeXeXtXtXwXtXeXtXtXtXwXtXtXtXtXwXwXwXtXtXwXtXwXwXtXwX7XtXwXwX7XwXwXwXwXeXwXwXeXwXwXeXeXeXtXtXeXtXwXeXtXtXeXwXtXtXtXtXtXtXtXtXwXtXtXeXtXtXtXtXtXtXtXtXtXtXtXtXtXtXtXtXtXtXtXeXeXtXeXwXtXyXtXtXtXtXtXtXtXtXtXtXMXtXwXwXwXwXwX7XtXtXeXeXeXeXtXMXbXMXBXbXeXMXMXnXnXnXnXnXnXnXnXnXbXeXeXbXbXnXnXBXBXBXNXNXMXtXwX9X9XrXrXtXtXNXBXBXmXDXVXVXVXmXnXMX8XeXtXtXtXtXtXMXbXBXBXBXnXMXeXeXwXtXtXtXtXtXtXtXtXwXwXtXwXwXwXtXtXtXtXwXwXtXwXwXtXtXyXtXtXtXwXtXtXtXNXMXNXBXnXBXnXnXMXBXMXMXNXMXeXtXeXtXeXeXbXBXBXBXMXMXtXtXtXrXrXrXrXwXwXwXtXtXtXtXtXeXbXBXnXnXnXnXbXBXMXbXMXNXtXMXtXtXeXtXtXtXBXAXBXBXNXBXBXmXVXVXmXmXBXMXbXBXBXBXMXbX8XeXMXMXbXeX7XtX7XeXtXtXMXNXNXMXeXNXeXeXMXeXNXMXtXNXMXbX8X8X7X8XeXeXwX7XwXtX7XeXtXeXeXeX8XeXeXeXtXtXwX9X4X4X4X4X6X4X4X6X6X6X6X6XqXqX6XqX6XrXrX6X6XrX6X6XqXqX6X6X0X0X0X0X6XqXqXqX0XHX5X0X6XHX0XHXGXoXLXLXGXGXHXU.U c r n e , 8 2 , > , > > > > 2 > 3 4 e 6 6 , I c.OXGXLXOXOX%.3 , e 6 e 7 7 , > = > * , * 2 2 4 2 2 > > > , , > , , > , * > % , % % > > % % * = * * & * % & = & % % % & % % % & * & % & % # * & = = # # # & # # & & # & & = = = & = = ; = 4 4 < > 9 h 4 c.B.<.",
"=.e d } 3.4.3.=.3.=.$.=.#.-.4.E r % > , > > > * * = = = * = > & & = > = > 2 * > ) OXY.Q < O . l U.D.U.D.T.b.b.b.x._.l._ >.l o 5 < 4 = l Q < > > > > 4 > > < 4 * $ & > & ; $ . # 6 6 l K.qX^ ^ rXyXtXrX4X4X4XrX4X4X4X9X6Xe.d.LXY ^ KXB l 1 < - ^ ^ - 4 4 < 4 7 < O . k r h oX' . U B X 7.PXwXtX9XrXwXrXrXwXrXrXrXrXrXrXrX9XwXwX9XwXwXwXrXwXwXwXwXwXwXrXwXwXwXtXtXtXwXtXtXtXtXtXtXtXtXtXtXtX7XtXeXtXeXbXnXnXnXmXnXnXnXmXnXmXmXnXnXnXnXnXnXmXmXmXnXmXmXBXnXnXeXeXeXtXtXtXtXtXtXtXeXwXwXtXtXtXtXtX7XwXtXtXeXeXeXtXtXtXtXwXwXeXwXeXeXtXeXeXeX7XeXtXeXtXeXtXeXwX7XwXwXtXeXtXtXtXtXtXtXtXtXtXtXtXeXtXtXtXtXtXtXtXtXtXtXtXtXtXtXtXtXtXeXeXeXeXeXtXeXtXtXtXtXwXwXtXtXtXtXyXwXtX7XwXwXtXwXwXwXwXwX7X7XeXtXtXtXMXMXMXMXMXMXMXMXBXMXnXbXbXbXnXnXnXbXeXeXeXnXnXnXBXBXNXbXbXNXMXtXtX9X4X4XrX9XyXNXNXMXMXMXVXmXVXVXBXBXNXbXNXtXtXeXtXeXMXMXBXmXDXBXeXtXtXtXtXtXtXtXtXtXtXtXtXtXwXtXtXtXtXwXwXrXtXtXtXwXwXtXtXwXtXwXtXtXtXeXtXMXNXBXBXnXnXnXBXBXMXMXBXBXPXBXNX8X8X8XMXbXeXeXeXeXtXtXtXtXtXwXwXwXtXwXtXtXtXeXtXeXbXnXDXVXBXeXbXBXVXnXbXtXtXMXNXMXNXtXNXMXMXtXMXNXBXBXBXBXmXBXBXBXNXtXMXbXBXMXbXeXeXBXAXBXMXeXwXwXwX7XwXeXNXBXKXMXeXMXNX7XtX8XtXtXMXMXNXMXMXbXNXeXeX9X4X9X9XwXwX9XwXtXtXeXtXeXeXtXtXeX8XwXwX4X6X6X4XqXrX6X6XrXrX6X6XqX6X6XrXrXrXqX6XqXqX6X6X6XqX6XqXqXHX0X0X5X5X5X0XHXHXHXHXHX0XoX5X5X}.HXY.x = O , e , w 6 3 6 , 3 6 2 > 2 4 6 2 2 4 3 6 e e 2 # h P Q l q , > r s , 6 % . * > = # & , # % > 2 * > , 2 , * , 2 , , , , 2 2 > > , , > = % % % > = & * & % * & & # & * = & * & = & & & = & & = & o & & = # & & & & & & = & = = ; = = = 4 = 4 < 4 & < q 5 4 l.l.",
"! z d w n $.4.3.5.3.5.$.a > 4 # , * 2 , > = * = = & * & * & & & = & * & = = , O % E OXGXT.m 4  .OXD.B.N.T.N.B.0.w.y.w.m.n.l 5 y.U $ = C Q ; > > > > > > 4 * = = p r > * 7 ; q B 1 % ^ KX$XJXJXJXKX9X4X4XrX4X2X4X4X4X4X9XtX9X2X2XL.9X^ $ ; 0 7.rXS.q ; 4 < 4 = q B t Q U 2 B Y.n.Y B (.JXtXwXwXwXwXwXwXwXwXrXrXrX9XrXrX9XrX9XrXwXwX9XwX9X9XwXwX9XwXwXwXwXwXwXtXtXwXwXtXtXtXtXtXtXtXtXyXtX8XMXBXbX8XbXnXnXnXnXmXmXmXnXnXnXbXbXBXnXnXeXeXbXBXmXmXmXmXnXmXVXmXmXnXeXeXeXtXtXtXeXtXtXtX8XtX7XtXtX7XwXtXtXtXtXwX7XtXtXwXwXtXeXeXwXeXeXeXtXeXwXeX7XeXeXeX7XwX7XtX7XwXtXtX8XtXtXtXtXtXtXtXtXtXtXtXtXtXtXeXtXtXtXtXtXtXtXtXeXeXeXtXtXeXeXeXeXtXtXeXeXeXeXtXeXtXtXtX7XtXtXtXtXtX7XwXwXtXwXwXwXtXwXwX7XeX8XeXtXtXMXbXbXMXbXMXMXMXMXeXeXbXMXMXbXnXMXMXeXeXnXnXBXBXMXeXeXMXbXMXNXMXtXtX9X9XwXrXwXwX7XtXtXMXNXBXBXBXBXBXnXMXeXeXeXeXwXtXeXeXMXMXMXNXMXeXeXtXtXtXtXtXtXtXtXtXtXtXtXtXtXtXwXtXtXtXtXtXwXtXwXtXtXwXtXtXtXtXwXeXeXtXNXNXnXBXnXbXnXBXbXnXnXBXBXMXeXbXbXMXNXeXeXNXMXeXeXeXeXtXtXyXtXtXtXtXwXeX7XtXwXeXMXBXBXnXeXbXBXmXBXbXtXNXbXMXMXtXNXNXtXtXwXyXtXyXMXMXtXNXBXNXtXyXwXwXtXtXMXNXMXNXMXBXNXMXyXtXwXwX7XtXwX7XyXtXtXtXeXtXNXtX7XyXwX7X7X8XtXMXMXtXtX7X7XwX7XwX9X4XrX9X4XrX9X9XwXeX7X7X7XeX7XtXwX9X4X9X9X9X9XrX6XrX9XqX6XqX6X6XrXrX6XrX6XqX6XqX6X6X6X6X6X5X6X5X5X5X5X5X0X6XHXHX5X5X5X0X5X}.0Xn.F I P x._.w n T O % 4 > 2 2 > > 4 4 > 4 > 6 2 > 6 4 3 > o # O a N a > , 6 > f 1.N.k 9 p % O , 3 , 6 8 6 > * , , , , > > % , , , > , * * = % % * % = = * % % = & & # % * & & * * * = & & & & & & # & $ = # & % # & & & & & = & = $ = = ; = # o .   - q t 5 h ; ~ c.",
"3 a z 6 8 6 / #./ b F x , * , 2 2 = * * > * * * = & * = 4 = = = = = = = & & * = 2 O N _ ;.I f ! | F x g ! %.x.b. Xn.D.:.^ v. .Q Y < 7 5 ; ; 1 4 4 > > > > = > = f h m > # ; i.JXU , N n.A.].9.C e.JX4X2X4X4X4X4X4X4X4X4X2X2X4X$X$X4X4X9.' S.4XW.K.i ; 6 6 6 4 i 9.~ e R J = i LX1Xd.KXwXwXtXwXtXwXwXtXwXrXwXrXwXrXwXwXwXrXrXwXwXwXwXwXwXwXrXwXwXwXwXtXtXwXwXyXtXtXtXtXtXtXeXtXtXtXtXMXMXMXNXAXnXbXnXBXmXmXmXBXBXNXbXeX7XeXeXMXeXeX7X7XeXMXMXnXmXmXVXVXVXVXVXVXBXMXeXeXeXeXeXtXtXtXtXeXtXyXtXtXtXtXtXtXtXwXwXtXtXtXtXwXeXeXeXeXeXtXeXtXeXeXeXtXeXtXeXeXtXtXtXtXNXyXtXyXtXtXtXtXtXtXtXMXMXtXeXtXtXtXtXtXtXtXtXtXtXeXeXeXeXtXtXeXeXeXeXMXtXtXeXeXeXtXtXtXtXtXtXyXtXtXtXtXtXtXwXtXtXtXtXeXtXtXMXtXeXtXtXtXMXMXMXMXbXMXMXMXbXeXeXMXMXMXnXMXMXNXeXbXbXBXBXBXbXeXeXNXBXBXnXBXBXBXMXtXNXNXwX7XtXNXNXNXeX8XeXNXBXVXDXBXeXeXMXNXeXtXtXtXeXeXeXMXMXMXMXtXtXeXtXtXtXtXtXtXtXtXtXtXtXtXtXtXtXtXtXtXtXyXwXtXtXtXtXtXtXtXtXtXeXtXeXNXBXBXBXBXmXBXnXnXbXMXbXbXbXNXNXNXNXbXbXBXBXBXbXbXBXMXeXtXeXwXtXtXtXtXtXtXwXtX7XtXeXMXMXNXbXBXBXBXBXBXMXNXNXNXMXNXNXtXtXyXtXNXtXeXwXtXtXyXtXrXrXrXwXtXtXNXtXNXtXMXeXtXtXNXtXwXtXtXtXtXtXwXwXyXtXyXtXtXtXtXtXtX7XwXwXtX7XtXtXtXtXNXMXNXtXrX4X4X6XrX9XrX4XtXwX7XtXMXeXtXtXtXwXwX9X7X9X9XrXrX6XqXqXqX6XrXrX6XrXrXrX6X6XrXqX6X5X6X5X6X6X6X0XHX0XHXHXHXHXHX0X5X5X0X5X5X3X5XGXLXLXv.Q % O N 7 2 4 4 > 2 4 4 2 > 4 8 > % * 2 8 e 8 8 8 e 2 6 I M.c.o.5.o.~ ;.h O e G s 4 e r 6 7 7 , 3 , , > , , > > > 4 , , % * = > * % * > * = * = & = = & % % & * & * & % o & & # % & & & & & # & & & & & & & & = & & = = $ = = ; # l 1.+.+.r.c.B.c.c.l.c.l.",
"o % , 2 4 * < < 2 % , , 2 2 > , > * = & * * & & * & = = < = = & & = = & & & & = = & % o o # = O O # * % , , U O.D.HXLXOX_  .P O t h _ U 6 1 4 > > > > > > = = & & < h f h q l l f g e = 9 7 5 - X ' JXrX2X1X4X$X2X4X4X4X2X2X2X#X4XQ.9XrXrX6XJ.J.9.1 > 4 4 4 > X 7.t.t k N h ^ JXwXtXtXtXwXtXtX7XwXtXwXtXtXwXwXwXwXwXwXwXwXwXtX7XwXwXwX9X7X9X7XwXwXwXwXtXtX7XtXyXtXtXtXtXtXeXtXtXtXtXtXtXeX8XNXnXBXBXnXBXBXNXMXeXeXeXwX9XwX9XwXtXtX7XwXwXtXtXtXbXMXBXBXmXVXmXVXBXnXeXeX7XeXeXeXtXtXeXtXtXtXtXtXeXtXtXeXwXtXeXeXwXtXeXwXeXeXtXtXeXeXwXtXtX7XeXtXtXeXeXtXtXtXeXtXtXyXtXtXtXtXeXtXeXMXNXBXNXMXeXeXeXtXeXtXeXeXeXeXeXeX8XeXeXtXtXeXeXeXeXeXMXeXeXeXeXeXeXtX8XeXtXtXtXtXeXtXtXtXtXtXtXtXtXtXwXtXNXMXtXeXeXtXtXMXMXMXMXMXMXMXeXeXMXMXbXMXbXnXMXMXeXbXnXnXBXbXbXMXNXNXMXNXBXBXBXNXMXNXNXNXtXMXNXNXNXMXeXtXeXeXeXBXBXMXMXBXNXMXMXMXeXtXtXtXeXeX8XbXNXeXeXtXeXtXtXtXyXyXtXtXNXNXtXtXtXtXtXtXtXtXtXtXtXtXtXtXtXtXtXtXtXtXtXeXMXMXbXMXBXBXmXBXBXmXBXBXBXBXnXnXBXNXeXbXbXbXBXnXbXBXBXNXeX8XeXtXtXtXMXNXBXyX7X7XtXtXwXtXtXtXtXeXeXNXMXMXBXNXMXtXMXNXMXNXtXtXNXNXMXMXeXtXtXtXwX9XrXrXwXwXtXtXtXwXtXtXtXNXtXtXtXtXwXwXtXtXtXtXwXwXtXtXwXwXwXwXwXtXtXtXtXtXtXyXtXeXNXtXNXMXMXwX4X4X4X6X4X4XrXwX9X9X9XtXMXtX8XeXeXtXMXtX8XtX9X9XrXrX6X4XrXrX4X4XrXrX6XrX6XrXqX6X6X6X0XqX6X6X0XqXJXJXHXHX6X5X5X0X5X5X5X5X5XHXLXLXQ O , , g b.f # 3 2 > 2 4 4 > 2 > 4 9 f 4 4 o 2 7 j p e e ,   m N.c.c.M.r   6 f r s 6 r > > # . . o # > , , , , , , > , , * * , * * * * % * % * % * * * * & # & % % * * & # # * # # & & # & # & # # & & # % # & & % # & & = = & $ ; . B _.z.;.N.l.z.z.c.c.c.z.",
"W r 2 , 6 6 < * > 4 8 , > = * % , = = * & * 4 6 4 * = & = & & & * & & & & & = $ & & > & * & & & * * , , * , h , 7 O.u.' y  .U 1 < B m.U , 4 4 > > 2 > > > > * ; = o 4 f W m O O 6 9 r , w e f ' F.A.e.P.JX4X4XwXrX#X2X2X2X2X#XW.$X%X4XW.Q.L.W.L.^ 7 4 4 4 4 ; ' 3X(.C.i.i.P.JXrX9XwXwXtXtXtXtXwXtXtXtXtXtXtXtXtXeXeXtXtXwXwXtXtXtXtXwXwXwX7XtX9XtXtXtXtXwXtXtXtXtXtXtXtXtXtXtXtXtXeXtXNXNX8XMXNXNXMXMXeXtXeXeXwX7XwXwXwXwXwXtXtXtXtXtXwXtXtXtXtXtXeXMXtXMXBXBXBXMXMXtXtXeXeXeXeXeXtXMXtXtXeXeXeXtXtXeXeXtXtXeXeXeXeXtXeXtXtXeXwXtXrX7XtXtXtXtXtXeXeXtXtXtXtXtXNXNXyXtXtXtXeXbXnXBXnXNXMXMXMXeXtXtXtXtXeXeXtXeXeXeXeXeXeXMXtXMXeXeXeXMXtXtXeXMXeXeXtXMXeXeXMXMXeX8XtXMXtXtXtXtXtXtXtXtXwXtXeXtXtXtXtXtXtXMXMXMXMXbXMXMXbXeXMXMXbXMXnXMXbXMXMXMXbXNXnXbXbXBXBXMXnXBXBXBXMXbXeXBXBXMXNXBXMXBXBXNXNXPXBXBXeXMXbXNXbXNXNXPXBXNXtXtXtXNXNXNXMXMXbXeXMXNXMXNXMXMXtXtXtXyXtXtXtXtXtXtXtXtXtXtXtXtXMXMXtXtXtXtXtXtXtXtXtXtXMXMXeXeXbXBXBXmXBXBXBXBXBXBXNXNXMXnXNXBXbXbXbXbXbXBXBXBXMXbXMXNXtXtXeXtXeXeXtXtXtXtXtXtXtXtXtXeX7XtXMXMXNXNXMXtXMXBXMXNXNXMXMXMXNXBXNXPXNXNXtXwXrXtXwXwXtXtXwXwXwXtXNXNXNXNXtXyXtXtXtXtXtXyXtXtXtXtXwXwXwXtXtXtXtXtXwXwXtXtXtXtX9XtX7XtXtXtXtXtXwXwXrX9XtXtX9XtX9XwX7X7XeXNX7XeXeXbXMXtX7X9X9XrX6XrXrXrXrXrXrXrX9XrXrXrXqXqX0X0X0XqX0X0X6X6XqXJXqXHX0X0X0X0X5X5X0X0XHXq.+.v O , r | c. .> 6 3 2 3 2 2 2 > 6 6 4 , N f v ) j . 6 x z E #.A N c.c.l.M.l.a , , = 6 = & . = 4 q Q c.6 = > > > 2 * , 2 , % * , , * , , = % * * > * * = & & % % * % = * = & & # = & # & & & & & & # % & & # # & & & & & & & # $ ; = ; $ & m N 4 U 1.c.1.4.1.l.c.",
"T E T 2 % > 4 2 8 * > * * % * * % * * = & * 4 7 = & & = = = < & & & = & & $ & & = & & & & & & & & * * * * 2 f 6 , % O 1 B  .x.@.@.:.B < , > > > > > > > > = $  .@.9 ; O 7 6 5 t 9 + h l k < - 9.JXJXq.X O.P.].H.4XrX4X2X#X#X9X9X$X#X+X$X4XW.(.e.q 2 6 > 2 = 5 3X#XL.2X6XrXrXrX9XwXwXwXwXtXwX7XeXwXtXtXeXtXtXtXeXeXeXtXeX7X7XtXeXeX7XeXeX7X7XwXtXtXyXyX7XtXeXtXtXtXeXeXtXtXtXtXeXtXtXtXtXtXwXtXtXtXeXeXwXwXwXrXwXwXwXwXwXwXtXtXwXtXwXwXtXtXwXwXtXtXtXtXtXtXtXMXeXeXMXMXeXeXeXeXeXeXeXtXtXeXeXtXeXeXeXtXeXeXtXtXeXeXtXeXeXeXwXeXwXeXtX#X9XyXeXtXeXtXeXtXtXtXeXtXtXyXtXMXeXeXnXmXmXnXbXbXeXMXtXMXMXtXeXeXtXMXeXeXeXtXeXtXeXeXMXtXtXeXeXeXeXtXeXeXeXeXeXeXeXeXeXeXeXeXeXtXMXMXeXtXeXtXtXtX7X7XtXeXtXtXeXtXtXMXMXMXMXMXMXMXeXbXMXMXMXMXbXbXbXMXeXeXnXMXbXbXMXMXBXBXBXNXnXMXnXeXeXNXMXBXMXBXBXBXNXeXbXBXDXBXMXeXMXNXbXbXMXNXNXtXtXtXtXtXNXNXMXMXeXbXbXnXBXBXBXBXMXMXeXeXtXtXtXtXtXtXtXyXtXtXtXNXeXMXMXNXtXtXtXtXtXtXtXMXtXeXeXMXeXbXBXNXMXbXNXBXnXBXBXbXnXBXMXBXBXBXnXNXbXbXNXnXeXMXBXbXBXNXeXeXeXtXeXtXwXtXtXwXtXtXeXeXeXMXeXMXbXbXbXMXtXMXNXMXbXMXNXNXbXbXNXBXAXNXtXtXwXtXtXtXtXtXwXtXwXwXtXtXNXNXtXtXtXtXtXtXtXtXtXtXwXwXwXwX9XwXtXtXtXtXwXtX7XwXtXtX7X7X7XtX7XtXtXtXNXtX4XrXtXtX7X9X7X9X7X9X9XwXtXwX7XeX8XeXeXeX7XrX9X9XwXrX4XrXrX9XrXrXrXrX6XqXqXqX6X6X0X0X5X6X5X5X0X0X5XHX5X6X5X0X5X5XHXq.U I P ~ &._.;.1 = 3 2 > 2 4 > 2 > 2 2 2 > 7 w % F T.1.N e f M %.I ~ M.c.l.M.N.c.~ ) ) <.%.*.o.l.l.N.OXw.> , > 2 = , , > > > * , % * = , % * * * * * * % = * % * % % & * = & & & # > & # & & & $ & # # # # # # & # & & & & # # : . & = = ; $ $ f h < 9 o.4.4.1.l.1.",
". 4 S p > e 9 , 4 > & > > * = * * * * * = & & & & & * * = = = = ; = = = = & & = = & & $ & $ & & & % % * * * 7 f f 6 r P r.:.x.0. .h > 1 4 > > 4 4 > > > > < # _ T.0.U = 4 , l D.D.O.n.{.{.9.q.R.].R.HXB o v Q _ A.P.JX6X4X6X3XS.rXqX2X4X6XqXV.' 5 6 6 2 4 < ; s.6XK.^.W.2X2X4X9XwX7XwXtXtXwXtXeXeXeXeXtXMXeXeXMXMXeXeXeX7XeXtXeX8XeXeXeXtXeXtXeXtXtXtXtXtXtXtXtXtXeXeXtXtXeXtXtXtXtXtXwX7XwXyXtXyXtXwXwXtXwXwXtXtXwXwXtXwX7XwXtXtXtXwXtXtXtXtXtXyXyXtXtXtXMXMXtXtXeXeXMXMXeXeXeXtXeXtXtXeXeXtXeXeXeXtXtXtXtXtXtXtXeXtXeXeXwXeXeXtXtX7XwXyXtXeXtXtXtXtXtXtXtXtXtXtXtXMXbXnXDXFXBXbXbXMXMXMXtXtXMXMXMXMXtXtXeXeXeXMXtXtXtXtXtXtXtXtXeXeXeXtXeXeXbXbXeXeXeXMXeXeXMXMXeXtXMXMXtXtXtXNXMXtXeX7XeXMXtXtXtXtXtXtXtXMXMXMXMXMXbXMXMXNXMXMXbXbXMXMXbXbXMXMXbXMXbXNXbXMXBXBXnXnXMXNXbXbXBXBXBXBXmXBXNXbX8XMXbXnXMXBXBXBXNXNXbXMXeXtXtXMXtXtXeXeXMXNXMXNXbXBXNXMXnXBXBXBXNXNXtXtXtXtXtXtXtXNXtXyXMXNXPXPXbXMXtXtXtXtXtXMXMXNXMXeXtXNXeXMXNXNXbXbXbXbXBXBXBXnXnXBXBXmXBXBXBXBXnXnXbXbXbXMXnXBXBXBXNXbXMXNXMXMXtXeXeXtX8XtXtXMXtXNXNXNXbXbXNXNXMXMXNXNXMXNXMXMXNXNXeXbXbXMXMXMXtXtXtXyXtXtXtXtXtXtXeXtXeXtXtXtXtXtXtXNXNXyXtXtXtXtXtXtXwXtXtXyXtXtXtXtXtXtXNXyXtXwXtXtXtXtXNXyXtXwX4X9XtXNXeXwX9X9X9XwX9XwX9XwXtXtX7X8XeXMXMXMX7XeXwXwXwXwXwXrXJXJXrXrXqXqXqXqX0X0XqXqX6XqX5X5X6X0XHXHX0X5X0X0X5X5X5XHXJXJXHXOX&.E 9 * > 2 2 6 2 2 > 4 2 4 > 4 <.| , z O k _.N.4.M.c.c.M.c.M.M.M.M.c.N.~.~.~.N.M.N.c.l.c.B.I = 6 e > , > > 4 6 O o % , * , , , * * , > * , * = = * * = * = * * & = & & # 6 ; # & & & & # # # & # & # & # $ $ & & o 4 c.I . $ $ . ; & & $ & = ) 1.1.>.4.1.",
"z e 3 > 6 6 6 > # > > * = * = = * % % * * & * & * = * & = * = * = = & & = & = & & & & $ $ & & & & & & % , 2 = % % 1 o.c.1.Q l < > , 4 > 4 > > > > > > = > < = $ Q x.w. .l . q G.5X].5XP.].5XHX5X'.P.oXoXk n c 1 B.Y y m t.oXl t 9.9./.' Y Y h < 6 4 ; 2 4 < = - ' 6X1XL.2X4X4X4X9X9XwX9X7XeXwX7XeXeXeXeXeXbXbXbXbXbXbXeXeXeXeXeXeX8X8XeXeXtXwX4X9XwXtXwXtXyXyXtXtXtXtXeXeXeXeXeXeXtXtXeXtXwX7XtXtXtXtXwXwXwXtX7XwXeXtX7X7XwX7XtXwXwXwXwXtXtXtXtXtXtXyXwX8XMXMXeXeXeXeXeXeXtXtXeXtXtXtXeXeXeXeXMXeXeXeXtXeXeXtXtXtXeXeXeXtXeX7XtXeXtXtXtXeXeXtXeXtXtXtXeXtXtXtXtXtXtXbXBXDXDXBXnXeXtXMXtXtXMXtXtXtXMXMXeXeXeXeXeXMXeXeXeXtXMXMXeXtXeXeXeXeXeXeXeXeXeXMXtXyXwXwXwXtXyXNXbXtXeXtXtXMXMX8XeXtXtXeXtXtXtXtXeXtXMXMXMXMXMXMXeXeXMXMXMXbXbXbXbXbXbXbXbXMXMXMXbXbXbXMXnXnXnXNXMXBXbXNXNXBXBXBXMXNXNXNXNXNXNXBXMXMXNXNXBXBXBXBXNXNXMXNXNXNXMXMXMXMXNXbXNXBXNXbXeXMXNXBXBXBXNXNXtXMXMXMXMXtXtXtXtXMXPXIXBXMXeXtXtXtXeXMXMXMXeXMXtXMXMXMXMXMXMXNXbXMXMXMXBXNXnXnXBXBXBXBXnXNXBXBXnXBXnXbXbXnXBXBXbXBXbXbXNXBXMXNXeX8XeXtXtXtXwXtXNXMXbXnXbXMXbXbXMXKXNXKXNXNXbXnXeXeXeXMXeXMXtXtXtXtXtXMXtXtXtXtXtXtXtXtXtXtXwXwXyXtXNXtXeXtXtXyXtXtXtXwXtXtXtXtXwXtXNXNXyXtXtXtXtXtXtXtXeXtXwXtX9X4XtXtXeXwX9XwX9X7XwX7X7XtX7XeXtXtX7X8XMXbXMXMX8XwXwX7X9XJX}.qXrXqXqXqX6XqX0XqX6X6X0X0X5X0X5X5X0X0X5X0X5X6X0X6X5XoXR.P.5XF.9 O # 2 , , , 2 > , > > > 4 , = ..OX .v j j I N.c.M.M.c.c.c.c.M.M.M.M.M.M.M.c.M.M.M.c.N.4.x , e w 3 3 3 6 7 # . h j & * , * * , * > % = > * = * & = * * * * & & % * & % # = $ # # # % # # # # $ & & # # # * $ $ & % o  .c.m m U m  .| I k B ~ ,.;.,.,.;.>.",
"#.[ x 2 s 7 4 > 4 * > > , = = * > * * , > = & & = & = = = = = = & & = = & = = & & & $ $ & & & & * = = , > 2 N U ~ _ w.E 1 1 7 1 6 6 7 > > 2 4 > > > > > > = 4 , > Q m.n.q. .0.D.A.].}.P.R.S.].].5X.XoXHX+.O r , & h e . O j < e 1 + U r , 6 9 6 8 4 4 4 4 4 4 = = Y E.1X1X2X4X9X9X9XwX9X7X7X9X9X7XwXeXeXeXtXMXbXbXnXbXbXbXeXeXeXeXeXeX9XwX9X6X3X5X5X6X3X3X3X3X3X6XwXtXtXtXtXtXeXtXeXeXeXyXtXtXeXeXtXtXwXwXtXtXtXwXeXwXwXtX7XtXtXtXtXtXtXtXyXyXtXtXyXtXeXtXtXMXMXtXtXtXwXwX9X4X2X4XtXtXtXMXeXbXbXeXbXbXeXbXMXMXeXeXeXeXMXMXeXeXeXeXeXMXtXtXeXtXeXtXtXeXtXyXtXyXtXtXtXBXBXDXBXbXbXMXtXMXtXtXtXtXtXMXtXMXMXeXeXMXeXbXMXbXeXtXMXMXeXbXMXbXeXeXbXeXeXeXtXtX6X].P.G.G.].3XtXtXMXMXMXNXMXbXbXMXMXeXMXeXMXMXtXbXMXMXMXMXMXMXMXMXMXMXMXMXbXMXNXbXMXbXnXbXMXMXNXbXbXMXNXnXnXNXBXMXBXBXBXMXeXeXMXNXBXMXBXNXBXNXBXNXNXMXNXMXBXBXAXBXBXNXBXBXNXMXMXMXNXMXNXMXNXMXMXMXNXMXBXNXBXBXNXNXNXMXNXMXMXeXtXtXMXMXBXBXNXMXMXeXtXMXMXMXMXMXMXeXMXMXNXMXMXNXNXMXNXNXBXBXBXnXNXNXBXnXBXBXBXNXBXBXNXNXBXMXNXMXBXNXnXNXNXnXMXBXBXNXNXNXNX9X3X}.3X4XwXMXNXbXbXbXKXJX6X].6XyXBXBXNXeXeXbXNXMXMXMXMXMXtXMXNXMXMXtXtXtXtXtXNXNXtXeXtXtXNXNXtXtXtXyXNXNXKXtXtX7XwXwXyXwXtXtXyXtXtXtXtXtXwX7XwXwXwXtXyXwXwX7X7X7X7XtXtXwXwXtXtX7X7X8XtXeXeX7XeX8XbXnXMXeXtXwXeXrXJXO.5XJXqXqXqXqXqXqXqX6X6X0XqX6X0X0XHX5X6X0XHX5X5X5X5X5XHXHXHXHXC & 3 3 2 > 2 , 2 2 2 > > > 4 4 3 > ! OXN.I M P c.M.c.M.M.c.c.c.c.c.M.c.M.c.M.M.M.M.N.M.W 6 w r e e w 3 w , . i :.OXQ # > , , , 2 , > * * > > * * = * & * * * = & & * % * & # # # & & # # & & $ # . # # * & $ * $ . o o m N.| ) c.z.c.c.c.c.M.l.4.1.<.;.l.1.",
"/ $.b * > 2 , O 4 = = R x O > = = , > = & * = & & = & * = = = = = = & & & $ & & = $ $ & & & = & % # = O # , :.n.XXU.U.>.g e f 9 8 > > > > > > > > > > > > > > 2 , = Q :.U.Y.Y.u.O.G.].S.}.5XGXoXXXXXG.D.`. .g > > , U B h 2 w L e z G w z s r 8 4 = 5 > = 4 4 5 6 . Y JX9X2X9X%X4X9X4X4X4X4X9X4X4X4X4X9X9X9X7X7XeXeXbXbXeXeXtXtXwX4X4X4X3X].}.{.{.]..X{.'.'.'.R.].].3X4X6X6XrXtXtXeXtXtXeXtXtXeXtXeXeXeXeX7XtXtXtX7XtXtXtXtXtX8XtXtXtXtXyXtXyXtXtXeXtXtXtXtXtXwXrX1X].]./.P.P.F.P.].3X6XwXtXMXbXbXbXbXbXbXbXbXeXeXeXbXbXMXeXeXeXtXeXeXeXeX8XeXMXtXtXtXtXtXNXNXNXtXtXBXBXMXbXMXtXMXtXtXtXtXeXtXtXeXMXMXeXeXeXeXeXbXbXbXeXeXeXeXMXbXbXbXbXeXeXbXtXtX3X'.G.U.D.D.D.D.D.'.1X9XeXMXNXMXbXMXbXbXbXbXMXMXeXMXbXMXbXMXMXMXbXMXMXMXMXNXMXMXbXMXNXNXMXbXbXMXMXMXbXMXbXMXnXnXnXNXnXnXBXNXbXeXtXNXMXNXNXMXMXNXbXMXNXNXMXeXeXNXMXBXBXeXMXBXMXBXNXbXeXMXeXbXMXMXMXNXMXMXNXNXMXBXMXBXNXMXBXNXMXNXNXNXMXMXtXMXbXMXMXMXtXMXMXMXMXNXbXbXMXMXbXMXbXbXbXMXMXbXNXBXMXMXbXbXNXbXeXbXNXMXMXMXBXnXnXBXNXMXbXnXnXBXnXnXnXNXnXBXBXNXwX6X}.XX X'.R.].1XtXMXbXMXrXF.b.F.].rXNXMXnXnXNXbXbXMXbXMXMXbXMXMXMXNXNXtXtXeXtXtXMXMXMXtXeXtXtXtXtXeXtXtXMXNXNXMXtX7XtXwXtXwXwXwXtXwXtXwXwXwXwX9XwXwXtXwXtXwXwX7XeXeXtXtXtXtXwXrXrXtXtXwX7XtXtX7XeXeXbXeXeXtXtX7X7XrXHXQ 5XrX6XqX6XqXqX6X0X6X6X6X3XHXG.n.JX5X5X5X5X5X0XHXHXoXU.y.:.U % , 3 3 3 * > , , 2 2 > > > , > 4 = , k M.`.z.B.l.N.N.c.B.N.M.M.N.N.~.B.~.N.M.M.M.M.M.c , s s w 3 * , , 9 < _ LXD.h = , > * > , * # * * > & * * = = = & * % % & = % & & * & & & & # & & & & & $ $ h 5 . % & # # U | r . $ o.;.) <.z.1.<.l.4.4.4.4.1.4.5.l.l.",
"} $.T s 6 n c r 6 & x %.g = > > > > * 4 4 % = = > = = = = = = = = & = = = $ = $ = $ & & = = = = 4 g G k m o.OXD.D.D.OX:.v v p > 4 > > 4 4 > 4 > > > 2 > 6 > 2 6 4 > % < C  .x.U.n.u.HX0XHXv.Q m t ^ Y.m.m.OXT.U s O 6 Q _.I f v a r z s e w 3 7 6 4 4 4 5 ; ; 4 4 6 = Y H.#X$X#X2X4XrX4X2X$X#X2X4X2X2X2X4X1X1X#X1X2XwXwX4X4X6X4X5X3X}.}.}.{.oX'.oXXX'.XXoX'.XXXX'.'.{.].].'.}.3XqXwXtXtXtXtXtXtXMXtXtXtXtXwXwX9X6X6X6X6XrXtXyXtXtXtXtXyXyXtXtXtXyXtXtXwXrX4X1X].].'.'.Y.'.'.'.'.'.G.'.P.].3XrXtXMXMXMXbXbXeXbXbXeXeXMXbXbXbXeXeXeXeXtXeXeXeXeXeXNXNXNXyXKXNXNXMXNXNXNXMXMXMXMXMXMXMXtXtXtXeXMXtXtXtXeXMXMXeXeXNXNXbXbXbXeXeXMXMXbXbXeXMXNXtXwX6X].Y.Y.Y.).U.Y.F.F.U.F.G.R.].rXtX7XMXMXbXMXbXbXbXbXMXMXMXMXMXMXMXMXMXMXMXMXMXMXMXNXMXMXbXMXeXbXMXNXbXbXMXNXbXnXnXNXnXnXBXBXnXNXNXNXNXBXNXBXBXNXMXMXNXBXNXBXNXMXMXBXNXBXNXeXMXBXBXBXBXNXbXbXeXMXeXNXNXBXNXNXNXNXBXBXBXBXBXBXBXNXBXBXBXBXNXNXMXMXtXMXMXMXMXMXMXNXNXMXbXbXNXNXbXbXbXMXMXbXbXMXbXbXbXNXMXMXMXbXeXMXMXNXbXMXMXBXNXNXMXnXbXnXNXBXnXbXnXBXNXNXrX6X}.].XXXXXXXX X).F.'.rXPXqXA.m.`.XXHX6XrXeXMXMXNXnXNXNXNXbXMXNXNXMXNXNXMXMXeXtXNXMXMXNXNXMXMXMXMXeXtXtXMXtXMXMXMXtXtXtXyXtXyXtXtXwXwXtXtXtXtXtXtXtXtXtXyXeX7XwXtXtXtXwXrXrX6X3X3X}.5X5X6X5X6X4X6XwXyXeXtXeXtXtXtXeX9XrXHXQ 5XqXqXqXqXqXqXqX0XJXJXJX3XJX@.U XXHXJX5X}.oXoXA.v.Y t O $ & 6 2 2 2 6 6 6 > 2 > 2 > 4 > > > > 4 6 O 4 ,.OX~.g S c.~.,.J v *.,.Q Q U ~ >.B.N.N.B.M.W d d n F ! ( ;.l.c.N.OX~ 4 > 3 > > > , O 4 p 4 o . $ * * = * & * * & = = * & & & * & & & & & & & = & * & $ E ;.h . . $ o f _.l.> # f l.1.4.1.1.1.z.1.4.l.5.l.c.M._._.",
"} } 3.=.=.=.} -.J e T x # > > = > > o v I o = = = = = = = = = = = = = $ = & & $ $ $ = $ = = % = ! ..I o.>...:. .P t m 9 > 8 4 , * > < > < > > > 4 > > > > 2 4 * 2 4 4 = & $ q Q | l @.n.0.r , w e 0.`.D.D.U.Y. X+.~ | % % , x 2 k e , , = ; 5 : 6 4 4 4 < 4 4 ; 4 7 7 & 9.PXtXrXrX4X2X#X#X#X2X2X1X1X1X1X].].}.{.].3X}.].].'.{.oXoX}.oX}.}.{.R.'.'.'. X'.'.XX'.'.'.'.{.'.'.'.'.'.}.3X3X3X6X9XtXtXtXtXtXrXrX6X3X}.}.{.oX}.}.3X6X9X9X9XrX9XwXrXwX4X6X4X3X].'.'.'.'.XX'.'.'.'.R.'.Y.R.'.'.'.'.Y.'.].5XrXrXtXMXMXMXbXnXnXbXnXnXeXbXeXeXeXeXeXbXeXeXeXtXtXNXNXNXMXtXtXNXMXMXtXMXtXtXMXMXMXMXeXtXtXeXeXbXeXeXeXMXeXeXNXNXNXeXeXeXeXeXeXbXMXtXtXrX3X].R.).).).Y.Y.Y.Y.Y.F.D.).Y.Y.Y.'.P.P.1XeXMXbXeXbXeXeXeXMXbXMXMXMXbXMXMXMXbXMXeXMXMXMXbXbXeXeXeXtXtXMXbXbXbXnXnXnXbXnXNXBXMXMXnXBXnXNXMXMXBXBXBXMXMXNXBXBXMXBXBXBXBXBXBXBXNXMXNXBXBXBXBXNXNXNXNXMXNXBXBXBXNXNXMXBXMXBXBXMXBXBXBXBXBXBXmXBXBXBXMXMXMXMXtXMXMXMXMXNXMXNXNXBXBXMXbXMXMXMXbXbXbXbXbXbXbXMXMXbXbXMXbXbXbXbXbXbXbXbXnXnXbXnXMXMXbXbXnXNXMXyXwX6X].'..XoXXXXXXX'.XX X).Y.G..XG.D.Y.oXXX5X5X5X4X4XwXtXNXBXnXMXbXMXMXMXMXMXbXMXeXMXMXMXMXNXMXMXNXMXeXtXMXMXeXeXMXMXMXbXeXMXtXtXtXtXNXyXtXtXtXtXtXtXwXtXtX8XeXtXtXtXwXtXwX6X3X3X}.}.'.'.'.'.'.'.'.'.'.}.5X6X6XrXwXtXwXtXwXwX4X.Xm .XqX5X6XqX6X6X0XHXv._ m.HXOX~ x j B  XHXHXJXO.5 h = 4 7 8 3 6 > , > 3 4 4 > > > > > > > > , * > > > = $ m l O o k X.> . o 7 < . . . . O m N.B.B.T._.N.M.N.B._.B.B.B.b._.E , c e 8 3 > # 4 v ) ~ U t U U = = * & * % = * & # . & & # & & & & & & & & & & = * & $ h ~ v = .     5 v & * % m l.z.<.l.1.>.1.z.l.M.l.U q l l ",
"} } =.=.5.$.3.[ S 6 4 , 2 > 2 > 4 = & 6 7 * < = < = = = & * ; = = ; ; = = # # $ = = = & = ; = > 2.M.,.;.;.F r O 4 & = = 2 & = > 4 = < = = < < > 4 > 4 < > > > > < > 4 = 6 > = $ = & < - & s x e ] OXU.U.`.m.n.b.G.).GXQ m P r n a 6 h m n.oXLXU % 4 4 4 < 4 5 4 4 $ $ 9 k C D.S.5X1X#XI.4X2XqX1X6X6X6X3X].5XoX'.'.{.'.'.'.'.oX.X5X5X5X5X5X3X{.'.'.XXoXXX'.XXXX'.'.'.'.'.oX'.'.'.'.'..X'.{.}.6X9XtXrXqX3X}.{.{.'.'.oXXX.X'.'.{.{.}.3X5X5X5X3X3X{.'.'.'.'.'.'.XX'.'.'.'.'.'.{.oX'.'.'.'.R.Y.'.'.'.'.'.].].6XrXNXMXMXnXnXbXnXnXnXbXbXnXnXnXnXnXnXbX>X$XtXMXtXtXMXMXNXMXMXMXMXMXMXMXMXMXMXMXMXMXNXMXbXbXMXbXbXeXeXeXbXbXbXbXbXeXbXeXMXtXrX3X].'.'.).).Y.Y.Y.Y.G.G.F.Y.U.Y.Y.Y.Y.Y.Y.G.G.].%XtXbXbXeXMXNXMXbXMXNXMXeXMXMXMXbXbXMXMXMXMXbXbXeXMXMXMXbXbXbXNXbXnXnXBXnXBXBXBXBXNXBXBXNXBXMXNXMXNXNXMXNXBXBXBXBXBXBXBXBXBXBXBXBXBXBXBXBXBXBXBXNXBXNXBXBXBXBXBXNXMXNXBXBXmXBXBXBXBXBXmXBXmXmXBXBXBXNXBXBXNXMXMXeXMXMXMXbXNXNXBXMXMXMXNXMXbXnXNXMXMXbXbXnXMXbXNXMXMXMXnXbXNXMXbXeXeXbXNXnXnXbXbXbXMXMXNXwX3X}.{.'.oX.XoXXX'.'.XX'.XXXX'.).).). X'.XXXXoXoXoXoX3X1XrXtXMXMXNXNXNXMXMXNXMXMXMXNXNXMXMXNXNXNXNXMXMXtXMXMXMXMXMXMXNXbXbXMXNXMXMXMXNXMXMXMXMXtXtXMXMXtXtXtXMXtXyXwXwX6X5X3X}.}.{.{.oXoXXXXXXX'.XX'.'.XXoX'.{.{.}.}.3X5X6X6XrX3X Xm .XHX5X5X0X5X5XHXY.t O 6 F S g j w = 9 U O.0.m 4 r e 6 8 8 4 2 2 6 > > , 2 , , > 4 > > > > > > * > > 1 = O o 2 , = < $ > 7 6 4 ; 4 < 6 < h c._.B.B.B.B.T.B.M.M.M.N.c.c.N.! c d 3 3 , > m o.c.| I >.B.l.9 O > * = * * * * # 5 m # & & & & = & & & & & > * = & = % & # 5 U >.Q 5 # U ~ 3 o 7 1.4.1.>.>.c.c.N.1.U ; . . .   ",
"$.( D e n J S , > > 1 > 6 > 1 > = = > % > < = = < = * & = & = = = = = = # 5 q # & $ & 5 4 & = $ ~ M.N.M.N.M.X.w 8 6 7 4 6 * 2 & = ; $ ; 5 = < > > 4 4 < 4 & = = > = * = 2 < 4 2 2 6 3 , 7 ! L e E T.m.D.U.m.`.U.).n.m._.OXr.3 w e  .D.u.A.9.O.5 = 6 4 4 4 4 4 4 : i i - < ; t   5 5X3XK.1X4X1X6X4X3X3X].'.{.].{.oXR.'.'.'.'.oXoXoX5X5X0XrX3X}.'.'.'.XXXXXX'.XXXX'.'.'.'.'.XXXX'..X.XoX'. X'.{.}.5X}.{.'.'.'.'.'.'.'.'.oXXXXXXX'.XX'.'.'.'.'.'.'.'.'.'.'.'.'.'.'.'.'.'.R.'.oXoX}.oX.XoX'.'.G.Y.Y.'.'.'.G.P.'.1X4XwXwXeXbXnXbXnXnXmXnXnXmXnXbXnXBXnXbXNXnXbXbXBXMXMXNXNXbXMXMXMXbXMXMXMXMXMXMXNXMXNXnXMXBXNXbXbXbXbXbXbXeXeXeXMXtXwX3X].'.'.'.'.).Y.G.'.].JXKX].D.U.U.U.U.Y.).U.Y.).).Y.P.3X9XtXMXMXbXMXNXNXbXMXeXbXMXMXbXbXbXMXMXMXMXnXnXbXbXbXbXbXbXbXbXBXBXNXNXNXwXrX6XrX9XtXyXNXKXNXNXBXnXBXBXBXmXBXmXBXMXBXBXBXBXBXBXBXNXBXBXBXMXBXBXMXBXBXBXBXBXBXNXMXMXBXBXBXmXBXnXBXBXBXBXBXBXBXBXBXNXBXBXBXBXNXbXMXMXMXMXMXbXMXbXbXMXMXMXnXnXMXMXnXbXnXMXbXnXnXnXMXbXnXNXnXNXbXeXbXbXnXnXbXbXMXMXtX9X3X}.{.XXXXoXXX'.XXXX.XXXXXXXXX'.XXXXXX'.'.'.'.XXXX'.XX'.'..X}.3X6XrXtXtXNXNXNXeXNXMXMXMXNXNXNXtXtXwXrX4X4X6XrXrXwXtXyXtXMXMXNXMXbXnXMXMXMXMXMXbXMXMXMXeXMXMXMXtXtXtXrX3X3X}.}..XoXoXoXoXoX.X.X'.XXoXXX'.XXXX'.XXoXXX'.'.XX'.'.oX}.]. Xk Y.HX5X5X5X5XoXoX X+.T w % O e , w e 3 % % % 2 8 3 % 8 > > 4 4 > 2 > > 2 2 > 2 , > > > , , > = * = = > > > > 2 2 2 4 4 = 4 + r 7 < 1 ~ 5.M.N.B.B.B.B.B.N.N.N.N.N.N.M.c.M.~ b b r e > U N.b.c.l.z.~.;.> # > * , % = * = * o h ] o & & & # & & & # & * * = & $ & * = # & . l l.| ~ c.l.| W %.c.z.l.M.c.l.~ v $ . $ 5 : q q ",
"} } [ c , O , 4 3 , 6 > 4 > , & 1 > > 4 > $ & = = = = * = = = = = & = = $ h h # = & > k f > 7 > * = 8 e G X.5.*.n % , > 4 & # 4 < & 5 B.~ . 4 4 4 > > > = = 2 > 4 = 2 = 2 = = 2 6 * 6 6 7 v j e g c.D.m.m.m.M.;.I :.`.Q q 6 a c g 0.G.GXQ o & * 6 4 4 4 6 4 6 = q D.LXC   q Y B 9.JX1X(.0X6X6XqX6X5XoX'.oX'.'.'.'.'.'.'..X'.'..XoX{.}.0XJXqX3XoXoX'.'.).'.'.XX'.Y.'.XX'.'.'.'.'.oXXX'.'.XXXXXX'.'.'.'.'.XX'.'.'.XX'.XX'.XX'.XXXX.X'.'.).).'. X XXX'.'.'.XX'.'.'.XX'.'.'.'.'.'.'.'..X5XoXoX{.{.R.'.R.R.'.'.Y.'.'.]./.1X7XeXbXnXnXmXnXnXVXmXnXnXnXBXBXBXnXBXnXBXBXNXMXNXBXBXnXMXNXNXbXMXBXNXnXnXnXnXnXnXnXbXbXNXnXnXbXbXeXMXtXwX3X].'.'.'. XY.Y.Y.'.oXHX5XJXIXLX{.Y.U.).U.U.U.).).'.).'.).Y.P.3XtXNXMXMXbXbXbXbXMXMXbXMXMXNXnXnXBXBXnXnXnXnXnXnXbXNXNX9X2XyXtX3X].'.G.G.Y.'.'.'.'.].}.qXyXNXBXBXnXmXBXBXBXBXBXBXBXBXBXBXBXBXBXBXBXBXNXBXBXBXBXBXBXBXBXBXMXNXMXBXBXmXBXBXBXBXBXBXBXBXBXBXBXBXBXBXBXBXBXBXNXMXBXBXMXMXbXbXnXNXbXMXMXBXMXMXMXnXnXnXnXNXMXMXMXMXnXMXMXNXbXnXnXNXbXnXMXNXtXwX4X4X}.{.'.oX.X'.'.oX.XoXXXXXXXXXXXXX'.XXXXXX'.'.'.'.XXXXXXXX'.'..XoX{.}.}.3X6XrXwXtXyXyXNXyXtXrXrXqX6X3X5X5X5X0X5X5X3X5X3X6XrXrXtXyXNXMXMXNXMXMXMXNXbXMXMXMXMXNXyXyXwX4X3X3X}.}.oXoXoX.XoXoXoX{.oXoX.XXXXXoXoX.X.XoXoXXXoXXXXXXX'.'.'.'.}.Y.7 Y.5XoX5XoX5XoXXXXXOXOX:.o.~ ~ I c , e 6 e 6 r e r 4 6 * * > 4 > > 4 6 4 2 2 4 > 2 > 2 * , > 4 > > * * > > > 2 2 > , > = 7 1 4 O 4 = h N Q M.B.B.B.B.B.N.N.B.N.N.M.b.M.c.M.c.c.l.c.l.N.m.N.N.B.N.Q 6 = , 2 % * * * % * * & & $ # = * * & * * * & & # & $ & = = # & & & % o . 7 T c.l.B.N.N.M.c.%.~ m 7 # $ : 5 ; : ; : ; ",
"} } } =.R , > % > , > % O 4 > N X.r , 3 O j *.M # * * = * = = & * = * $ = $ # & ; & = j j > , > * # 3 % = % 9 N N e 3 = < 7 k U N = ; m 9 = < < 4 > > = 4 > 4 = = = < = * = 4 < 6 > 2 = p x > v ~ M.U.b.N.c.b a > r ~ v v N e z e e l Y k , 6 2 6 > 2 4 < 4 6 4 4 q Y 9.O.HXLXHXUXHXJXHXq.'.5X].5X5Xq.:.`. XOXXXR.'.'.R.'.'.'.'.'.'.{.}.6X5X}.5XoX.X'.Y.).'.'.R.'.Y.'.'.'.R.'.'.'.'.'.'.XXXX'.'.XX'.'.'.'.'.'.'.'.'.'.'.'.'.XXXX XXX'.'.XX'.'.'.'.'.XX'.'.'.'.'.'.'.Y.Y.).'.).G.'.'.'.'.{..X{.oX.X{.{.R.R.'.'.'.'.'.].E.1X1XrXwXbXNXBXnXnXnXnXeXbXMXMXeXeXMXMXtXMXtXMXNXBXBXBXMXMXBXBXnXnXnXnXbXnXnXnXbXnXbXbXbXbXbXeXwXrX3X}.'.'.'.'.Y.Y.Y.`.Y.).XXoXR.P.].R.Y.U.`.).U.U.Y.U.U.U.Y.).).).Y.Y./.rXNXMXbXbXbXNXbXMXMXMXbXnXnXnXbXnXBXBXbXbXMXtX2X3X5X'.F.Y.Y.).U.).U.`.).).'.'.).).Y.).R.3X6XtXNXmXnXnXnXBXBXBXBXBXBXBXBXBXBXBXMXMXBXBXMXBXMXBXBXBXBXBXMXBXBXBXBXmXBXBXBXBXmXmXBXBXnXBXBXBXBXBXnXmXmXBXBXBXBXBXBXBXnXMXMXMXnXMXnXMXnXnXnXnXnXnXbXMXMXMXbXnXnXMXnXnXbXnXbXbXNXNXtXwX6X3X}.}.{.{.oXoX'.'.'.oXoXoX'.).'.'.Y.).).'.'. XXX).).XX'.'.'.'.'.oX'.XXoX.X{.}.oX}.}.3X6XrXrXrX6X5X5X5X5X5X5X5X5XoX5X5X5XoXoX5X5X5X5X6XrXtXtXtXMXNXnXbXbXbXbXNXMXtX9X6X3X3X}.5XoXoXoXoX{.oX{.oXoXoX.X.X.X.XoX.X'.'.'.XXXXXX'.XXXX'.XXXXR.G.{.Y.t oXoXoXoXoXoXoXXXXX XY.XXOXI , e b j e 2 r 3 = > r p 7 9 v p , > 2 2 6 > 4 , > 2 > > > * > * > > > * > & = > > = > x e % 7 m j r 7 % * . < l._.N.B.B.B.N.B.B.N.N.M.M.c.c.b.c.c.m.B.B.m.m.b.B.B.N # , 3 , * * , * % % * & * * & * & # * & & & & & $ ; f < & = & & & # # & > % & o r I I m v r 7 & # $ 4 6 5 4 : ; ;   5 l ",
"} [ } } $.( D n W W , r ) <.M r f , % , z 4.5.7 & > = & > = = = * > = & 4 k $ # 4 > < 7 4 e 3 6 8 3 > % % O & o , m | v 1 7 k h 9 < = # = > 4 > 4 4 4 > > 4 4 = & = = < 2 = 6 > 6 6 6 , Q c.:.m._.N.m.m.N.N.&.o. .o.E v _.OX;.c.G , > # > 3 6 > > 2 6 4 < 2 4 4 4 & * $ 5 C Y B O.q.oX+.+ ~ OX'.0XoXY.+.Y P _ G.'.'.'.'.'.).'.).'.'.{.'.oX}.}.oX5XoX.X'.oX{.oXoXoX'.'.'.'.'.'.'.'.'.'.XXXX XXX X'.'.XX'.'.XX'.'.'.XX'.'.XX'.XXXX'.'.XX XXXXXXX'.'.XX'.'. X'.XX'.'.).'.'.'.Y.'.Y.).Y.Y.'.R.R.'.'.'.oXoXoX.X'.XX'.'.'.'.'.'.P.'./.1X6XrX9X9X4X2X4XrX6XqX3X3X6XqX3X3X1X4X4XrXwXwX7XtXNXNXMXNXBXBXnXBXnXnXnXnXnXnXNXtXwX4X1X].].'.'.'.'.R.'.'.Y.).Y.Y.U.Y.).Y.U.Y.U.U.U.U.Y.'.'.U.U.U.).).U.).).).Y.'.3XrXMXMXbXNXMXbXMXnXnXNXnXBXNXMXwXwX4XqX}.'.G.F.Y.).U.).U.).).`.U.Y.Y.Y.).).Y.U.`. XY.).Y.'.].wXNXBXnXBXnXBXBXMXBXBXBXBXNXNXNXBXBXBXNXMXBXBXBXBXBXBXBXBXBXBXBXBXmXmXnXBXBXBXBXBXmXBXmXmXmXmXmXmXmXnXnXBXBXBXBXBXBXBXnXMXBXBXnXnXnXnXnXnXnXnXnXBXBXNXnXMXNXBXnXnXMXNXMXtXtXrX4X3X}..X{.oX.XoXXXoXoXoXoXoXXXXX).).Y.Y.Y.'.'.XX'.'.).).'.XXXX.XXX'.'..XXX.XoXoX{.oXoXoXoXoX{.5X5X5X5X5XoX5X5X0X5XoX5X0XoXoX.XoXoX5XoX5XoX5X5X5X3XqX9XtXMXNXNXMXtXwX9X6X3X}.5X5X5XoXoX5XoX5X5X5XoXoXoXoXoXoX'..X'.'.'.'.XXXXXX'.'.XXXXXX'.XX'.Y.'.XXh @.HXoXoXoXXXoXXXXXXX'.OX0.4 m U m 2 f g 6 g U h 4 7 j 7 f r > 6 6 > 7 4 > > > > 4 > > > 2 , > > 2 > > , > > 2 > 2 J N > a e m M.M.%...~ %.N.B.B.B.N.N.N.N.m.N.M.m.M.c.c.M.c.M.N.B.M.N.B._.l.j & 3 > 2 , , , , * , % % = > * * & * & * & = & & = & ; 5 & < = & & & & & $ & & = & = o # o & # & = 4 < = = ; $ $ : ; 1  .B.",
"( } } [ } } } [ $.} s D M.4.c , e r r I M.%.7 O * & * * * = = = = & = * # v U = # * 7 > % U *.w 3 c w e z 8 4 o # h ~ k > > & # & = 4 > 4 < > > > < > > > > = = h m 4 & 4 = = = % , , , o.T.`.`.T.N.b.b.m.N.N.U.GX X) t N U Q >.v 3 e 3 e 2 2 2 4 > 2 > 4 < > = 4 4 6 = & o & $ 4 $ 5 ; o > >. . .P :. .r._ U m.'.G.Y.'.Y.Y.Y.).'.Y.).'.'.'.'.oXoX}.5X}.{.].oX5XoXoXoX'.R.'.'.R.'.Y. X'.'.'.'.'. X'.'.'.XX'.'.).'.R.XX'.'.'.'.'.'.'.'.'.'.'.'.'.'.'.'.'. X'.'.'.'.'.'.Y.'.R.R.'.R.'.'.R.'.R.Y.Y.'.Y.'.'.XX'.'.XXoX.X'.'..X'.'.'.'.'.].].].'.}.}.oXoX'.'.{.{.oXoXoX'.'.{.}.].}.].3X4X9XrXwX7XtXMXbXMXBXnXnXbXMXtX4X1X].'.'.'..X'.R.R.{.0X5XR.Y.Y.).Y.).U.U.).).U.U.U.Y.).XX).U.U.U.U.U.U.U.U.U.).U.Y.'.3XtXNXMXbXbXMXBXMXeX9XrX6X].G.G.Y.).U.U.Y.).U.).).).U.).U.U.).).Y.).).).).`.U.Y. X).).Y.U.'.].4XtXNXBXnXnXBXnXNXMXMXMXNXBXBXMXBXNXBXBXBXmXBXBXBXBXBXBXmXBXmXBXBXBXBXBXBXBXBXBXBXBXmXnXmXmXmXnXmXnXBXBXmXnXBXBXBXnXnXbXnXBXBXnXnXBXmXnXBXBXNXMXMXMXNXnXMXMXNXMXtXwX4X3X3X{.{.{.oXoX.X'.'.'.{.oXoXoX'.'..XoXXX'.'.oXoX.XoX'.Y.Y.).Y.'.XXXX'.'.'.'.'..X'.oXoX'.'.oX.X{.'..XoXoX{.oXoX.XoXoX5X5X5X5X5XoX}.oX.XoXoX0XoXoXoXoX5X5X}.1X9XyXyXrX4X3X}.oXoXoXoX5XoXoXoX{.oXoX5X5XoXoXoXoX.X'.'.XXXXoX'.'.XX.X'.'.'.XX'.'.'.'.'.Y.G.O.O _ HXoXXXXXoXXXXX.X XR. XY.m.`.OXB.m 2 e , k OX@.; & % > 7 > 6 > 4 1 4 2 > > > > > > 2 > , > = # % > > * * > 6 7 % 7 v % e . x B.N.N.B.N.B.M.M.N._.B.OX_._.T._.B.M.c.M.c.w.N.N.J G S N >.| 4 # 2 2 , , , > = * = * % * = * = * % % * & & & & & % & $ # # & * & $ & & & & & & # & = & > = = = > = = & = = ; - ; ; i &.;...",
"[ } } } } [ [ [ ( ( / R / W F I ( M { M.! > # * = = * = = * * = = = = > = $ N ] n , 6 9 = U N.n D 3.-.-.,.*.#.W L r = = > 2 4 > 4 > > * > > 1 4 4 > > > 2 = 2 * 7 F p 2 4 = C o.U 9 g J j I ~ F E M.N.N.N.m.M.m.o.v e j w , > , 6 6 8 3 6 6 > 2 6 > > 2 4 4 2 = = 4 4 4 6 6 7 p f 4 r ] X.~ E , f , < - l 5 l D.'.).).G.Y.Y.Y.).'.).).'.XX'.'.'..XoX5X}.}.}.oX'.{.{.'.'.'.'.'.'.'.'.'. XXX X XXXXX'.'.'.'.Y.'.XX'.'.XXXX'.R.'.XXXX'.XX'.'.XX'.'.'.'.XX'.XX'.'.'.XX'.'./.JXJX}.{.oX0XHX5X0XoX.X'.R.Y.).Y.).Y.Y.Y.'..X5XoXoXoX.XoXoX'..X'.'.'.oX{..X{.'.'.oX'.oXoXoX{.{.oXoX{.oX{..X{.oX].].].}.1X1X7XNXBXtX7X4X3X{.'.'.'.'.'.'.'.'.'.{.{.'.Y.).).).U.Y.U._.U.U.U.U.U.).U.U.U.U.U.).U.).).).).).).`.).U.G.}.6XtXtXNXtX6X1X/.G.G.G.U.U.U.U.)._.).`.`.Y.U.U.Y.).).).).).`. X X).).'. X).). X XY.Y.).`.U.Y.P.6XyXBXBXBXnXBXBXBXnXBXBXBXBXBXBXBXBXBXBXBXBXBXBXmXBXBXBXBXBXBXMXNXNXNXNXNXMXNXNXNXBXBXmXmXmXBXBXmXmXmXBXBXnXBXBXMXMXNXMXMXtXeXtXtXNXNXtXeXtXNXNXNXnXNXNXNXwX4X3X3X}.}..XoX'.{.{..XoX{.'.'.'.oX'.'.'.oXoXoXoXoXoX5XoXoX'.'.'.'.Y.).'.'.XXoX'.'.'.{.oXoXoXoXXXXX.XoXXX.XoX.X.X.XXXoX'.oXoX5XoX5X5X5X5XoXoX5XoXoXoX.XoX5XoXoXoX}.{.3X3X}..XoXoXoXoXoX{.oXoXoXoX{.}.oX{.oX5X5X.X{.'.'.'..X.XoX{.oXoX.X'.'.XXoX'.'.'.oX'.'.'.O.4 U.HXoXoXoXoXoXoXoXXX X).).U.D.n.U.c.U R J l l - 9 U v 3 g 6 r 7 2 6 4 4 4 2 2 > 2 > 4 > > > * p 9 # > 2 4 % < = 6 P l.%.) b | N.c.c.M.c.c.M.M.N._.X.W ..1.( o.l.~.B.B.N._.N.j o % # o & o * 2 , , , > , , , > % * * * % = * = & * & = % # $ * & & & * & & & & & & $ & & & & & & & & = & & & = & = = = o # & 5 $ O :.c.,.",
"} [ } } } [ } } ( [ } [ } } { J M > r 7 # # * = * & * * = * * * = > = & = & & N *.! b 2 = e l.M.6.6.6.R , e b J U h 7 > 6 > > 4 4 > 1 4 < * > > > > = = > * 2 2 = * 9 4 = < +.b.1.S Q X.w s 3 % , 1.N.M.m.M.N.M.x 1 M I c w M w e 8 3 6 4 > 3 > 2 > > 2 < 2 = = 4 > > 4 4 4 7 > 9 9 7 9 I I r % 4 v v O ; _ D.).Y.G.).Y.G.F.Y.Y.Y.). X'.'.'.'.Y.'..X}.}.5X{.{.'.'.R.'.Y.'.R.'..XR.'.'.'.XXXXXX'.'.'.'.Y.Y.'.'.Y.'.'.'.'.Y.'. X'.'.'.'.'.XX'.'.Y.).'.'.XX X'.XX'.'.XXR.HXPXJX}.{.oXoXHXHXHXHXHX5XoX'.XX'.'.).'.Y.Y.).'.'.'.'.oX'..XoXoX{.{.'.'.5XoX{.oX{.{.oXoX{.oXoX'.{..XoXoX{.{.oX.X'.'.'.XX'.'./.6X9X1X].'.'.XX'.'.'.Y.'.'.'.oX'.Y.F.F.Y.).Y.Y.U.).U.U.U.U.U.U.U.U.U.U.U.U.U.U.).U.).).`.).Y.).).).U.Y.G.}.5X5X].G.F.G.Y.Y.Y.U.U.).U.U.).).U.).`.).U.).Y.Y.Y.).Y.Y.).'.).'.Y.).). X).).).).Y.Y.).U.U.G.R.6XwXNXBXBXnXBXBXBXnXBXBXBXnXBXnXnXbXnXnXnXBXBXBXBXNXNXNXtXtXrXtXrXwXwXwXtXwXtXtXtXMXNXBXBXmXmXnXnXnXBXMXMXeXtXwXrX6X3X}.3X}.3X3X6X6X3X3XrXtXtXMXtXwX6X3X}.}.}.oXoX{.{.'.{.{.oX}..X'.'.'.'.Y.'.'.oX'.oXoX'.'.oX5X{.'.XX'.XX'.'.'.XX'.XXXX'.'.'.oXoX'.oX'.'.R.{.oX'.XXXXXX'.'.'.'.'.'..XoX{.{.oXoXoXoX5XoXoXoXoX.X.XoXoXoXoX{.oXoXoXoXoXoXXX'.'.oX{..XoX{..X{.{..X{.}.}.}.{.'.{.'.'.'.'.oXoX'.'.'..X'.'.'.oX'.'.'.V.'.U.f XXoX XoXoX XoXoXXX X XY.Y.U.D.m.m.m.U.`.T.N.r.! | N.;.e , 7 e > x U > 2 4 > 2 > > > > > 2 , # ! N.J r , 7 4 7 9 F _.OX`.B.M.M.M.M.c.c.c.M.z.c.,.f > , > > O & = k M N v E N # 3 2 2 , * > 2 2 , , , , * , > > , * # * * # = & * & & & $ & # # & & = = & & & = & & & $ $ & $ & $ & & & & = & & = & & $ # o . . . h w.l.,.",
"} } } [ [ ( ( ( [ ( } $.} R v % & * o o * > > = * * = = = = > * = * & & = * > & x #.5.W S 6 S <.M.5.5.W e , = . # = 4 6 7 4 7 < 4 4 4 7 6 > > = > = 4 > > > > & = 4 9 8 r 2 4 $ 4 > E ) e S S e c l.N.m.m.m.m.N.c...x.OXM.D b s s 3 w 6 8 6 8 > 2 2 6 2 4 2 2 = 4 > > 2 > 4 p 8 8 = * O o o 4 p , h B.:.y.`. X).).'.'.Y.).Y.).Y.Y.Y.U.U.Y.).'.'.'.'.5XoXoX{.'.oX'.'.'.'.'.'.oXoX'.'.XX'.XX X'.'.'.'.XX).'.'.'.P.R.'.XX'.'.XXXX'.'.XX'. XXX'.XX'.oX'.XXXXXXXXXX'.'.XX'.3XqX].'.{.oX'.'.'.{.}.5XHXHX5XoXXX'.'.XX'.'.).).Y.Y.Y.'.'.'.XX.XoX5X.X'.oX5X5X5XoXoXoXoXoXoXoXoX'.{.oXoX{.{.5XoX'.'.'..X'.'.'..X{.'.'.XX'.'.XXXX'.'.'.'.oXoX'.U.U.).U.).).).).`.U.Y.U.U.).).U.).U.).U.Y. X`.U.U._.`.U.`.).).U.`.).).Y.'.Y.).Y.U.U.).Y.Y.).).Y.Y.).).U.U.U.Y.Y.).).`.).).'.'.Y.'.Y.Y.'.'.).).). X'.).). XY.U.Y.U.Y.Y.Y.Y.G.3XtXBXBXmXnXBXBXBXBXnXnXBXBXBXnXMXNXNXMXNXNXNXtXtXwXwXrXrXrXrXrXrXrXrXrXwXwXtXtXtXeXtXMXMXBXBXNXtXwX6X3X3X}.3X}.}.oXoX{..X{.oX}.}.}.3X3X6X4X4X3X}.}.oXoX5XoXoX}.oX.XoX{.}.oX{.oXoX'.XX'.'.'.oXXXXX'.).'.oXoXoX.XoXXXXXXX'.'.oX'..X.X'.'.{.{.oXoXoX.X}.JX].{.oXXXXX.XXXXX'.XXXXXXXX'.XX'.XX.XoX'.oX'.'.'.oX.XoX.X'.'.'.oXoXoXoXXXXXoXXXXX'.'.{.oX'.oXoXoXoXoXoX'.oX5X5X}.oX{.{.'..X{.oX.X.XoXoX.XXX{.oX'.'.'.F.G.+.= D.GXoXXXXXoXoXXXXX X XU.Y.U.U.B.U.m.U.m.D.).`.U.N.N z ] ! o.h t ;.I > 6 4 > 4 4 2 > > > 4 4 , 4 { M.{ w e a x { b 2 U c.M.,.4.c.M.M.c.c.M.l.c.c.r 3 z , > > > % # o % O o # > > > % > > 2 * > > > > > > > & . = , * * = & = & & = & $ & = & & & = & & & = & = & & & & & & & & & & & $ & = * * = = # I 2.o.~ ~ | N.c.c.l.",
"} [ } ( } } } [ } W J z 8 # * , * & & * = & * * * * * * * = > = & & = & % & * = > x { 4.5./ c A #.#.$.<.4./ A e 7 * 4 4 * # % # < > > > 4 6 4 4 4 > > = = = = 6 6 & = 9 6 2 = 4 4 % ) c.~ ,.N.4.c.M.M.m.m.M.M.M.N._.N.| F z s 3 3 w e 3 3 6 3 6 2 > 4 > 4 = 2 4 = = 2 , 6 6 7 4 6 = > 2 4 % # = % | OX'.'.Y.Y.'.'.Y.).Y.).).Y.Y.Y.Y.Y.U.Y.Y.Y.).).XX'.'.'.'.oX'..X'.'.'.Y.Y.'.Y.'.).'.'.'. X).'.'.'.'.'.R.Y.5XHX{.Y.'.'.'. XXXXXXX'.XX'.'.'.XXoX.X.XXX'.XX'.'.XXoX'.'.P.'.'.'.'.'.'.'.'.'.Y.'.'.oXoX'.Y.'.).).XXXX'.XX X'.).Y.Y.'.Y.'.'.{.HX5X'.oXoX5XoXoXoXoXoXoXoXoX{.{.'.{.{.oXoX{.'.XX'.'.'.oXoX.X'.'.'. X'.'.'.'.'.'.'.'.XX'.G.).F.U.Y.).'.).).).Y.Y.Y.U.U.U.U.).Y.U.Y. XoXXXU.D.U.).).).).).).Y.Y.Y.'.XX).Y.U.Y.U.Y.Y.).U.Y.).`.).).U.Y.).).U.Y.Y.U.).).Y.'.XXoXXXXXY.'.'.'.Y.Y.).'.U.Y.).).).).U.U.).).Y.Y.Y.5XJXNXMXMXBXBXBXBXNXNXBXBXNXNXtXtXtXtXwXwXwXrXrXrXrXrXrXrXrXrXrXrXwXrXrXrXwXwXwXrX9XwXtXtXrX3X].{.{.{..XoXoXoXoXoXoXoXoXoXoX5XoX}.}.3X3X3X}.oXoXoXoX}.}.}.oXoX.XoX{.'.{.oX].oXoXoX'.oXXXXXoXXXY.).Y.'.oXoX.X'.'..X'.'.'.{.{.'.{.oXXX{.'.{.oX{.'.LXUXJXP.oX.X X.XXXXXXX'.XX'.XX'.XX X'.).'.oX'.'.'.'.'.'.'.'.'.).'.'.XXoXXXXXXX'.XXXX'.'.{.'.'.'..XoXoX'.XX'.'.}.5X5X}.oXoX{.'.'.'.XXoX.X.XoXoX{.{.{.'.'.XXHX| . D.GXXXoX.XXXGXOX X`.).U.Y.D.D.m.m.B.U.D.U.m.m.m.D.w.l._.c.B.:.c.N * 4 2 > 4 > 4 2 > > > > > 6 % 6 E 5.{ ( ! + M <.R c r *.c.M.l.4.c.~.M.N.OXN.OXN.7 , , 3 , = > > > > > > = > * > > > = = 2 , , 2 * , 4 & q ^ $ # * % # * # & & & # & # & & & = = & & & & & & & & $ & $ & & & & = $ & & * = = & = O v M.c.M.M.5.5.4.c.c.",
"} } 3.} } / E n r , o . & = = & 2 # % & * & * * * * * * = > * * * * = * > * = 2 > % a ! <.5.5.=.=.} $.} #.#.$.<.#.x > = h k l h < > 4 = < 4 4 4 4 > > > < > = F 5.! S ! t O = & 6 I 4.l.c.l.c.c.M.c.c.M.N.M.N.M.M.N.F O w s z e e e s 6 6 8 6 3 > 2 2 4 4 = = = 4 > 6 4 7 4 = % > 6 4 = 4 h m P < +. XD.Y.Y.Y.'.'.Y.).'.'.).Y.Y.'.Y.).). XY.).'. X X'.).).'.XX.XoX.X'.'.'.HX0XY.'.'. X). X X'. X X'.'. X X'.'.{.5X.X'.'.oX'.XX'.'.'.XX'..X.XXX'.XXoXoXXXoX.X.X'.XX'.'.'..X'.'.'.'.'.'.'.'.'.XX'.'.'.R.G.Y.). X'.'.'.XXXXXX'.'.XX'.'.'.R.'.HXHX'.5X.XoXoX{.oXoX.XoX.X{.{.oX{.{.{.5XoX.XXXXX'..X'.'..XXX'.'.).'.XX'.'.'.'.'.'.'.Y.'.'.'.'.oXXXXXY.'.'.).'. X'.'.). X'.).'.'.XXoX5XoX XY.D.U.).XXoXoX'.'.{.oXoX'.Y.).).).Y.Y.Y.U.).).U.).U.U.). X5X5X'.Y.).).Y.Y.Y.U. XoXXXXXXXXX).Y.).). X X).).).).Y.Y.).).U.U.).).Y.Y.R.3XrXyXNXNXtXtXtXyXtXtXtXrXrXrXqXrXqXrXrXrXrXrXrXrXrXrXrXrXrXrXrXwXrXwXrXrXrXqX3X3X3X3X}.}.{.oXoXoX{.oX5XoX{.{.oX5XoXoXoX5XoXoX}.5X}.oX5X5X}.oX5XoXoX5X}.}.].{.}.{.'.{.oX{.{..X.XoX.X.X'.XX'.'.'.'.oX5XoXoX.X.X'.'.{..X{..X.XoX.X{.}.}.{.oX{.PXUXIX3XoXoXXXXXXXXX'.XX'.XXXXXXXX'.).Y. XXXoX'.oX'.'.'.'.'.'.'.'.'.oXXXXXXXXXXXXXXXXX'.'.XXoXXXXX'.'.'.oXXX'.].qXqX5X5X5XoX.X{..XoXoXoX.XoXoX.XoX{.oXy.B D.:.. N.n.u.Y.XXU. .b.OX`.Y.).).U._.`.`.U.D.B.U.D.m.U.).m.b.m.OX_ ~ m o 6 6 2 > 4 4 > 4 4 4 > 2 > 4 4 6 O b ! ) N.<.| ~.OXOX%.G H <.<.M.l.( M x U ;.B.l.B.*.% , , , * * * > * * , > * * > > > > * , > 2 > 2 < # s.UX' . , * % & & * % % $ & $ & # $ & & & = $ & = & & & & & $ & & & & & & = & = > = * 4 * > M ] #.c.c.c.4.4.1.",
"/ W A c e % O . . . * 3 > & & & # & & # & * * & * * * * = = = % * * = = > = > = = , * , b *.c.M.6.5.6.3.=.} } / / ) ( I &.;.;.| 7 = > > > = > = = = = = = = * 4 W %.] E ~ I G r g ,.c.&.4.l.4.z.c.l.c.c.c.M.M.c.c.M.>.F b w 3 w s e , 8 4 > 6 2 4 4 2 > = = = = 4 = 2 4 > > | | = , 1 e m _._._.c.w.D.Y.Y.Y.'.Y.Y.).'.'.Y.Y.'.Y.Y.'.).Y. X X).Y.). X).Y.).). XXX'.'.oX'.{.PXJXG.'.'.'.'.'.Y.'.'.'.'. X).'.'.'.G.R.oXXXR.'.XX X X'.'.'.XXXXXX'.'.'.'.'..X.XoX.X'.'.XXoX'.'.{.R.{.oX'.'.'.XX'.'..X.X'.'.Y.G.G.'.).'.'.'.'.R.'.XX'.'.XXoX.X'.5XoXG..XoXR.'.{.'..XoX{.{.oX{.oX{.{.'.{.{.'.'.XXXX'.'.XX'.'.'.'.).'.'.'.'.'.'.'.XXXX'.'.XXXXoX5X{.'.'.'.'.'.'.'.'.'.'.'.'.XX'.'..XoX{.oX5XoX'.'.oXoX'.oXoXoX{.oX'.Y.D.Y.).).'.`.U.U.U.U.U.U.U.).).R.'..XXXXXXXXX`.).U.).U.U.Y.Y.).).Y.).Y.).Y.). X).'.).Y.Y.U.U.Y.Y.Y.Y.).U.Y.).G.}.5XqX9XwX9X9XrXrXrXqXqXqXqXqXrXrXrXrXrXrXrXrXrXwXrXrXrXwXrXrXtXrXrXqX6X5X}.}.oXoX}.5XoX{.}.oXoX5XoXoXoXoX{.oXoXoX}.}.oXoX}.}.5X5X}.oX5X5X}.oXoX}.oX{.].{.oX].'.].oX{.{.oX{.].oX{.{.oXoXXX'.'.'.oX5XoX.X{.'..X'.].oXoXoX].{.oX].}.5XoX{.5XrX5XoX.XXXXXXXXX X X'.XX'.XXXX'.Y. X).).).'.XX'.XX'.'..X.XoXoX.XoX5XoXoX'.XX'.XX'.'.'.'.XXXXXX'.'.'.'. XXX'.}.qXrX3X5X5XoXoXoXoXoXoXoXoX.XoXoX.X'.GXy.U 4 % $ N k D.oXY.OX_ - r.`. X`.XX`.c._ | _.OXB.D.U.`.N.E +.B.;.~ % = * > > 4 > 2 > > > > 4 4 4 4 > > 2 4 > 4 , 2 M o.] ) Q ] ! g , 9 2 m m # . %   * r . v m & > * * = = * = = = = * = * & * = * = , * * > > > . P.UXO.$ = % & # & & & & # # $ $ $ # # = & & & & = & $ & # & & & & & # & & & 4 > & & & = 2 , , > % f W 2.l.M.<.",
"=.R , % 9 j g e v F ! ] 7 # * = & & = & & & * * = > & = > = = * = > = * & & & & > = 4 % , n #.6.M.M.c.5.6.5.5.[ W X.5.S 4 1 < < > 2 > > 4 > > * * = < = = = < = * M X.F ) 1.1.%.%.4.c.z.l.4.4.c.l.c.c.c.c.c.M.c.c.c.m.c.,.| J e e , g ! r 2 3 4 7 4 2 = = = 4 = = = > 4 7 , U c.~ e U l.U l.m.m. Xm.Y.G.F.).'.Y.'.'.'.'.Y.Y.).Y.'.XX).U.U.Y.U.).`.Y.`.).`.).). X'.'.{.'.'.}.].].0X5X'.'.XX'.XX'. X'.XX X'.'.5X5X0XR..X{.'.oXXXXXXX'.XX'.'.'.'.XXXX'.XXXX.X'.'.'.oX'..X{.{.'.].HXJX{.'.{.XX'.'.'.'..XoX'.'.Y.Y.'.XX'.'.'.Y.'.oX.XoXoXoXoXoXHXoX'..X'.'.'.oX'..X{.{.{.oXoX{.oX{.'.'.oX'.'..XXX'.'.'.'.XXXXXX'.'.'.XXXXXX'..XXXoX'.XX'.oX'.R.G.'.'.XXXX.X'.'..X.XXX'.{..X{.{.'.{.{.{.}.oXoX'.'.XXXXXX).'.Y.Y.F.Y.Y.).D.Y.`.`.U.U.U.U.).'. XXX X'.'.'.'.oX'.XXXX X).`.).`.Y.U.Y.U.`. X`. XY.).Y.).Y.Y. X'.).).).).Y.Y.Y.).).).Y.Y.G.'.5XqX6XqXqXqX6XqXqXrXqXqXrXrXrXrXrXrXrXrXrXrXrXrXrXrXrXrX6X6X3X}.}.oXoXoXoX5XoXoX}.oX{.{..X}.{.{.{.oXoXoXoX5XoX5X5X5X5XoX5X5X5XoX{.oXoX5X}.oXoX{.{.5X5XoX{.}.{.oX{.oX{.{.oXoX.XoXoX5XoXoX{.oX'.oXoX.X{..X{.{.oXoX{.{..X}.}.5X5X5XoX{.].}.oXoXXXoX X'.'.XX XXX XXXXX X).XX X'.'.XX'.'.).'.'.'.'.oXoX0XHXHX0XoXoXoXoXoX'.'.'.'.'.'.'.'.'.XXXXXXXXXX5XJXJX6X5X5X5X5X5X5XoXoXoX5XoXoXoXoXoXGX0.m.U.l   ( 1 O.oXn.OXU.- - 1  Xy.Y U.k , e f +.OXT.1.N.I , t f % * 2 4 4 6 2 > 2 6 > > > 4 > > 4 4 > > , > 4 6 4 8 O & = 7 o # # > 6 > o $ = 7 7 f o = # > o O , 2 > > , = * * * = = = = * * = = = = > = > * > < # l Y . # % * % & & & & & & & # & $ $ % = = & & & # # & & & & & & & & & & # & 4 4 * 2 & = % * 6 2 , = . $ $ E B.",
"=.=.W e r S b r M E F f % * * % & % & & & # & & * & = & = < > > > = * & & & ; = * * = > 8 , , a J W { #.-.} #.{ / W F e = > 4 > 4 , 4 > > > = = < > = = = & = = > * f r c #.*.T ~ 4.&.1.l.%.%.5.l./ _ c.c.4.c.c.c.z.z.x.m.N.l.x 3 E B.! = 3 4 , > 4 = = = = = = $ E Q , r 6 & 7 c.| >.HX..Q `.N.N.b.b. X XY.Y.Y.'.Y.'.Y.).Y.Y.Y.Y. XF.U.).Y.Y.U.).U.).).Y.`.).Y.'.Y.Y.'.'.].}.].JXJX{.'..X X]..XoX.X'.'.'.oXHXHXHX5X5X'.oX'..XXXXXXX'.'.'.'.oX'.'.XX'.'.'.'..X'.'.'.'.'.{.'.].}.}.'.oX'.'.'.'.'.'.'.{.oXoX'.'.'.'.'.'.Y.R.'.'.oX.X'.{..X.X5X.X'.oX'.R.'.'.oX.X'.{.'.].oXoX].{.{.HX5X'.'.XXXX'.R.'.'.XXXX'.'. X'. XXX).'.oX.XXXXX'.'.'.oX.X{.oX'.'..X.X'.'.{..X{.{.{.{.'.{.'.'.'.{.'..XoX'.Y.U.U.U.m.U.U.U.U.).).U.U.U.U.U.U.Y.U. XXXoXXXXXoXoX.XoX.X'.'.'.'.XX'.`.XXXXXX X).`.Y.). X). X XXX'.). XY.).'.XX'.Y.Y.).Y.Y.Y.Y.'.).Y.Y.Y.].5X0X6X6X6XqX6XqX6X6XqXrXrXrX9XrXrXrXrXrXrXrXqX0X5X5X}.}.{.}..XoXoX5X}.oX3X}.}.}.{.}.}.5XoX5X5X5X5X5X5X5X5X5XoXoXoXoX{.5XoX{.'.{.oX{.oXoX}.oXoX}.5X5X}.}.{.oX}.}.}.oX{.oXoX}.oX.XoXoX'.'.'.'..XoX{.{.{.{.{.{.{.oX.X}.5XHX0X}.{.oX5X5XoXoXoXoXoXoX'.'.'. XXXXXXX'.Y. XXX X'.).XX'.'.'.).Y.'.'.'.oX5X5X{.oX5X5X5X5XoX{.'.'.R.).).'.'.'. XXX'.XXoX5X6X3X5X5X5X5X5X5X5X5XoXoXoX5X.X.XoXHXb.7 +.N.- ,.P q.XXD.Y.U._  .- I m - o.r e z % > U Q t f > 6 , , 3 3 6 7 > 3 > > > > 2 > , > 2 > > , > > , 4 = > 8 9 4 6 , 4 = > * 6 O = < < > 9 > = k m > , , 3 , > > > * = * = * * = = & > = * % * * * * , = * & > O o # * % % # & # & & # & 7 = # # & # & = & # & # & # % # # % & % & % # & # $ = = * > > * 2 # * = = ; 4 o 9 M.",
"[ } =.H e e z 2 # $ # # * * = & = & & & & & = * = = & & * & > = * & & & > = = = = * & = 4 4 4 % % % > 3 6 6 6 4 7 w > > r S v 6 4 > 4 > < 4 > 4 4 < > < 4 * = = 4 = % & * v ~ U I 4.c.z.c.l.l.c.,.d a ] 4.l.c.4.c.c.c.M.~ = r e e ,. .% 3 2 6 > > > = = > = = & 6 c.~.e 6 7 o.M.OXU.w.m.T.U N.T.b.T.m.:.x. XY.).'.Y.).'.'.Y.'.Y.'.).F.Y. XY.).U. X).).).).U.).). X).'.'.'.{.5X0XJX5X}.oXoXoX5X6XHX6X5X{.oXJXJXJXJXHXHXoX5X.XoX.X.X.XoX'.'..XoX.X.X'.{.'.'.'.{.{.{.{.{.'.{.{.{.R.'.].{.{.'.'.'.'.'.'.].{.{..X.X{.oX'.'.'..X'.oX.XoX'.'.oXoXoXoX{.oX.X'.'.oX'..X{..X'.{.{.{.}.}.'.5X{.'.{.oX'.'.'.oXXXXX'.'.'. X'.'.Y.G.R.oXoX'.'.XX'.oXoXoX{.oX'.'.'.'.{.{.'.{.{.oX{.{..X.X{.oXXXXX'.'.Y.Y.U.D.m.B.B.U._.).).U.Y.).F.F.).'.'.XXXXoX'.'.'.XX'.XXoXoXXXXX'.XX XXX X X XXX XXXXX X).).U.`. XXX'.XX).'.'.'.Y.Y.Y.Y.'. X'.'.).Y.G.Y.).'.Y.R.'.{.{.5XqXqX6XqXqXqX6XqXrXrX9XrXrXrXrXrXqX6X3X}.}.{.{.oXoXoXoX}.{.}.}.5X5X5X5X3X5X5X5X5X5X0X5X5X5X5XoX}.oXoX{.'.'.'.'..X{.'.'.'.'.{.'.{.{.oX{.5X5X3XoX5XoXoXoXoX5XoX}.oX5XoXoX5XoXoX{.oX'.G.{.oXoXoXoXoX{.{..X5XoX}.3XqX6X5X5X5X5X5X5X5X5X5X5X5XoXXX'.'.XXXX).'. X XY. X).'.'.XX XXX'.).).).).XXoXoX'.'.oX5X}.5X}.5XoXoX{.{.'.'.'.'.XXXXXXXX'.'.'.{.oX5X5X5X}.5X5X5X5XoX5X5XoXoX5X0XHX0.& e 1 P `.HXU. X X`.OXOXt o < $ & e a a 6 e % 4 2 , 2 6 6 3 3 6 > 4 4 > 4 8 4 4 > 4 > 2 4 4 > > > 4 > < 4 > & 1 j 6 o = < * = 4 4 4 = * o > O , v f = * = > . . . = > = = = = = = = = = > > & = = = * * * * * > = = & & % % % & = & & & % 4 = # & & $ & % # # % % & # # # & & & & & # $ $ # # = > & = p f j 7 > o & = 9 & 7 *.",
"} / ( / D T ( r # & = = < & & * & = & $ = = & & = & & # & & * * * = > = = = = = & & > = = > * 2 > 2 2 * , * 3 , > 6 r 4 4 j p > = 4 % * 4 = < = < > 4 < > = = & = = = & = * 4 f M ~ %._ %...W x r 6 3 3 x ] l.c.c.4.z.c.&.r g G g g 1 , , , , > , * > = = = 2 = 4 ~ _._ 3 , M _ N.m.XXHXc.= x OXOX_.:.e < :. XY.Y.).).Y.).'.Y.).'.Y.'.Y.Y.'.Y.Y.).Y.'.Y.).Y.U.).).'.Y.Y.'.Y.R.{.5XoXoX.XoX5XHXHXHXJXHXoX5XLXJXJXLX{.R.R.'.oX.X'.oX{..X.XoX{.{..X.X{.{.{.{.'.'.{..X{.{.{.{.{.{.{.}.{.].'.'.'.XX'.'.'.{.'.{.{.{.].{.{..X.X.X.X{.{.'.{.oX.XoX.XoXoX{.oXoX'.'.'.{.{..X{.].'.{.'.'.{.'.'.'.'.{.{.oX'.oXXX'.).'.'.'. XXX'.XXXXXX'.{.'.oXoX.X'.'.'.'.{.{.'.{.'.{.{.{.{.{.oXoX{.'.oXXXY.Y.U.U.U.U.U.U.T._.U.U.).).U.U.U.U.Y.'.XXoXoX'.'.'.oX'.'.XX'.'.'.'.'.'.'.XX X X'.).Y.). X X'. X X X X X).).Y.Y.'.'.Y.Y.'.).Y. XY.).'.'.).Y.Y.).Y.Y.).'.Y.Y.Y.'.5X6X6XqX6XqXrXrX6XrXrXqX6X6X5X3X3X}.}.}.{.oX{.{.}.oX}.}.].}.5X6X5X6X6XqX5X5X5X5X}.5XoX}.}.oX{.oX{.oXoXoX.X{.{.{.'.'..XoX'.{.'.{.'.'.{.}.}.}.{.oXoX{.{.oX}.oXoX5XoX5XoX}.'.'.{.oXoX{.R.{.oXoX}.5XoXoXoXoX5X}.].3X5X5X5X5X5X5X5X5X5X5X5X5X5XoX'.'. X XY.Y. X'. X XY.).Y. XXX'. X).Y.).'.'.'.'.'.'.'.{.}.{.{.oX5X5X5X5X5X5X{.'.'.'.'.'.'.'.'.'.'.{.oXoX5X5X5X5X5X5XoXoXoXoXY.m.HXLX0.o O 1 u.Y.F.).Y.XXy.7 . > = & O w 6 3 e r 6 6 p e , > , 6 > 2 4 > > > > 6 4 > , > 4 4 > > 2 4 > > > = < = & & 4 = > & $ = O O > 8 , < ~ 2.b 2 > . % 6 # o Y @.Q ; & > = = = = = = = = = = = = & = > * & * & = = = & & % * % % = & & & % # # # # # & $ # & # & # # # % # # . . o # # # o # # o * 8 o > r e h ] ] G 1 E X.] ( ",
"L L R H S H N = $ = = = = = = = = = & & = = = * = = < < = = = = = = 4 * = = > = & & = = > = = * = > > 2 6 2 2 2 2 > 4 > = = & = 4 * r <.U # 1 4 4 > 4 < = = = = > & = = 4 * = > 6 4 8 r p , % # 3 s j w 2 , v ] l.c.c.c.N.c.;.%.b w 6 3 3 2 > > > > 2 = = = < 4 4 >  .LXo., ,   e , Q x.v * & l U t = z = P OXG.).Y.'.Y.'.'.'.'.'.'.XX'.'.XX).U.Y.). X'.).). X).).Y.Y.Y.).Y.).Y.'.oXoX.X.XoX0X6XJXJXJXoXoX0XJXJX{.R.'.Y.R.oX.X.X.X.X.X.XoX.XoXoXoX}.{.oXoX{.{.{.{.{.{.{.}.}.}.}.{.}.oX{.{.{.oX{.{.].{.{.{.{.{.].].oXoXoXoXoXoXoXoXoXoXoXoXoX5XoXoX5X5XoX'.{.oX{.{.{.{.'.{.'.'.{.{.'.'.'.'.'.'.'.'.'.'.'.'.'. XXXXX.XoX{..X{.{..XoX.XoX'.{.{.{.{.{.oXoX{..X{.{.{.oX'.'.Y.Y.Y.Y.U.U.U.).U.U._.`.U.U.)._.U.Y.Y.).).XX'.oX'.XX'.'.Y.).XXXXXXoX'.XX'.'..X.XoXXXXXXX XY.F.Y.U. X XXXXXXX X XY.Y.U.Y. X X'.'.'.'.XXXX'. X'.'. X'.'.'.).).).'.'. X).Y.oXJXrXrX6X6XqX6XqXqX6X5X}.}.}.}.{.{.oXoX.XoX}.5X}.oX3X5X}.5XqXqX6X6X5X6X5X}.{.{.'.oX{.oXoXoXoXoXoXoXoXoXoXoXoX{.{.oXoXoXoX.XoX{.{..X{..X{.oXoXoX{.P.].5XoX}.oX5X5X5XoX}.'.'.{.5X5XoX{.}.{.oX5X5X5X5X5X5X5X5X3X5X5X5X5X5X5X5X5X5X5X5X5X5X5X5XoXoXXX'.'.'.'.XXXXXX).). X'. X'. X X'. X'.'. XXX'.'.R.'.'.{.{.oX}.5X3X5X5X5X5X5X{.{.oXoX'.'.'.'.'.'.'.oXoX5X5XoX5X5XoXoXoXHXx.r _ y.LXu.$ = D.HXY.D.m.).m. .U F e v G 3 w e 3 6 6 6 6 4 , 6 > 6 6 1 4 4 > 6 2 4 > 2 2 > 2 4 4 4 > 6 > > > 6 4 ; ~ ~ . > 6 o , * & > = r e 6 E l.) I ~ x e O 7 w.LXUXUX~ o > = > > = > > = > = = = & & & & * * = = = & & & * & & & * # & & & $ & # & # & & & # # & & # % # & & o h 1.m . % $ # # $ # . E ~ 4 & 3 = 6 ~ { W *.5.4.#.",
"w e e 3 2 * & $ $ & = & & * > & = & = & & & = & * = ; ; & # = = & = = = = * = = = & = = > = 1 * > = = 2 3 > % % * # * 4 6 * * = > > ! M.m % 1 > > > < > = = 4 = = * = = = = 2 = 2 , , 2 2 * 3 r r c z > > , > % x ~ ,.#.! v 6 % 2 3 s 3 > * # , > > = = > * = = 4 = = | HXc.,.{ r % > , # 2 4 O # % 6 r e ~ Y.F.).Y.).'.'.Y.'.Y.'.'.'.'..X'.Y.Y.'.Y.). X'.). X XY.Y.).Y.Y.).).Y.'.Y. XXXXX'..XoXHXHX5X'.'.oXHX5XR.'.oX'.'.oXoX'..X.X.X{.{.oXoXoX{.{.}.{.}.}.{.].{.{.oX{.].oXoX{.oX}.}.oXoX{.{..X{.].{.{.].].].{.}.}.}.oXoX}.oX{.oX{.{.oX5XoXoX5X5X5X5X{.{.].{.'.{.'.'.{.'.'.'.Y.'.'.'.HXHXP.'.'.'.'.XX'.'.'.XX'.{.{.{.{.{.].{..X{.oX'.'.{.{.{.'.{.'.{..X'.Y.'.Y.'.Y.Y.F.U.`.`.U.`._.).).`.Y.).`._.U.U.U.'.'.oXXX'.'.).Y.Y.Y.).Y.).Y.XXXXXXoX'.'.oXXXXXXXXXXXXXXX X`.`.U.U.). X X).).Y. XXX).'.Y.'.'. X'. X'. XXXXXXXXX).'.Y.).'.'.Y.'.).).).Y.GXJXHX5X5X5X3X5X3X3X3X}.}.}.oXoX{.oX.X}.oX}.5X}.}.3X3X5X3X5X5X5X6X3X3X3X5X{.'.oXoX'.oXoX.XoXoXoXoXoX.X.XoXoX'.'.{.oX{.{.oXoX'.oX.X{.{.{.oX{.{.oX{.'.{.oX{.}.{.oX5X3X3X5XoXoX{.}.}.5X5X3X}.}.3X3X5X5X5X5X5X5X3X3X5X5X5X5X5X5X5X5X3X3X5X5X5X5X5XoXoXoXoXoX'.'.XX X'. X).XX).'.'. X'.'.'.XX'.'.Y.'.'.'.'.'.'.'.'.].{.}.5X5X5X5X5X5X5X5X}.oXoX.X'.'.'.{.{.{.{.oX.X5X5X5XoXGXXXS + , U y.9 < >.@.m m. XT.`.OXOXOXm._.OXr , e 3 3 , , 3 4 4 3 , 4 > = , , > 2 2 > > 4 , 2 , > 4 < > > = 4 , 4 r < q 1.F . x r o = > = O < 2 6 O c %.I -.N.X., ~ UXHXLXoXf O > = > = > = = = = * * # * & # # * & % & & $ * & & & % % & * & # & & & # # # # # % # # % # & % # # * o h N.N.N . # % # # * O 7 M.c.W & = 6 | 5.6.5.-.-.=.",
"2 # # * = $ & & = = = = = * > = = & = = = & = = = & & # $ & 4 = * & > > = = = = > = = ; < < % O # % 6 , 4 8 p r j g s * & 4 f f e > > & * 2 4 > 4 < > > < > 4 4 4 4 = 4 4 = 4 2 4 2 6 2 , F 4.! a , e a s , 3 * # # 3 * % % > , 3 , > > O f m & > = 2 = > = 2 = = 4 4 O U c.&.X.3 w n , > * 4 < p 4 6 A ,.B.n.D.D.U. X'.'.'.'.'.'.R.XX'.'.'.Y.'. X).'.).'. XY.'.).).'.'.).Y.Y.Y.).Y.'.'.).'.XX'..XoX.XoX.X.X5X{.{..XoX'.oXoX.XoX.X'.{.{.oX].oX'.'.{.oX}.}.{.{.{.}.}.{.}.oX{.}.5X3X}.}.}.}.}.}.}.oX}.{.{.{.{.{.}.oX}.5X5X5XoX{.{.oXoXoX{.5XoX{.oXoX{.}.}.HXoX'.{.{.'.'.'.'.'.Y.).'.R.{.HXHX'.'.oXoX'.XX'.'.'.'.{.{.{.{.}.oX{.{.{.oX{.oX{.oX{.'.XXXX'.'.Y.Y.).).Y. X).Y.U.XXU.).`.XX).).U.).).).Y.Y.Y.Y.'.oX{.'.'.'.'.).Y. XY. X'.'.'.XXXXXXXX.XoX.X.XXX.XoXXXXXXXXXXXXX'. X).'.Y.Y.F.).XXXX'.'.'. X).Y.Y.'.XXXX'. X'.'.XXXXXX'.'.'.'.XX'.).Y.Y.Y.{.'.'.'.oX5X5X3X5X3X3X3X5X}.}.5X5X}.}.5X5X}.3X6X0X3X3X5X5X5X5X5X5X}.5XoXoXoXoX.XoX{.oXoXoXoXoXoXoXoXoX.XoX{.{.oXoXoX.X{.{.oXoXoXoXoXoX{.oX{.{.oX5XoX5XoX}.'.].].}.}.5X5X5X3X5X3X5X5X3X3X3X3X5X5X5X5X5X5X6X5X5X5X5X5X5X}.}.3X5X5X5X5X5X5X5X5X5X5X5X5X5X'.'.Y.'.'.XX X'.XXXX'.XXXX XXX X'.).'.'.XXXX'.'.'.'.'.'.'.oX{.}.{.}.}.5X5X5X5X5X5X{.oXoXoXoX{.'.'.oXoXoX5X5X5XoXGX XU 4 O < r < I e P Y.`._.T.T.B.T.T.B.B.b s s e e f x > 3 6 > 4 2 < ~ x , 9 > & > , 2 4 4 > > 2 4 > > > 4 4 1 = 7 o < o.I | 5.r = = 7 1 1 , T W W ~ S 1 v I ! M.B.w.Q & O > > > * = < = = > & = = = < = & & = & & & & * = * * * = & * & & & & & & % # & & % & % # % % & & # & & * O 4  .M.E e # % o # # . k <.l.c , E N.4.4.5.4.6.<.",
"# $ $ $ $ = = & & $ & $ = = & & & & = & = & = = & * & & = = = = & = = = > = = = = = = = = = F ] ! F S x S S T J J H N r 3 r x f 4 < > > 4 4 > > 4 4 > = < > = < 4 = 4 = > 4 = = > < 2 = * x G = * 3 3 3 r e 3 , 8 % , % 2 * 3 3 6 2 , * 4 ,.~ # > = = = = = = * = > 4 , % % . # , , 8 7 9 = = O 4 g ] ~.M.;.b.D.x.w. X'.'.'.R.'.'.'.'.R.'.Y.'.).'.'.'.Y.).Y. XY.'.'.Y.Y.'.'.'.Y.Y.'.Y.Y.'.'.'.'.'.R.oXR. X5X5XoXoX'.'.{.oX'.oX{.{.].{.{.{.].].'.{.].{.}.}.].{.{.}.{.}.}.}.}.}.}.3X3X}.}.}.}.3X}.}.}.].].}.}.}.].}.3X3X5XoX}.}.}.{.}.oX}.{.}.5X{.5XoX].5XJXoX'.{.{.'.'.'.'.'.Y.G.).'.{.{.'.'.'.{.{.'.'..X.X'.{.'.].{.{.{.{.{.{.{..XoXoX'.'.'.'.'.'.'.).). X).).XXXXXXXX X'.).Y.D.U.`.).Y.U.Y.).).'.'.XX{.'.'.'.'.'.'.XX XY.'.GXoXY.XX.X'.XX'.'.XXXXoX.XoXXXXX.XXXXXXXXXXXXXXXXX'.'.Y.).).'.'.'.'.XX'.Y.).'.R.'.R.Y.'. XXX.XoXXX'.'.'.'.XXXX).).'.'.'. X).).'.oX5X5X5X5X3X3X3X5X}.5XoX}.5X5X5X5XJXqX3X}.oX5X5XoX{.{.oXoX.XoX.XoX.XoXoXoXoXoXoXoXoX.XoX.X.X{.{.oX{.oXoX{.{..X{.oXoXoXoX.X.X{.'.oX}.oX5X}.}.oX}.}.].}.3X3X5X5X5X5X3X5X3X5X3X}.3X5X5X5X3X5X5X5X5X5X5X5X5X5X5X5X5X5X5X5X5X5X5X5X3X3X5X5X5X5XoX{.'.oX'.'.'.XXXXXX.XXX'.XX'.'.).'.).'.XX'.'.Y. XXX'.'.'.'..X{.'.{.].].5X5X5X5X}.5XoXoXoXoXoXoX.X{.oX5XoXoX5XHXoXHXLXr.t z r = c.X.1.OXD.T.T.T.T.N.B.b.m.;.] w , E l.B.r , 6 & :.!  .c.7 w 4 , I <.M , 4 > 4 > > > = 4 > * & E g # 9 = $ G *.l.l.I O e 1 h T I v 1 O r t x 2 x b 1 o % = < % = > > = = < < = > = * = & = > % * = = & * & * = * # & % & % # & & $ % & & & & & & # # # # # # % & % % % # % | c.,.) ! I F x m v E ! *.#.#.-.4.=.4.4.5.-.",
"> 2 < & = = 4 = = = = 6 4 = $ 9 7 & = & = = = & = = = = = = ; * & = > * > = = = = = > = = # U ~.6.{ { { { c 2 * # O N J 8 * * * = 4 4 > < > 4 4 4 > = * > = < < = < 4 < < = < = & = < 4 2 % # = * 3 w % A ,.! L #.W n s d 2 , O > % r | ~.N.7 % 4 > = = = = = = 2 * > < 2 = 4 > 2 , > 8 < & 6 9 T J ( M.~.b.m.B.l.<.`.{./.{.'.oXF.Y.XX'.'.'.'.'.'.'.'.'.'.'. X'.'.'.'.'.'.'.'.'.'.'.).).'.'.'.'.'.'.oX.XoX5X5X5X5XoXoX{.].}.oX{.{.{.{.'.oX].{.].}.{.}.}.].}.}.].}.3X3X3X5X}.3X}.3X3X3X}.3X3X3X3X5X3X}.].}.3X3X}.}.3X5X3X5X5X5X3X3X3X5X5X3X}.5X5X5X5X3X3X5X].{.oX].{.'.'.oX'.'.'.'..X{.].{.'.oX'..X.X{.'.{.{.{.'.{.}.}.{.{..X{.oXoX'.'.).).Y.).).'.XXXX'.'.'.oX'.'.'.oX'.oXXXY.F.U.U.Y.Y.'.'..X{.{.'.{.'.'.'.'.'.XXXXoXXXXX'.5XoX{.oXoX.XXX).Y.'.XXoXXX'.XX.XXX.XoXoXoX.XoX.X.XoXXXXX'.'.XX'.XX'.'.'. X X X'.XX XXX'.'.R.'.Y.Y.Y.XX'.XX'.'.XXXXXXXX'. X).).).'.{.oX5X5X3X3X5X5X5X5X5X5X5X5X3X3X5X3X}.5X}.5X{.oX{.{.oXoXoXoX5X5X5XHX5X5XoXoXoX5XoXoX{.oXoX.XoXoXoXoX}.{.'.oXoXoX.X.X'.'.'.'.oXoX{.{.}.5XoX5X5X5X5X5X5X5X5X5X}.3X5X5X5X5X3X3X3X5X5X5X5X5X5X6X3X5X5X5X5X5X5X5X5X0X5X5X5X5X5X5X5X5X5X5X5X5X5X5X5XoX.XXX'.XXXX'.'.'.oXXX.X'.'.XX'..XoX'.'.'. XXX XXX'.XX'.XX.XoX{.oX5X5X}.}.oX5XoXoXoXoXoX5XoXoXoX5XoXoXGXoXHXoXXX:.g G r < c.m ~ OXT.T.T.T.T.T.B.N.b.c.l.D v 5.1.r.I g , = B.c.;.+ , e h ..l.M.v , 4 4 > > > > > 4 4 > & o.%.f > 7 * & t <.M.M.R F e g X.v . 1 , 8 9 g r f e r 7 7 < & > 4 = < > > > * > < * = & = & & & = & & & = & & & & & * # # 4 < $ & & & & & & & & & # % # & # % & & # & & = # = N ,.1.c.4.4.,.<.3.-.$.=.%.#.) *.=.=.#.) #.",
"F F v 4 4 & & & = = 7 x = o 7 E r & $ = = * & = & & = = & = = & = & = = = = = = = * * = = & % f j F -.5.#.j > 8 f x N 4 * > > > 2 = < = = * > < > * * > < = * > 4 > = 4 < & m ;.N 2 6 * > 6 6 > p ] R c ! 4.%.X.F R #.D w x I M I x b U U v 1 , > * > = = = = = = * = = = * 4 = > = * * e 6 = N *.W A ( M.>.&.c.c.1.m.]./.P.].XX:.w.XXR.'.'.'.'.'.R.'.'.'.'.'.'.'.'.R.'.XX'.Y.Y.'.Y.Y.Y.Y.'.XXY.Y.R.'.'..X].oXoX5X5X5X}.3X].}.}.oX].].oXoX5XoX].].oX5X}.3X}.}.}.3X3X3X5X3X].3X].3X3X3X3X3X3X3X5X3X3X3X1X1X].3X1X3X].3X3X3X3X5X5X5X5X5X5X5X].}.5X5X}.}.].].].}.].oX'.'.{.'.oXoX'.{.'.oX.X{.'.{.'.'..X{.'.{.].{.{.}.}.}.}.oX{.oX.X'.'.'.'.'.'.'.XXXX XXX'.XX.X.XoX{.'.'.{.'.'..XXX'.).'.XX'.'..X'.'.'.'.'.'.'.XX'.XX'.'.XXXXR.'..X.X{.{.oX.XXXXXXXXX.X'.'.'..X.XoX.XoXoX.X{..XoX.XoXXXoX'.'.'.'.'.'.'.XX).'.XXXX X'.R.Y.'.'.'.'.'.'. X'.'.'.'.'.'.'.Y.'. X X'.'.'.'..XoX5X5X3X3X5X5X3X3X3X5X}.}.3X3X}.5X}.}.oXoX{.oX5X5X5X5X5X5X6X5X5XoX{.oX.X.XoX.XoXoX{.oX{.oX}.}.].oX{.oXoX.XoX{.'.'.'..X'..XoX}.].}.}.5XoX5X5X5X}.5X5X3X}.}.5X5X5X5X3X5X5X5X5X5X5X0X5X5X3X5X5X5X5X5X3X5X5X5X5X5X5X6X0X5X5X5X5X5X5X5X3X5X5X5XoXoX'.'.XX'.Y.'.'.oXoXXX'.'..X.X.XXX'.'.'.'.XXXXXX'.'.'.'.'..XoX5XoX].{.{.oXoXoX.XoX{.oXoXoX{.oXoX5XHXu.O.GX^ . O e 6 1 t + ;.OXT.T.T.T.U.T.m.m.r.l.c.M.l.c.z.l.;.l.r 7 b.r.Y , ~ U ;.N.;.N = > 2 , > 4 > > > > > 4 * v 5.,.S 9 > 6 , E ) 4.c.c.$.) | ~ v a 3 4 O O % = , r > , % 7 ~ m & > = > = = & * * % * & # & # & & * # & & & # * & & & # 4 < # # & & # # % % % % % # & & & # # % % & % % * % o 6 4 r | *.*.4.%.,.-.$.#.<.#.-.5.M.<.*.c.",
"j 9 4 * = % < j f % > I b , 4 4 # $ v ! 4 % = * * = = = = = = = = = = = = = = = > * * = = = & O # 4 F F N j M H E x , * > 2 4 > 4 > > = > > > = > = = > < > = > 4 4 4 4 4 = f m f 6 9 7 6 > 7 2 b X.,.-.c.3.) <.t e X./ A c *.o.X.G r & $ # > 2 2 = = = = = = = > = > * = * & * 4 > > # U %.g c I W { #.<...,.5.c.l.x.5X/.P.'.m.o.2.XXR.'.'.'.'.'.'.'.'.'.'.'.'.'.'.'.XXm.D. XY.Y.Y.'.).).R.'.'.'.oXXX'.'.'.'.{.oX{.5X5X5X3X5X}.}.}.}.oX5X}.oX}.}.].}.3X3X3X5X3X3X3X3X5X3X].1X3X3X3X3X3X3X3X3X].].(.3X3X3X3X3X3X}.].].3X5X3X3X3X5X3X3X5X5X3X3X}.3X}.}.{.}.}.}.oXoX{.{.}.oX{.{.{.oX.X.X'.'.{..X{.{.{.{.}.{.].{.oX5X{.{.'.'.R.'.'.'.'.XXoXoX'..X'.oX'.oX.XoX'..X'.].{.oX{.oX{.{.{.oX{.{.'..X{.'.'.'.'.'.'.'.).XX.X.X'.XXXXXX'.'.'..X.XoX{..XoXoXoXoX.X.X'..X'.oX.XoX.X.X{..X.XoXoXoXoX.X'.P.R.'.'.oXXX'.'.XX'.'.Y.Y.'.XX'..XXXoX'.'.'..XXX'.'.Y.'.'.'.XX'.XX X X'.'.'.'.{.oX5X5X5X5X3X}.3X5X5X5X5X5X5X5X5X5X5X5X5X5X5X5X5X5X5X6X6X5X5X5X5X5XoX5XoXoX.XoXoX5XoX{.5X5XoXoXoX5X{.oXoXoX.XoXoXoX'.{.5X}.}.5X}.5X}.oX5X5X5X5X5X5X3X0X5X5X3X5X5X5X5X5X5X5X5X5X5X5X3X5X5X5X5X5X5X5X5X5X5X5X5X5X3X5X5X5X5X5X5X5X5X6X5X5X5X5X{.{.oX.X'.'.'.oXoX'.Y.Y.'.oX.X.X.XoX'.XXXXXX'.'.XXXX'.'.Y.'.'..XoXoX'.{.{.oXoXoX.XoXoXoX}.oXoXHXLXGXy.F.D.~ U 7 7 7 N 5.OXT.N.T._.T._.B.N.N.c.c.l.c.c.c.c.M.2.N.;.;.l.~ y.;.1.N.z.Q 8 = > > 2 4 > > > 4 > 4 > 6 2 7 R <.<.{ e , 8 ~ M.5.4.4.6.M.6.5.c.5.$.{ / W J A e e e z F g 9 < = > * > = > * > = > > = & = & = = = & * * & & = = & % $ & # # & & & & & & & # & * % # # # % % & & * % & & * = * O . N %.I R ) *.%.4.,.-.! N x U m m Q ",
"z 7 8 , 4 v ( W h , 8 { W > & # * 6 F k $ & & & = & = = = & = = = = = & = = = = = * 4 = = = = & = % % % > , 8 4 6 , > 4 8 > , 4 > > = = > > = = = * = * > > < = = < 4 ; 4 4 & # * = , f U x I F 6 c ..X.{ c.M.5.5.{ 4.c.5.c b k 7 2 2 % 2 , > & * = * * > = ; = = = = * * * = * * = = o m M.W F ! T #.-.4.4.c.;.5.,.;.{.P.P.A.m.,.X.U..XR.'.'.R.'.'.'.'.XX'.'.R.'.P.'.XX>.r.).G.G.G.Y.Y.Y.Y.Y.Y.'.XX'.Y.'.XX.X'.'.'.'.'.}.5X5X5X}.].].].}.].}.].}.].].].3X3X3X3X3X].1X3X3X1X3X3X3X3X3X1X3X1X3X].].].3X].3X3X3X1X3X}.3X}.3X3X3X3X3X3X3X3X5X5X3X3X3X3X5X].}.}.].}.oX{.}.].{.{.{.{.{.{.].{.{.'.{.{.}.].{.{.{.{.}.}.{.].'.'.'.R.R.R.'.{.{.'.{..X{.'.'.oXoX'.'.'..X'..X{.{.{.{.{.}.{.{.{.{.'.'.'.R.'.'.'.'.'.Y.'. XXXXXXX'.'.'.XX.X'..X.X{..XoX{.oXoX.XoXoX{..XoXoX{.{.{.oX.XoX{.{.oXoXoX}.5XLX6XR.{.{.{.{.'.].'.'.'.XX'.'.'.'..X'.'.{.'.'.'.XX'.XX'.'.'.'.'.'.'.XX'.XXXX'.'.'..XoX5X5X3X3X3X3X5X5X3X5X5X5X6X5X5X5X5X5X5X6X5X5X5X6X5X3X5X5X5X5X5X0X5X{.P.].oX5X}.5X}.5X5X5X].oX5X5XoX5XoX{.oX{.{.oX'.}.5X5XoX].}.}.}.5X5X5XqX0X3X0X6X6X5X6X3X5X5X6X5X5X3X5X5X6X3X3X5X5X3X5X5X5X5X5X5X5X5X5X5X5X5X5X5X5X5X5X5X5X6X5X3X5X5XoX{.oXoX.X{.{..X'.'.'.Y.).XX.X'..XoX.XXX'.'.XX'.'.'.'.).Y.Y.'.'.'.'.'.'.'.{.oX.X.XoXoX{.}.oXXXF.GXLXHX'.LX_.7 2 % N OX_.Y._._.T.T.m.N.c.x.c.c.4.c.l.c.l.c.c.4.l.c.<.! &.c.M.o.r % * > > 2 , 4 > > > > 4 6 > * 2 > > W ,.,.*.S O g N.N.M.M.c.4.4.4.3.3.5.4.5.5.4.4.,.<.-.c.5.f e e 4 > = , > > > > = < % & = & = > % = = & % & & & = & # & & & & & & & & * * & & = * # # % # # % & % % & & % & & > = * 1 4 O O = 4 1 h h 7 # o o # .     ",
"W E E S T E W p 2 6 r z 3 % * 9 v f $ o & & * & = = = = = = = = = = = = & $ $ = = = < 4 4 & & % = * > 2 2 , 2 , > 3 8 > 4 2 > 4 4 = > > = > 4 < 4 < < = > < < = = > 4 < 4 = 4 2 6 = 3 I W J ,.*.s c { g , v ] ) ] F E F N 6 , > 4 * 2 , = * = = = = = = = > 4 < = = > = > = < & > 4 5 < g X.W T [ L L [ =.<.<.,.5.<.<.Y.].}.m.M.<.*.B.XXR.'.'.'.'.'.'. XD. X'.'.{.'.'.`.;.1.U.G.).G.Y.Y.Y.Y.).Y.'.Y.Y.).'.'.'.'.XX'.'.'.'.].oX3X}.}.}.].].}.3X}.].].].].3X3X3X1X1X1X3X1X3X3X3X1X3X3X3X3X1X3X3X3X3X3X3X1X3X3X3X1X3X3X3X1X3X3X5X3X3X3X3X3X3X5X5X3X3X3X5X3X}.].}.].].}.}.].}.}.oX{.{.'.'.{.oX{.}.].].}.}.'.{.}.}.].'.'.oX{.{.'.'.'.{.{..X{.{.{.{.{.{.oXoX'.'.'.oX.XoXoXoX{.{.oXoX}.oXoX.X'.'.'.'.'.oX{.oX'.'. X'.'.XX.XoX'..X.X.X.X.X.X.XoX.X.XoX{.oX{.oX{.oXoXoX{.oX{.oXoXoXoXoXoXoX}.}.JXIX1X].oXoX{.oXoXoXoX{.oXoX'.'.{.{.'.].]..X{.{.{.{..XoX'.oX'.'.'.'.XX.XXXXXXXXX'.'.'.{.oX5X5X5X5X5X5X3X6XqX5X5X5X5X6X0X6X5X6X6X5X0X6X5X3X5X5X5X3X3X3X6X6X5X}.5X5X5X5X5X}.5X}.}.}.oX}.5X5X}.{.oX.X.X.X].oX}.0X5X}.}.oXoX}.5X5X5X5X5X5X5X6X6XqX6X6X6X5X5X5X3X5X0X6X6X6X6X6X6X6X5X5X5X5X5X5X5X6X0X6X5X5X0X5X5X6XqX6X6X6X6X5X5X6X5X5X5X5X5XoXoX.XoXoXoX'.'.'..X.XXX'.'.'.XXXXoX'.'..XXX'.).).'.'.'.'.'.'.'.'.oXoXoX.XoXoXoX0X`.N f ~ y.n.v.m < r > x OXb.b.B.B.b.m.c.N.m.x.c.N.M.c.c.c.c.c.M.c.1.c.c.5.M.c.S , = > , 2 * > > > > 4 > 1 > > * > 2 6 3 8 ~ <.;.1.T x F E I #.c.M.3.5.4.3.3.=.-.-.$.=.,.-.-.<.G 6 z p , > > > > > # % O $ < < = $ 4 = * * * & & * & * * % % * & = & & & * # % # # % = * # % * % % % & & * & * & * * = & > & % = = & * & # o % = = ; 4 = q l ",
"R R W H N e 4 > s e s 3 8 6 p v f & & = = & & & & = ; = = = = = = & = = # l l # < < = 4 1 = & & # & > * 2 2 , 3 8 > , 4 > , > , > > = = > > < < < < < < < = = = = = = = = > 4 2 2 2 e E R e _ 1.E E ,.g % 8 1 4 4 O 6 # , 2 8 4 r > , % * = = * = * = * = = = = = = = = > % O r p O 8 p , r W R L W / =.3.$.-.<.-.<.<.;.oX{.) %.=.} ,. X'.P.'.'.'.R.oX). .m.XX'.R.'.'.m.*.,.x.Y.G.Y.Y.Y.Y.Y.Y.Y.Y.Y.).Y.).Y.'.'.'.'.'.R.R.'.'.P.].}.5X}.3X].].3X}.}.5X5X5X3X3X1X3X}.3X3X3X].}.3X3X3X].1X6X3X3X3X3X1X1X3X3X3X3X1X3X3X3X3X3X3X3X3X3X3X3X3X3X3X3X3X3X3X3X3X3X].].}.3X].}.}.oX{.'.'.Y.Y.Y.Y.'.{.{.].}.].].].].{.}.].].].{.{.].{.oX].{.'.{.{.{.{.{.{.{.{.{.'..X.X.X{.{.oXoX}.}.}.}.oXoX{.{.{.{.'.'.'.'..XoX'.'.R.XX'.'.'.XXXXXX'.XX.X.X{..X{.{.{.{.{.{.}.oXoXoX}.oXoXoX{.{.oX}.oX5X}.}.}.}.3X3X].}.{.{.{.{.}.oX}.}.{.{.{.{.'.].'.].'.{..X{.].{.].XX'.'..XoX'.XX'.'.XXXX'.'.'.XX'.'.'.oXoX5X5X6X3X5X3X5X6X5X3X5X5X6X6X6X5X5X6X6X5X5X3X5X5X3X5X6X6X6X6XqXqXHX6X3X3X5X5X3X3X5X}.}.}.}.}.5X{.].{..X'.5X{.].5X}.].5X{.oXoX].oX}.oX5X3X3X0XqX3X6X6X5X0X6X6X6X6X6XqX6X4X6X6X6X6X6X3X6X3X5X6X6X5X5X6X5X3X5X5X6X6X6X6X5X3X6X6X6X5X5X5X3X3X5X5X5X].}.{.oX.X'.'.'..XXX'.'.Y.'.XXXXXXXX'.XXXX X).Y.'.XXY.'.'.'.'.{.{.oX'.oXoX{..XGXm.z , 7 4 4 & 4 7 > 6 m 7 f 7 U >.N.b.M.M.T.B.] ,.N.c.l.c.c.l.M.M.#.D | ~ 8 % 4 > 2 * * > > > > > > > > > 2 > 4 = > 4 > > ~ 5.,.1.2.x , e z e ( 4.$.3.3.=.4.4.4.4.-.=.#.-.#.r 3 e 3 , 3 , , O 7 x ~ ! o.c.F $ q m = % & = * % % = & % * & % = & * & # # & % # % # # % % % % & % # % * * & & & * * % * > * * * * * * & = & = = = & % ; q h ",
"/ R L n d s z c S A S S v 7 8 # # & & & & & * = = = = = = & = = = = ; ; # l c.k # & 4 4 7 2 > * = * % # , % 2 , 6 > 4 > 4 7 4 = > = 4 > < = = = = * = = < < < > = = > > 6 < 4 4 6 S / R / A ( *.%.%.5.T w > 3 > 8 2 2 6 6 2 8 > > 6 4 > > * = > < > = > > = = = = = 4 = > 6 4 ! E , w r r x ! [ } [ #.-.=.=.4.<.<.=.4.%.m.u.:._.5.} -.).P.P.'.'.'.'.XXm.] >.OXG.P.P.{.m.,.,.x.).Y.Y.Y.Y.'.Y.).Y.Y.Y.).).).Y.'.'.'.Y.Y.'.'.'.'.'.'.'.}.}.3X}.5X3X].'.].].{.'.'.].{.].'.'.'.'..X'.}.]./.].6X6X5X3X1X3X3X1X3X1X1X3X3X1X3X6X3X3X3X3X3X3X3X3X3X3X3X3X3X3X3X3X3X].}.}.}.{.'.'.'.R.G.G.Y.Y.).G.Y.Y.'.].}.{.}.}.}.{.].{.}.].{.}.{.].{.}.oX{.{.{.{.{.}.{.}.oX{.{.oX.X.XoXoX.XoX}.oX{.oX}.}.}.}.].}.}.oX'.'.'.'.{.'.'.XX'..X'.Y.XXoXXX.X.X.X{.oXoXoXoXoXoXoXoXoXoXoX}.oXoXoX{.oXoXoX}.{.}.oX}.}.}.5X}.5X}.oXoX].'.].oXoX}.oX}.oX{.{..X'.{.oX{.{.{.{.{.{.oX'.'.'.'.'..XoX'.XX'.'..XoXXX'.'.oXXXoX5X5X6X6X5X6X3X3X5X6X5X6X6X6X6X6X6X6X5X5X6XqX6X6X6XqX6XqXqXqX6XqX5X5X5X5X5X5X5X5X5X5XoX}.oXoX{.{.{.oXoX5X5X5X5XoXoX5XoXoX}.oX{.}.}.5X3X5X5X5X5X5X5X6X5X6XqXqX6X6X6X6X6X6X6XqX6X6X6XqX6X6X6X6X6X6XqXqX5XqX6X0X5X6X6X5X6X0X6XqX6X5X3X5X5X5X5X}.}.}.}.oXoX.X{..X].{..X.X'.'.R.'. X.XXXXXXXXX'.'.'.'. X X).XXoX.X'.oXoXoXoX5X.XXXHXN.n e s p 7 9 4 9 4 $ 1 1 c B.N.M._.%.x o.;.1 w ,.N.M.c.c.M.c.I r , > # , 4 6 > , , 2 > * * 4 > > > > , 2 4 4 4 6 4 6 > > S <.%.U r , j D w T -.-.=.4.4.3.=.3.4.4.-.3.4.4.#.( W W H g 3 z E 4.c.M.c.l.I = $ 9 f & = * = = = * > & = = & * & * & & & & % & & & # % % & % % * & % = & * & * * * * * * > * * * * % % & = & & = = = = ; ; . ",
"/ R L W R L L D c R L r 2 & % & = = = $ & & = & = & & = & & = & = = = = = $ B >.I < = = 6 8 7 # > 4 j m x f x 9 > , 2 = > 9 f 9 7 > > > * = = = * = > = > < = & 4 6 = 4 4 < 4 > 2 T 4.! D I R F <.....%.W c c , 3 8 8 , 2 , > 4 e f 4 * > * = = = < = = > > = = = = = > 4 7 h j I W H A ! { #.( [ } #.} $.-.=.<.=.[ -.-.l.1.N.OX<.=.} m.oXP.R.R.R.'.XX;.=.#.b.A.F.p.XXx.o.2.w.Y.G.G.).Y.Y.'.).).Y.Y.Y.Y.Y.Y.Y.Y.Y.Y.'.Y.R.'.Y.Y.'.Y.'.R.R.}.5X5X'.P.R.R.R.P.'.R.R.R.'.G.G.Y.'.'.{.].].].3X3X3X].1X3X3X1X1X1X3X1X1X1X1X3X3X1X3X1X3X3X1X1X3X3X3X1X3X3X3X}.}.].].R.'.P.G.Y.Y.Y.Y.Y.).Y.Y.Y.Y.Y.Y.G.R.}.oX].].].}.{.{.}.}.].].'.}.}.}.}.].{.{.{.{.}.}.{.oX{.{.oXoX{..X{.oX}.oXoX}.}.}.}.}.].}.].].}.{.].oX'..X'.'..X.X'.R.'..X.X{.]..XoXoXoXoX5X5X5X5XoX5X}.oXoXoX}.oXoXoX}.}.}.oX}.}.oX5XoXoX}.].oXoXoX}.{.{.{.}.}.}.}.}.}.oX].}.{.{.oXoX].].].}.].{.R.G.'.oX.X.X'.'.'..X{.oXoX.X'.'.XXoX.XoX5X5X6X6X6X6X3X6X6X6X6X6X6X6X5X3X3X6X6X6X6XqX6X6XqXqX6X6XqXqX3X3X5X}.5X5XoX3X5X5X}.5X}.oXoXoX{.{.oX].5XoXoX5X}.oXoXoX{.oXoXoX}.{.oX}.5X}.3X5X5X3X5X6X6X6X6X6X6X6X4X6X6X6X4X6X4X6X6X6X3X5X6X6XqX3X5XqX3X5X6X6X5X0X6X5X6X5X5X6X5X3X3X5X}.}.}.5X}.}.oXoX{.}.oXoX{..X.X'.'.'.R.'.XX'.'. XXX'.'.). X).w.x. XXX'.oX.X.X{..XOXXXy.m.OXQ % e 7 4 , 1 ; t | ) ) M.N.c.N.F O t f r 3 = N l.B.M.E a , > 2 3 > 4 > 4 = * * > > > > > > > > 4 > > > > 4 4 , > > 2 # f f # * 2 * , 8 > c 5.-.4.-.5.6.3.=.3.3.3.3.4.4.4.5.6.4.-.#.4.M.M.,.l.5.g . # # o # & & * & = * > = = & & = = & % & = > = # # & & & & # % % & # % % % % % % & * * * * * & & & % & & & % & & = $ & & = $ $ 5 ",
"R W R L R L L L R J g # # = > = > & & = = = = = = = = = = = = = = = = = = & = l o.] m e r 4 r M j = h F X.] N F x > > 4 4 > > 7 e , & = > = > * = = > > < < 4 * 4 j 4 > < 4 6 > > 6 N I F ] ( A W { $.$.-.#.[ D b 6 , s e 3 4 = f k 7 * = > > > < = > > > = = = = = > 4 8 % & O r ! ] [ #.( [ { } { #.=.=.-.-.#.#.} -.4.5.{ #.#.[ =.=.M.XXG.P.G.'.'.OXX.#.=.;.m.Y.u.XXl.*.*.;.U.Y.Y.'.).'.'.'.Y.Y.'.'.Y.).R.).G.Y.Y.'.Y.Y.'.Y.Y.'.Y.R.'.'.P.{.{.{.{.{.].'.{.{.'.'.'.'.R.'.G.'.].{.3X3X].3X1X3X1X3X1X3X1X1X1X4X1X1X1X4X1X3X4X4X1X1X3X3X3X3X5X5X3X3X3X}.].'.'.R.R.'.'.Y.Y.).Y.).).'.).).Y.Y.'.).G.G.R.{.'.R.'.}.].}.}.3X}.].].5X}.].].{.{.}.{.{.{.{.{.oX{.oXoXoXoX5XoX5XoXoXoXoX}.oXoXoX}.}.}.5X}.}.}.}.}.}.{..X'..X.XoX'..XoX{.{.oX5XoX{.{.}.oX}.}.5X5XoX5XoX}.}.oX5X}.}.5X}.5X}.oX}.5X5XoX}.}.5X}.3X5X3X5X}.}.3X}.}.3X3X3X5X5X}.3X}.}.].].{.}.}.5X'.R..XoX.XoXoX'..XoX{.oXoXoXXXoX'.XXXXoXoXoX3X5X6XqX6X6X6X6X4X6X6XqX6X6X6XqX6XqX6XqX6X6XqXqX6X6XJXHX3X5X}.3X5X5X5X5XoX5X5X5XoX5X5X5XoXoXoXoX.X.XoX5XoXoX5XoX5XoXoX5XoX5X}.}.}.}.5X5X3X5X3X5X5X6X6XqX6X6XqXqX6X4X6XrX6XqX6X6X6XqX6XqX6X3X3X6X3X5X6XqX6XqX6X6X6XqX0X0X3X6X3X3X3X}.5X5X}.5X5X5XoX}.5X5X}.}.oXoX{.'.'.'.'.XXXX'.'.'.'.XX XB.:.;.m.XX{.oX{.oXoXXXOXr.N.`.b.m.U > % 9 7 7 % ~ OXB.M 7 x.M.N.Q m <.) E T 3 # 7 U I , , 6 7 > > 4 4 > > 4 6 * = = 4 > > > 4 > 4 > 4 > > * > , > 2 4 > * & > * 2 , = = % = 4 > 7 7 g ( 5.3.3.3.4.3.4.-.4.3.-.4.5.4.5.-.4.M.,.r > & = # & * = & * * * = = * = % * * & & & % * = = & & % & & & # % % * % * % & % # * = % * * = % % & = & & & = $ & & & = = = ; = # : ",
"/ R R L H A n s f 4 & * > < 4 * = ; < = = & * = = = ; 4 & & = = = = = = & = = # f Q %.) ! D b I U 4 O o U ~ e G k , > 4 4 , 4 & O 9 r * > * * > > = * > < > < * * f 7 > 4 < > 4 6 = 2 > > s z N W =.=.( #.$.$.#.( D A W T 3 > = > 7 > * > * > > = = = = = * = = = = > = > 4 = O % J ( W ( { ( [ #.{ { #.-.=.=.{ [ } } =.} } } [ #.} } ..D.P..X'.XX0.1.X.} ( -. .D.Y.XXc.( ) x.Y.R.Y.G.Y.'.R.Y.R.'.R.R.'.Y.G.Y.Y.).Y.Y.Y.'.G.Y.Y.Y.Y.Y.G.Y.G.G.R.'.{.{.{.}.].}.}.}.].}.].{.}.}.}.3X].3X3X1X].1X1X1X1X1X3X1X1X1X3X3X1X1X3X4X1X3X4X3X3X3X3X5X3X3X}.].'.'.P.G.G.'.'.R.G.Y.G.G.).).Y.Y.).'.Y.Y.'.'.Y.D.G.Y.G.G.G.'.{.}.].}.].}.].].].].].}.].{.{.{.].{.{.oXoX}.3XJX6XoXoXoX5XoX}.oXoXoXoXoX}.}.}.}.}.].].}.}.}.{.].'.'.'.oX{.].].oXoXoXoX{.{..X{.oX}.}.].oX5X5X}.{.{.oX}.oX}.}.3X3X3X3X}.}.5X}.].5X}.3X}.3X}.}.}.3X}.3X].}.3X3X3X3X3X3X].}.].oX}.].5XoX}.{.].{.oXoX'.{.'.{.oX5X{.{.oXXX.XXX XXXoXoX{.}.3X5XqXqX6X6X6X4X6X6X6X6X4X6X6XqX6X3X3X6X3X6X6X6XJXHX5X3X5X5X}.5X5X5X5X5X5X5XoX5X}.oXoXoXoXoX{.oXoXoXoX}.}.5X5X5X}.}.5X5X}.}.].5X5X5X5X3X}.3X5X5X3X5X6XqX6X6X6X6X6X6XqX6X4X6X6X6X6X6X6X6X6X6X6X6X5X6X6X6XqXqX3X0XHXF.u.}.6X].3X5X3X3X5X5X5X5X}.3X}.}.5X5X].}.oX.X'.'.'.XXXX'.'.XX'.'.OXB.<.l.B. XR.oX.X.X'.oXU.v w.LX XOXx.~ c 7 q 7 1 E :.l < P c.l.c.>.U I r r E s > = & < 4 4 2 4 1 1 > < = > > > 4 4 * > > > * > 2 > > * 2 > > > 2 2 , > > 4 > = = & * 4 = 6 4 = % # .   e 4.3.-.-.3.3.3.3.-.3.5.-.-.-.4.5.c.) r O * % & = = % & % % * % & * # = = = > = # & % # & # # & # # # % % % % % % = % % # & # * * * * % # # # & & * & & & & $ & & = $ $ $ - : ",
"R D A w 3 , , # % * = 4 4 * = = ; = = ; = = = ; = & = = & & = = = = = & = = = = = = j G ! ( *.W ! W N x ~ U h 7 > > 6 4 7 7 9 6 ~ OX! % > > > > > > > > < > = 2 > 9 9 = 6 4 4 4 6 8 8 = , % > r v J ( $.<.#.=.#.( W ( W j , 2 2 1 1 4 2 > = > < = = 4 = < = = = = = > 4 7 9 g S a n =.{ { #.#.( ( { =.#.#.#.[ [ =.} [ =.} } =.} } [ [ *._.G.n./.). .] } } } -.( c.m.+.1.| 1.B.@.u..XY.Y.'.R.R.'.'.'.'.'.'.Y.).U.U. X'.'.'.Y.Y.G.).Y.Y.Y.G.Y.'.G.'.R.'.}.}.}.}.}.}.3X5X5X5X}.].3X3X3X3X3X3X1X3X3X3X1X1X3X3X1X3X3X3X1X1X1X3X1X3X3X3X].'.R.{.'.'.'.'.'.G.'.R.G.'.'.R.'.'.Y.Y.).).'.'.).Y.Y.'.Y.Y.G.G.G.Y.G.).F.Y.R.'.].}.}.}.}.}.}.].}.}.}.}.}.{.{.oX}.{.oX5XHXUXPX}.oXoXoXoXoXoXoXoX}.}.}.5X}.}.].].].3X3X5X{.'.'.{..X.X{.}.{.oXoX5XoX{.oX5XoX5X5X}.}.5X5X5X}.}.}.5XoX5X5X}.}.}.5X5X3X5X5X3X}.}.}.5X3X3X].].}.5X3X3X3X].3X3X3X3X1X1X].}.3X3X3X3X3X5X}.{.}.oX{.oX{.{.{.oX{.5X{.{.{.oX5XXXXXoXoXoXoXoX{.oX3X5X5X6X6XqX4X6XqX6X6X6XqXqX6X3X6XqX6X6X6XqXJXJX6X0X3X5X6X0X5X5X5X5X}.5X5X5X5X5X5X5X}.{.oX5X}.oX}.}.}.5X5X5X5X5X5X5X5X}.}.5X5X5X}.3X}.5X3X5X3X3X6XqX6XrX6XrX6X6XrX6X6X6XqXqX6X6X6XqX6X6XqXqX6X6X6X6XqXqXqXHXG.w.>.Y.5X1X3X5X3X3X5X5X5X}.5X5X}.5X3X5X}.3X3X5X{.oX{..X.X'.'.oX'.XX`.c.#.<.b. X'..X{.oX{.oX).I z o.y.m.0._.>.r t v e < & ; I M.M.l.M.! 6 6 * > e 3 2 6 6 6 6 6 > > 4 7 > > 4 6 * > * * 4 > 4 > > 2 > > > > > 4 > > > 4 > > > 6 > * * > * < > * * > G X.J I [ 4.-.3.3.4.4.5.4.5.3.4.4.5.4.4...N = & 2 2 % # = = * > * * * % * * & * * > * = & & # & & & % & # & # % & & # * 4 o % & % * * & % * = & # & $ & & * = ; = = = = & = $ ; $     ",
"H R E S 6 % 2 = > < 4 = = = > = = = = = = = ; = & & & & & $ & & = = & = = & = = = = = % > r S ( 4.{ ( S x 1 6 > , & * , 8 4 1 7 ~ U * , > * > * > > > , > * > > & 6 N 9 & 2 7 4 > 8 r r 9 3 6 = w w A ] %...$.( { R F 6 * * 2 > < > < * > = = = > = = < > = < * > = > < f 2 O G #.w b X.#.W / #.#.{ { #.$.} #.$.$.#.#.4.=.[ } [ [ [ [ X.B.n.0.D.).N.#./ } } } [ %.c.~ %.5.l.| ! v.D.G.R.R.R.'.R.'.'.'.G.'. Xm.l.r. X.XR.'.'.'.'.'.Y.G.G.Y.Y.Y.Y.R.R.].].].].].].3X1X1X3X3X].1X].1X1X3X1X1X3X3X3X3X3X3X3X1X].3X].].I./.P.].].].P.P.P.P.R.R.'.'.'.'.R.'.Y.Y.G.Y.G.R.P.'.'.Y.R.'.R.'.Y.Y.G.G.'.Y.G.Y.G.Y.Y.G.G.G.G.Y.G.'.'.].}.}.}.3X].].}.}.].}.{.}.}.5X{.}.qXUXJX].oX}.}.oXoXoX}.}.{.}.].}.}.}.].}.].].3X}.}.{.].{.{.].{.}.{.{.oX}.}.5XoXoX5X3X}.oX}.}.3X5X}.}.}.}.5X5X5X}.}.}.}.3X5X5X}.}.}.3X3X}.3X}.}.}.].].5X5X].].3X3X1X1X1X1X3X3X1X3X3X3X].3X3X5X}.}.}.}.].].{.}.}.}.oX{.R.'.'.XX'.oXoXoX].].}.{.{.}.}.5X3X6X6X9X4X6X6X4X6X6X6X6X6X6X6X4X3XqXrXrXrX6XqXrX6XqX6X3X3X5X3X5X5X5X5X5X5X5X}.5XoXoX5X}.}.3X5X5X5X5X3X5X5X5X3X5X3X3X5X3X].3X3X3X3X3X3X3X3X3XqXqXqX6X6X6X6X6X6X6X6X6X6X6X6X6X6X6X6X6X6X6X6X6X6X6XqX5Xy.5.c.x.'.3X].5X3X3X3X5X}.5X}.3X3X3X3X5X3X1X3X3X}.{.{..X'.{.'.'.'.XXb.%.*.<.%.U.oX'.'.{..X'. XT.J g P h U :.C < w f e v t M c.c.&.>.c.I , e f r 3 6 > 8 3 3 > > > > > 1 > > = < > * = > , > * > > * 2 > = > * > > > > > > > > > > = & = = % > 4 & * 4 b R 5.M.3.3.3.=.3.=.#.X.#.X.%.) ~ I f & % > > % * = * # & * % * * % * % = * & & = % & % % & # & * & # % % % & # % o h M.v o , * % # % # % # & & & $ & # $ % & # # % & & 6 7 6 6 h j ",
"c n J I 6 % * > = = 4 = < 4 4 = & ; ; = 4 = ; = = & = & = & & & = = = = = = = & = = 4 = 4 # & 7 M f 7 6 h r 9 2 7 k m 9 6 4 4 = # & 1 , > , > > > > > > > * 4 > > = v I h = > * 6 8 p 4 , 4 k c L A A R $.%.-.=.=.W n % , , , o = 1 7 > > 4 = > 4 < < = = > 4 > > & = , > , , o g e % 2 J r % N I { #.=.$.=.-.=.=.=.4.=.} [ [ } [ [ } ( o.:.u.'.D._.*.[ } [ #.} { M.#.{ #.( ( ,.v.D..XY.R.'.'.R.'.'.'.'. Xm.<.-.,._.HXXXm. XoXY.Y.Y.G.Y.).Y.'.R.'.'.}.].3X3X3X3X3X3X6X].3X3X3X1X3X1X3X1X3X3X}.].].].}.].].P.'.P.R.R.R.R.'.P.'.'.P.'.{.'.'.'.'.'.R.'.'.'.'.G.G.R.oX'.R.G.Y.'.'.R.Y.R.'.G.R.'.'.R.R.Y.'.'.'.G.G.).Y.G.R.G.'.'.{.}.5X}.}.}.}.3X3X}.}.}.5XoX5X3XJX3X3X5XoX}.5X5XoX}.}.}.3X}.}.3X3X}.3X}.3X3X3X}.3X5X}.}.oX}.oX{.oX}.}.5X5X5X3X3X5X5X5X3X3X3X3X5X5X}.}.5X5X}.}.}.3X}.3X3X3X}.}.3X3X1X3X3X1X3X5X].}.3X3X1X].3X5X1X3X3X1X3X3X1X3X3X1X1X3X3X5X5X5X3X}.}.}.}.}.3X5X5X5X].'.G.'.{.{.6XJXqX5X}.oX{.oX}.}.3X3X4X6X6XrX6XrX4X4X9XrX4X4XrX4X4XrXrXrX6XrXrXwXrXrXrX6X6X6X6XqX6X6X6X6X6X6X6X3X5X6X3X5X}.5X5X5X3X3X5X5X5X5X5X5X3X3X3X3X3X3X5X3X5X6X6X5X3X5X6X6X6XqXqXqX6XqXqXqX6X6XqX6X6XqX6XqX6XqXqXqX6X6XqX6XHXoXr.5.l.w.G.1X1X5X3X5X3X3X5X5X3X3X3X3X5X5X5X4X3X3X5XoX'..X.XoX.X'.'.'.b.%.<.5.,.c.).'.'.'. XU.m.OX4.x ] c.o.t 1 r r z z v t I $.c.c.l.4.X.b r 6 3 s e 3 3 3 7 > 2 4 > > 4 4 6 < 4 4 > > 4 > 2 > > > > , > 2 2 > > > > > > > 4 > > > = * = = 1 > > < 7 & # # # W 4.3.3.4.#.3 , > 3 > 2 * % # * , , * = * > = > * > = * = * * * % * * * & % & * & & & & * < = * % & & & # & % * 5.OXD # % , , O 9 k o # % = = . k | m x x h < 4 o & ; . 9 =.=.",
"3 , > , * , > * = = = < = < < = ; = = = = ; = = ; = & = & # = = = $ = = & = = = = = = ; 4 > > * * = 4 4 f r 4 4 E >.E < > > > > 4 1 4 * * , > > > * > * * * * > 2 * > h U I F e 6 , 7 z A A F I W J D W =.-.M.{ A R ] H s > h M E b > 4 > = > > 4 4 < = < = = > * r T J a O 4 % O e 7 % 6 N g e w T =.#.=.$.=.=.#.{ =.} / [ } [ } [ [ [ 1.y.u.).o.X.{ [ [ [ } [ { %.,.) { { *.o.m. XD.D.R.G.'.R.'.R.'.'.).>.=.<.#.D.GXD.>.m.F.G.G.F.Y.G.Y.Y.Y.'.G.'.].}.}.}.}.].].].3X5X5X].].3X5X].].R.'.R.'.P.R.R.'.'.R.'.R.R.R.R.R.R.R.'.'.R.'.'.'.'.'.P.'.P.'.P.R.'.P.'.'.G.'.{.G.G.'.G.R.R.'.G.R.'.R.G.'.R.G.G.R.'.R.G.Y.Y.'.Y.R.R.R.G.'.'.].}.}.].}.].3X3X}.].}.}.}.3X1X}.3XoX5X5XoX5X5X}.5X}.}.}.}.}.}.}.}.}.3X3X3X}.5X3X3X}.}.5X5X5X}.{.5X}.5X3X3X3X5X3X3X5X3X3X3X3X5X3X3X3X3X].3X].3X3X].3X3X3X3X1X1X1X1X1X3X3X3X3X].].3X].3X3X1X3X3X1X1X1X1X3X3X1X1X3X3X1X3X3X3X3X3X3X5X3X}.}.5X}.}.}.}.{.}.'.].6XJXPXHX}.{.{.oXoXoX}.3X3X3X3X3X6X4X4XrX9X9XwXwX7XrXrX9X9X9X9XrX9X9XwXwXwXrXrXrXrXrXrX9X9X9XrXrX4X6X4X6X6X3X3X3X6X6X1X3X3X5X5X5X3X3X3X3X3X3X3X3X3X6X3X6X6XqXqX6X6X6X3X3X6XqX3X6X6X6X6X6X6X6X6X6X6X6XqXqX6XqX6X6XqXqX6X'.1.=.4.2.u.3X1X3X3X3X3X3X3X5X5X3X].6X.Xv.oX6X1X3X5X'.D.Y.oX{.{.}.P.'.XX1.#.1.5.;.m.'.G.Y.).w.&.c.M.H , ~ `.I 3 v r e 6 r ~ B.M.l.,.1.o.4.4./ t x n w e 3 6 4 2 3 , 2 > , 6 4 > . & 4 > > 4 > 4 4 > > , > > > > , * > , > > > > > * * = = & = = 1 % = e r 9 O J 5.=.$.4.#., 2 4 4 > > * * * * * = = = # # * & * * % * % % = % * & = * % & % & * & % % * & * & & & & # % % % # O ! ~.( , , % > * M I r . # & $ 4 o.5.*.) o.X.) I j & . h { R ",
"2 2 > * , = > > 4 > > < 4 = = ; < = 4 < < = = ; < = = ; = = 4 ; = = = = = = = = = = = = < > 6 < 4 4 6 > > 2 4 > 4 4 & * 2 > , > 4 = > > > = > > , = = * > 4 > * = 2 6 = 9 x W { ! e , S #.W c e c A ] =.4.,.I 3 e b W F r 6 F T S e 2 2 7 4 6 = < > = > < = 4 = > 7 ! $.$.L n e e O , % % > G ] #.#.=.#.-.-.#.} #.#.#.[ ( } } [ } [ [ [ 5.y.m.w.| ( } [ } [ [ } } ) 5.1.-.#.*.X.;. .~ v.oX'.'.'.{.{.P.F.U.l.-.5.#.`.HXb.1.b.Y.G.Y.Y.Y.G.Y.Y.Y.G.G.G.'.{.}.'.P.].].P.].P.'.P.P.P.'.P.P.R.'.R.'.'.R.Y.XX'.'.'.R.'.{.R.'.'.R.R.P.P.'.P.R.'.P.P.P.{.].'.'.'.'.G.'.G.P.'.'.P.'.R.'.'.'.'.'.'.'.R.'.R.'.'.G.G.G.Y.'.Y.'.R.'.'.R.'.'.Y.'.R.R.'.}.{.{.}.}.}.5X].}.3X3X3X5X}.5X5XoXoX}.5X5X3X}.3X3X}.3X}.}.].].].3X3X5X5X5X5X3X}.}.}.oXoX5X}.3X5X5X}.}.3X3X}.3X3X5X3X5X5X5X3X3X3X3X1X3X3X3X3X3X3X3X3X3X1X1X3X3X3X3X3X3X3X3X3X3X3X3X1X1X3X3X3X3X1X1X1X3X1X3X3X3X3X3X3X3X5X5X5X5X}.].].}.}.5X5X5X3XrXJX4X3X3X3X5X5X5X}.3X5X6X5X5X3X3X1X3X6X4X9XwXwXwXwXwX7X9X4X9XwXrXwXwXwXwX9XwXwXwX9X9XrXwX9XrX9X9XrXwX9XrXrX6X4X6X6XrX6X6X3X6X6X6X3X6X6X6X6X6X6X5X6X5X6XqX6X6X6XqXqX6X3X3X3X3X6X6X3X6X6X6X6XrXqX6X6XqX6XqXqXqXqXqXqXqXqX'.2.-.3.1.y.3X1X5X6X5X5X5X5X5X5X3X3XHXB.*.).qX3X5X].D.c.b.XXoX.X5XoXoXm.1.#.5.5.,.b.`.G.F._.%.I E l.5.e O m ~ v j e 2 6 l.OXr.U g M *.,.=.$.3.=.#.e w w , , > 2 4 3 6 4 4 8 4 4 ~ f > 4 4 4 > > 2 * * > 2 > > > > * > > > > > > > > > = > 4 4 . O > s 3 3 , z $.4.3.3.3.=.n a , % % * * , , 3 > 4 = . 8 r # > > > * * * = = & & = * % & * % * & & & * # & # & & * & % % % & * o . S OX<.A , 3 , # j #.! x % # . . F ,.X.X.( X.%.*.] ~ ( { [ ",
", , , , > * = > > > > > = ; < = = ; 4 4 = = ; = = = ; 4 < = = = & & = & = & = = & = ; = * * > 4 4 > > 4 > > > > * * > > > , > * * > > , > * * , > 6 4 > 4 8 > & > > 2 4 6 * 9 x W ! F ! %.! / ! W F X.%.,.W M J } / R F R b e % , > 6 > > > < 4 > = < = > < < > > = , e D / } R ! R R R ( ) $.#.=.#.#.#.$.$.} ( } #.#.} } [ [ [ [ [ } [ [ ;.OXw.( $.[ ( [ [ } ( } #.<.#.{ { ( { { ) 1.U.'.P.R.{.R.'.P.{.).,.#.-.#.U.oX>.2._.).D.Y.G.G.G.Y.Y.Y.G.G.G./.P.R.P.P.G.G.P./.G.G.G.'.P.'.R.'.Y.R.R.'.Y.R.Y.'.'.Y.Y.'.'.'.'.P.'.R.P.R.G.P.P.P.P.'.P.P.R.].{.{.P.P.P.R.'.G.F.'.P.'.'.{.'.'.R.'.G.R.'.R.'.R.R.R.G.Y.G.Y.'.R.'.'.G.'.R.'.'.'.R.R.R.'.{.'.R.].}.3X5X3X].3X].}.5X5X5X5X3X5X3X5X3X3X}.3X3X}.].].].].].].}.}.5X5X3X3X].}.].}.oX5X3X5X}.}.}.}.}.{.].].].}.}.}.}.}.3X5X3X3X3X1X1X3X3X3X3X3X3X3X1X1X1X1X3X1X6X6X1X4X1X1X3X4X1X1X1X3X1X1X1X3X1X1X3X1X3X3X3X3X3X5X3X3X5X3X5X5X5X5X3X].3X5X1X6XrX4X3X6X5X5X5X5X5X6X3X6XqX6X6X5X3X4X3X3X4X4X4X4X4X9XwXwX9XrX9XwXwXwX9X9X7XwX7X7X9XwX9X9X9X4X4X4X9X9XwXwX9XrX4X9X9XwXwXwXrXrXqXqXqXqXqXqX6X6X3X6X3X6X6X6XqXqX6X6X6XqX6X6X3X6X3X3X3X5X0XqX6X6X6XqX6XqX6X6XqXqX3XrX6X6XqXY.;.-.=.*.b.0X6X3X5XF.D.5X5X3X3X3X3X5Xl.=.B.3X#XqX'.b.M.5.m.5X'.D.m.m.;.%.=.*.,.*.<.m.b.y.c.| R W R | { c , v 9 1 p f a U m = 4 b A ( -.c.4.3.*.,./ x 2 g G f , 4 3 3 > 8 6 > 9 c.k > 4 2 , > 4 * , > * * = > = > * * * > * > > > > 2 = & p %.#.W / 3.( ( ( -.5.-.-.-.=.3.3.4.$./ E S n j 6 , , % < ~ *.4 # * & , & * * > > % % = & & & * & % & * % & & % & & % & & & # % % # * %   G N.M.{ g % e # f <.4.X.G e > o v X.X.{ X.( | X.#.{ ( { ",
"> % * * > = > = < < 4 < < > = = 4 > < ; = = ; = = = 4 < & $ & = > = < & = ; ; = = = ; ; = > < 4 6 > > 2 > 2 2 > > > 2 , , > > , , > > , , , > , 2 4 4 , * > * = 4 * 2 2 > 4 4 * 7 r x E ! R %.5.=.A x v S b ( 4.-.[ } $.3.#.#.E a 6 8 > h 7 > < 4 < 4 > > > > > 2 > 3 , , c W R A } $.) $.[ } ( [ #.=.=.$.=.#.} $.{ #.$.#.[ } [ } [ } [ { | b.;.( [ [ [ [ [ } [ $.*.#.( { { [ { X.,.~.U.XX.X{.{.{.oX'.'. X1.-.-.,.OX`.>.l.T.).G.G.G.G.G.R.Y.Y.G.G.P.'.P.'.'.'.G.'.G.F.G.Y.G.'.G.'.'.'.Y.G.'.'.R.'.'.'.G.R.G.'.].].}.].P.R.'.].R.P.'.'.'.'.P.].P.}.].].P.'.'.{.'.G.P.5X}.R.'.'.'.{.].].P.'.G.R.'.'.'.{.'.'.G.'.'.R.R.R.'.'.'.'.'.'.'.'.'.'.'.'.'.{.R.}.3X5X5X5X}.3X5X5X3X5X3X5X5X5X3X5X}.3X5X3X].].3X3X].].].3X3X3X3X3X3X5X3X}.{.5X5X5XoXoXoX5X}.oX}.}.{.].{.}.].}.}.5X3X3X3X3X3X3X3X3X3X3X3X3X1X1X1X6X1X1X1X1X4X6X4X1X4X4X2X4X1X2X4X1X1X6X3X3X1X1X4X4X3X4X6X6X4X6X4X6X3X3X6X6X4X6X3X3X1X1X1X4X6X6X4X6X6X6X4X6X6XqX6XqX6X6X6X6X6X6X6X6X2X4X2X4XrXwXwXwXwXwXwXtX7X7XwXeX7X7XwXtXwXwX9X9X9X9X4X4X4X7XwXtX9X9XwXwXrXwXwXwXrXrXrXrX6XrXrXqXqX6X6XqX6XqXqXHX6XqX6XrXqX6X6XqX4X6XqXHXP.5XqXqX6XqXqXqXqXrXJXF.p.JX6XqXqXY.&.*.-.,.c.D.3XJX5Xr.2.oX5X3X5X5X}.oXc.4.M.5X1X1XY.c.M.<.>.5X'.x.1.*.*.-.=.-.#.*.,.r.w.r.1.X.D T #.l.@.! r e f j r x r 2 7 m E -.( ! F R I =.4.6.4.<.-.M.~.S , 6 6 > , 8 8 8 r 4 > 7 6 6 > 4 > 4 > 4 , , > 2 > 2 > * * > > > > 4 2 * = > = 4 ] ~.3.=.4.5.5.3.=.3.-.3.-.-.3.4.3.4.M.H O 6 r p f ] c.~ # & > = * = * > % & % % % * & * & & % & * * & & & & & & & & & & % & % & # # % O > E 5.4.c % % , S { =.4.#.X.{ ( ) { X.#.X.X.{ { { #.( ",
", 4 6 * = = < = = 4 < < < * > = = = = & ; = = = = = ; = $ & = = = > = < < < < = = & ; ; = = = 4 > 2 > = > * > > > > > > > , > > > * , > , , , * , > , * > * 2 * * 4 4 > > > > > 2 * * 4 7 6 S ) S 6 , 6 r 6 r N W [ } $.} } =.T , > , J 1.E 7 > < > > < > = 4 > > > > , 3 , e W R / 3./ ( } =.#.=.} R ( <.{ H ( #.} #.} #.[ [ [ [ [ [ [ [ { ( { { [ } ( { { [ #.#.X.{ { #.{ =.{ { #.X.;.:.Y.oXR..XoXF.u.m.;.=.$.%.OXb.*.l.z.D.G.F.G.G.G.G.G.G.Y.'.G.P.R.Y.F.Y.Y.G.G.G.Y.'.G.G.R.'.G.Y.G.R.'.R.P.R.R.R.P.R.G.P.'.E.].'.P.R.'.R.P./.P.].P.P.].P.].I./.I.'.].P.P.{.'.'.5X{.P.'.'.R.'.{.R.}.JX].G.G.'.P.'.{.R.'.R.P.'.P.P.P.R.'.{.R.'.'.'.P.R.P.'.'.'.'.'.R.].}.}.}.].].}.3X5X3X5X3X3X3X3X3X6X6X3X1X3X3X3X3X3X3X3X3X3X3X3XqXHX}.].'.'..X.XoXoX{.oXoX}.5X5XoX5XoX5X}.}.}.}.3X3X].3X}.}.}.}.3X3X1X1X1X3X1X1X3X1X1X4X2X4X4X4X1X2X2X2X2X4X2X4X2X1X6X3X1X1X1X4X4X4X3X4X6X6X4X4X3X4X3X3X4X6X1X1X3X6X4X6X3X4X4X4X4X4X2X2X4X4X4X4X6X6X4X6X6X6X6X6X6X6X4X4X4X6X9XrXwXtXwXwXwXwX7XwXwXeX7XwXwXwX7XwXwXwXwX9X9XwX7XwXeXwX7X7X7XwX9XrXrXrX4X9X4X6X6XqX6XqXqX6XqX0XG.D.0XqX6X6X6XqX1X4XqX3X6X5X0.R.qX6XqX6X6XqX3X].HXD.0.JXqX1X4X5XB.<.#.<.1.o.u.qX'.<.<.b.].3X].3XD.U.c.$.4.'.I.P.0.1.5.$.%.oXG.;.5.<.*.<.#.#.#.*.X.%.>.1.;.l.<.R e ! M.M.*.W N v 2 9 r x v W S c g x g e A 4.5.4.4.N.M.%.z 4 8 4 , p e r , 4 N > e 8 6 4 4 > , 2 > , 2 4 , , > , , 6 < * > > > > > > 8 4 % > & J 5.-.=.3.$.3.=.3.3.=.3.3.$.-.#.=.-.( R -.4.5.M.N.F O 4 > & * & * = & * * & * % & * = % % & * # & & & # & % % & & # # # # % & # # & % O # , { M.~ f & J #.W ( X.#.#.#.X.#.) { X...{ { ( ( [ ",
"> 9 M 9 * = < = < = < 4 4 < < = = j 9 = ; = = = ; = < = & = = = = > < 4 4 = = = = = ; ; = = > 6 4 = = > < > > > > > > > > , , > > , > > > , * , > * , 2 4 > 4 = > > > > 4 * > 2 > , > = > & = > > 2 6 8 e 3 6 6 j ( -.$.$.=.} D g I { 4.,.I 6 > 4 > 4 > < > > > 2 , > 2 4 > > e g e / 3.( D S G T j > e b p 4 E =.#.} #.#.#.} [ [ [ [ [ } { [ [ } } } { [ { { #.#.#.{ } =.#.{ { } ( #.{ ..D.oX'.oXR.G.m.m.%.-.=.#.c.>.<.c.,.m.).G.G.).G.G.G.Y.R.'.G.R.'.Y.v.U.Y.G.G.G.'.'.G.P.G.'.Y.G.G.'.].'.P.{.R.R.'.{.R.'.'.}.}.R.P.].].{.].].].].].].P.].].].P.].].].P.].R./.P.].'.P.'.].'.{.{.{.'.5X].P.R.'.R.R.R.P.'.'.'.].].{.P.'.'.R.'.{.'.P.}.JX3X'.'.'.'.].'.].P.].'.R.'.].].}.5X5X5X5X3X3X3X5X3X1X3X3X3X3X3X3X3X3X3X3X3X3X3X3X].'.{.'.G.G.'.5XoX5XoX}.{.{.}.5X5XoX}.5X}.}.].3X}.5X}.]./.].}.3X].1X3X3X3X6X4X6X4X4X6X4X4X2X2X4X4X2X2X1X1X4X2X6X6X6X2X2X1X4X4X6X4X6X4X4X4X4X6X4X4X4X6X4X4X4X4X6X6X6X6X4X4X4X4X4X4X6X4X4X4X2X2X2X2X6X4X6X6X4X4XqX6X6X4X6X6X4X9XwXwXwXwXtXwXwX7XwX7XtXeX7XwXwXwXtXwXwXwXtXtXtXtXtXwXwXwXtXwXwXwXwX9XrXrXrXqXrXqXrXqX6XqX'.y.r.oXJXqXqX6XqX6X4XqXqXHXXXr.U.HX4XqX6X6XHXn.b.LX`.o.'.qX4XqXHXU.<.=.<.5.*.w.5XXXl.5.l.oX}./.oXm.c.-.=.-.c.I.(.1.<.-.=.%.XXU.*.<.<.-.-.*.#.#.=.#.;.1.2.>.,.,.5.{ J c U Q G 7 4 > 4 e f e 7 e x m x g R =.5.4.c.M.*.x 3 , r 6 = z I 1 6 > N v 8 r 4 = = > 4 > > > 4 , > * , > > , M f * > > 4 4 2 < G W 4 4 4 , R ( } 3.=.=.3.3.3.3.-.-.=.=.-.-.=.5.6.M.5.M.#.g = 4 > > % * * < = * = * * > & * % * * * & # 9 = # & & & # % & & % # # & # # % & # % & * o * M { G # j =.( [ [ { ( { { X.{ { { ..{ X.{ ( { ",
", % 6 4 = > = = = = < < 4 < = = x ! j & = ; = = = = ; = = = * = & = < = = & = & = = & ; r $ & = = * = = > = > * > > > > > > > * > > * > , * , * = * > , > 2 * > * = = = = = > = * = > * = 2 > , 2 2 6 > 3 8 s 6 , E $.( } #.=.=.,.4.c.( k = * > > > * > > > > > > > > * > , > * > O , k f % , , 4 > p 4 > < x { } { #.{ { $.} { ( [ [ [ [ [ [ ( [ [ { { } { [ { { [ #.{ { #.#.4.5.<.-.*.c.U.G.'.oXF.m.XXOX,.#.=.=.c.,.*.<.<.>.m.G.G.G.G.G.G.Y.G.G.P.P.'.m.o.m.Y.F.D.R.G.Y.P.P.G.G.G.'.G.G.oX5X'.P.P.'.R.'.'.R.P.{.}.R.P.].R.].}.P.].].P./.P.].I.].R.].P.P.'.P.P.P.P.P.P.].R.'.].].].].P.I.].}.R.R.'.'.R.'.P.].].R.].].].R.R.'.R.'.'.].qXIXJXP.'.{.R.'.{.{.].].].{.].].R.{.].}.5X5X3X3X3X1X1X1X1X1X1X1X1X3X3X1X3X3X3X3X3X].].}.]..X'.R..X5X3X}.}.oX{.}.].{.5X}.].}.3X}.].].}.3X}.].P.].].].].].].].5X6X6X6X3X4X6X6X4X4X4X4X6X2X1X2X1X1X1X1X4X2X2X4X4X4X6X4X2X4X4X4X6X4X4X4X4X4X2X4X4X4X2X4X4X4X4X4X4X4X4X4X4X4X4X4X4X4X2X4X4X4X4X4X4XrX4X4X4X4X4X4X4X4X4X4XrXwX9XwX7XwXrXtXtX7X7XwX7X7X7X7X7XwX7X7XeXtXwXwX7XwXwX7XwXwX4XrXrX0X5XqXqX6XrXqXqXqX5Xu.m.;.q.JX3XqX6X6X3X6X1X3XHXD.>.m.5X6X1X6X3X0X:.%.m.>.( x.3XP.D.c.X.#.=.-.#.;.D. Xb.4.=.5.).E.P.Y.l.<.} 3.} ,./.G.>.=.=.=.#.l.1.*.-.,.*.%.*.-.%.#.*.;.;.1.4.<.;.X./ ! S x , 6 > = 6 4 , 4 9 r e r t ] <.c.4.-.3.-.n 3 e a e 6 # M ] & 6 O k ~ , p < t *.x # 4 = > , , , * , 2 , , , v < , 4 4 = 2 6 < < N ! e z =.=.-.W / #.=.$.$.$.=.$.=.=.$.$.=.$.3.[ W S r , > > 4 = = * * * > = % % * & * * % & * % * * . ;.m . = $ % % # % % % & # % # # # # & & # # & * . o o % O z / [ ( 3.$.#.[ $.#.=.{ #.{ ( E W G ",
"H e e , = * > 4 = 4 4 > < 7 j N I j 4 = < = = = = < < = = = = = = = 4 = = = = = = = = = 9 v j = 2 * 4 * > 2 > , > 2 4 * > > > > > > > * * , > , , , 2 2 2 2 1 > * j m < > > < > > * * * > = > 2 6 , 4 4 3 8 r s a W =.=.$.} =.=.4./ M , > > 4 > 2 > > > > > > < > > > > > > 6 2 , , , # * < 6 , 9 7 > a H W } #.#.} #.#.#.{ } } [ [ } [ [ } [ [ { [ } { #.{ { #.} { #.} #.{ #.<.4.*.{ -.5.b.G.5XOXw.%.;.>.%.=.=.=.N.5.#.<.4.:.m.G.G.G.G.R.R.R.G.P.P.P.'.b.{ l.U.G.G.'.P.P.'.'.G.G.R.'.G.G.'.{.G.A.G.{.R.].{.].R.'.R.'.R.].'.].].].0XJXP.P.].].].].].].I.'.P.I.3XqX].}.].}.].].].].R.].}.3X3X3X}.].].].'.'.'.{.R.}.].].'.R.'.{.'.].].5XPXIXPX].].'.{.{.'.{.].'.].{.].].{.{.].{.].].3X5X3X3X3X3X1X1X3X1X1X1X3X3X3X3X3X4X3X3X3X5X3X5X5X5X5X3X3X3X5X5X3X3X].}.}.].].3X3X3X].}.].3X3X].}.}.].].].]./.].].3X1X3X3X3X1X3X3X6X4X6X6X4X6X4X2X2X2X4X2X2X2X4X4X4X2X4X4X4X4X4XrX4X4X4X4X4X4X4X4X4X4X4X4X9X4X4X4X4X4X9X9XrX4X9X4X4X4X9XrXrX9XrX9XrX9XrX4X2X4X4XqXrX4X9XrXrXwXwXwXtX5X3XtXwXeXwX7XwX7XwXwXeXwXwXwXwXwXwXtXtXwXeXtXtXrXrXHXD.u.HXJXqXqXqX6XJX0Xn.c.X.>.HX3XqX6X6X6XqX3X3XHXb.1.c.Y.6X3XqX1X}.m.c.l.4.-.XXLXm.X.*.=.=.=.4.=.*.y.:.o.2.-.=.w.'.5Xb.<.5.=.3.=.,.u.q.%.=.=.=.#.*.%.-.-.,.*.*.*.-.*.*.-.*.<.%.F F -.4./ c , r j f = 4 4 5 6 4 j z n { <.4.} #.-.3.4.{ s e s 3 z ! T ] r = 2 8 J > w 3 h c.OXN # > > 6 > > * , , 2 > > , M 4 % 8 r 4 = # 8 1 = r z e I I E R [ } 4.3.4.3.4.3.3.$.$.3.3.W x , % # , * 2 = * , * * = & = % % = > = * * & * * & = & % # # * & & & & % # % & & & # & & # % & & % % & & & * & * # # # > 3 f j s > 7 9 p 8 8 > > & = . ",
"D n S M 8 % , * > * > 7 x S E m 9 * = = = = > = = = = = = = = = & = = = = * < = * = = = $ 7 E N > & & & = = > = > , > > > * , , , * * * , * , * * , , > 2 * > > & f m < = = 4 > = > > = * * > * > 4 > 2 6 3 e 4 6 t J J { #.$.I f , > 4 4 > > > > * > > = * > 4 > * = * * = 4 * , = > * 2 = * , = e a { 3.=.#.{ } } #.#.#.} } [ [ [ [ [ [ { [ [ [ [ { { ( { } { } [ [ } } [ [ #.{ { =.[ $.m.G.'.Y.1.-.*.#.#.=.} $.4.*.#.-.#.;.).oXG.F.G.G.G.R.P.P.G.P.Y.,.[ =.B.G.G.G.P.R.P.P.G.'.G.R.R.P.G.P.F.F.F.'.'.].P.R.G.P.P.R.R.P.'.].'.P.6XHXP.].].].1X}.I.].].].P./.3X3X(./.].I.(.I.P.I.].}.].].(.3X}.].I.I.].{.].P.].].]./.E.}.R.].{.}.].].rXPX3XI.].].'.].{.'.].{.].].'.'.].].oX{.].].].].].}.}.1X3X3X1X1X1X1X1X1X3X4X1X3X1X3X1X1X3X3X3X3X3X3X1X3X3X3X3X3X3X3X3X5X3X1X3X3X3X1X3X1X1X3X1X3X3X3X1X1X].].].].].3X3X3X4X6X3X1X3X3X1X1X6X2X6X4X2X2X#X2X2X2X2X2X2X4X4X4X9X9X4XrX4X4X4X9X9X9X4X4X4X4X4X4X4X4X4X4X9X9X9X4X9X9X4X4X9X9X7X9X9XrX7X9XwX9X9XrX4X4X4X9XrXrX2X9XwX9XtXJX:.:.qXtX7XwX7XwX7XwXwXwXwXwX7XwXwXtXeXeXtXtXwXwXrX5Xm.<.*.F.qXqX6XqXHXoXD.).>.#.| D.5X}.3X6X1X3X1X0XU.*.<.5.w.{.1X(.5XY.c.5.$.=.#.l.).x.*.-.=.-.#.#.=.#.>.c.,.-.$.=.#.n.'.>.<.6.=.} =.c.'.c.#.=.$.$.=.*.#.*.*.*.-.-.#.*.*.*.%.%.-.( d e g W <.#.A z 8 > 8 8 > < < 2 R 5.4.4.X.E d / -.-.-.4.-.-.! D X.) v 2 % z , W a # * x N.l.v = , > , > 2 , * 2 , * , > % f I > % 4 j x 2 & * p % 8 3 , , , > s e S W ( ! ! H v e r j p = % * , * , * # * = # * # % * * % * & = * * = * # * % # & > & * & & % & % % # & % % # & & & & & # # & & # # & * % * & % o % o o o o o # o o # # # * o $ $ ",
"3 3 e a b z r r g g b F W J j > * > > = > = = = 4 = = = = = > = = = < = = = > = > = = = > # = 9 r h r r 7 = > > 4 , > * > > 1 * > , * , > * * , > > > , , > 2 > > * * * > > 4 > > = 4 < 4 = 4 4 4 4 7 4 8 8 8 > 1 1 , % e a > % 4 4 4 > 4 = > 4 < < > > = > 2 4 > * * * 4 6 7 6 6 , 2 2 6 * # % g r ( M.} ( #.#.=.} { / ( { ( { } { } [ { [ } [ { ( ( / / { #.} #.{ { { } } } { =.} #.} 1. X).JXm.X.-.=.#.=.=.#.#.#.%.*.4.=.*.D.G.0.F.'.'.G.R.'.R.P.P.m.X.[ =.N.Y.P.'.P.'.P.P.P.'.P.P./.P.P.'.P.'.F.'.].].].].].].R.'.R.'.R.{././.P.I./.3X1X1X1X].].].].].I.I.I.I./.].].(.rXJX(.].}.3X1X3X1X3X3X3X].].}.].].].].].(.1X].3X].].3X3X]./.(.1X/.].].}.].{.{.].].}.].].{.].].}.].{.}.}.].].].].I.].].1X3X3X3X3X1X3X1X3X3X1X4X4X3X3X1X1X1X4X3X6X3X6X6X6X3X3X3X3X1X6X3X6X4X6X3X3X1X1X3X3X3X3X1X1X1X1X3X3X1X1X3X6X4X6X6X6X3X3X1X1X1X1X#X4X4X4X4X2X2X2X4X4X4X2X4X9X4X4X9X9X9XrXrX9X9X4X4X4X4X9X9X9X4X4X9X4X4X9X9XwX9X4X4X9X9X9X9X9X7XwXwXwXwXwXwXwX9X9XwXwX9XrX9XrX4XrXwXwXtXR.X.=.oXwX7XeX9XwXeXeXwXwXeXeXwXwXeXtXtXtXtXeXwXwXrXF.%.-.=.;.oXJXqXrX5Xu. .r.1.*.X.Y.'.i.5XqX1X3X5XoXx.,.5.c.1.Y.].]..X1.#.} $.3.} X.>.w.*.-.#.=.-.-.%.#.<.M.*.#.$.3.*.v.D.&.<.5.#.=.$.1.m.>.#.=.=.#.=.-.=.*.=.%.-.-.*.-.-.*.#.*.%.*.] D b p , N ! ( I F G N r 7 7 U *.E N N r H X.3.=.,.-.4.,.4.,.4.{ , % 3 { I g k . 4 ] M.~ 6 * > , 2 , > 2 > > 2 > > , 2 , , T W 6 2 & k T J b H D x w e e e 8 3 , , # % % % # % % * o # * * * * & * * * = > > > = = > = = % * > * * * = * > * > = = = * % * & = % # % & % % & * & # % # % & # & & % # & * & # & & = * * % % # & # # * & # # ; h . ",
"S w w 3 s a A H T W E F n r , * > = = * = = = ; = = & & = = = = = = = = = = = = > > = & & * = # > G ! U S 7 > = = 6 f 4 = > > > > > > * , > > > > > > , > > , > > > > > > * * 7 7 = = > > 4 = 6 7 > 2 4 8 8 7 j U h % 8 7 v j 6 1 ; = * = < < = > > > > 4 4 6 , * * > * 2 4 4 6 6 > , , > g [ { =.F L #.#.( } #.=.=.#.{ [ { #.{ } $.[ ( [ [ { { [ ( { ( { ( { #.{ [ { { [ $.=.} #.} [ =.M.y.q.HXm.*.=.$.=.#.} #.#.,.2.*.#.=.X.;.y.+.m.'.Y.R.R.G.P.'.G.b.M.5.} c.).G.R.P.R.P.P.P.P.P./.P.P.P./.P.G.P.].P.].}.3X5X5X].P.P.'.R.R.].]./.}.].].].3XI././.].].].].].].].].}.].I.qXrX(.].].].].1X1X3X].].]./.].].(.1X6X1XI.].3X].1X3X].].].].].].].}.].].].].].].].].}.}.].].'.].].].].].].}.}.}.].].]./.].].].].3X}.3X3X3X3X1X1X4X4X1X1X1X1X1X4X6X1X4X3X3X4X1X1X4X3X4X6X4X3X4X1X1X1X1X1X1X1X1X1X1X1X1X3X4X4X1X4X6X6X4X4X4X3X1X6X3X1X1X1X4X2X1X2X1X1X2X9X4X4X4X4X9X9X2X4X9X4X9XrX9X7X4X7X4X4X4X9X9X9X7X9X7X7X7X9X7X7X4X9X9X9X7X9XwXwX9XrX9XwXwX9X9XwXwXwXwX9X4X9XrX7X4XrXJXm.} =.n.9X7X7X7XwXwXwXwXwX7X7XwXeXeXeXtXtXwXeXyXtXrX`.=.} =.X.).qX3XqXHXoX1.%.$.-.<.XXm.:.'.6X3X5X0.:.<.5.<.<.M.m.D.].'.;.$.4.$.$.-.=.1.b.%.#.*.*.-.4.$.*.#.*.#.#.=.#.$.x.n.:.$.#.#.=.} #.o.X.=.=.#.*.#.=.=.#.#.=.#.%.*.-.%.#.#.*.$.*.=.! { W e 9 = 4 f v a p 9 9 1 f v e w ! #.=.-.4.#.-.=.-.=.-.-.=.*.W R / 5.Q *.m ~ M.5.N # * , 2 , , > > , > * , > > * , , , 2 [ } H e 2 > v [ 3.} } / c 3 w 3 3 8 6 2 2 , 2 , > > = = > * * # % * * = * & * > * & * = * % % % % * % & * * * * * % * % & % & & # % & # % & # # & # # # # # # % & # # # & & # # # & # * & # * # # # $ # $ # o 5 j   ",
"( W L L R R W T L b a 3 , * > = < = < = = ; < = < = = = = = < = = = = = = = < = = = = = = = = * = 4 j j E F k 9 j m E M > , 4 * > > > , , , , * = = * > 2 > > , > > 4 > 2 > > 4 7 1 7 7 4 > < 7 6 4 > , 6 > , e U m e 6 a ~ ,.E > = > = = > > > > > 4 > > * > * = > 2 = , * 2 * , > 6 2 3 > N ( ! } } { ( ( =.=.=.=.=.#.=.#.=.} #.[ [ [ $.{ { [ { { #.#.=.X.=.#.X.} #.#.=.=.=.} { X.=.#.*.o. .u.0.*.=.=.=.=.=.#.#.5.2.,.<.*.-.,.x.x.m.'.'.R.'.P.G.D.G.;.%.#.} M.).G.'.'.P.'.].P./.P.'.P.P.].].P.R.}.].].].].3X].].R.].].{.'.{.'.'.{.}.].].].1X1X].].3X(.].(.1X1X1X].3X1X1X1X#XI.1X3X3X(.1X(.].1X3X].]./.1X1X1X1X(.1X1X/.3X3X1X1X].1X1X].].].3X].].].}.].].].].].}.].}.}.].}.}.].}.}.}.].}.}.3X].].].}.I.].P.P.I.}.3X3X3X3X1X4X4X6X1X6X4X4X1X1X1X4X4X6X4X4X6X6X2X1X4X6X2X4X1X1X1X2X2X1X1X1X2X4X4X4X4X6X2X2X2X4X4X4X4X6X4X4X4X6X1X2X2X2X1X2X2X1X2X2X4XrX4X9XrX9X4X4X4XrX9XwX9XwX7XwX7XwX7XwX7X9X7X9X7X7X7X7XwX9X7XwXwX9X9X7XwXwX7X4X4XwXwX9X9XwXwXrX9XrX9XrXrXrX7XrX5Xc.-.<.x.qX7X7XwXeX7XwXeXeX7XwX7XeXeXtXtXtXtXtXrXrX5Xw.$.$.=.=.m.HXqXqXn.+.X.=.#.=.{ ;.,.:.D.qX1XF.>.4.<.5.-.-.<.l.q.{.oXN.,.4.=.-.-.*.c.T.,.#.-.=.#.=.*.=.*.=.#.=.$.=.=.r.m.l.#.=.[ #.=.=.#.=.#.=.=.-.%.*.=.#.*.=.*.-.*.-.#.#.*.*.%.=.=.#.v x x 7 7 r 7 7 , 2 2 4 1 > 4 e e c E ( / #.-.-.=.-.-.-.=.-.,.<.-.{ ( M.5.P ~ I = % = 4 , > > 2 > > > 2 * > 4 > % , 2 2 % 8 [ 3.] T j s r } } } 4.$.e 3 w e e 6 3 2 , 2 > * & * = = & * % % * * * = * = # # * > = = % & % % % * % * * * % # % = & * & * % % & & # & * # # & & & # # & & & # # & & & & = # & & & # & & & # # # # # $ * & % . ; ",
"a J L D D b c r 6 , * * * * > * * = = = = = = = = = = * = = 4 = = = = = = = = = = = = * & & & & > = 4 = 1 9 m I E N x j > * > > > * , * * * * * * = , , , > > > 2 > > > > > 4 * > < 6 9 4 = < = 9 G G f 7 9 N v e I ~ n , > 9 7 = = = * = * > > > = > = = * * = > * * = > > > * e 7 6 > 4 , , ! #.#.-.#.-.#.=.=.=.#.=.#.#.#.{ } { ( [ ( { #.[ [ { [ [ =.{ X.#.X.{ { #.#.#.=.{ { #.X.#.#.} #.o.0Xt.] =.#.#.=.=.} #.,.;.;.,.*.-.X.1.c.:.n.'.G.'.R.'.'.U.X.( [ #.X.m.'.P.P.].P.P.]./.P.P.P.P.P./.].'.P.].P.].E.I.].].E.}.].].].R.].].].].].(.6X6X1X3X].].3X1X#X1X].].1X].1X6X6X3X1X3X1X1X1X(.I.1X].].1X].(./.1X3X#X#XI.#X].(.1X1X(.1X(.].1X1X].].1X1X1X3X].].(.].].].].3X].].].}.3X}.].].].}.].}.}.}.].].}.].P.P.P.].].].].I.I.].1X4X4X6X4X2X1X1X1X4X2X2X4X4X4X2X#X2X2X2X2X1X2X1X2X2X1X2X#X1X1X2X4X4X2X2X2X2X2X2X2X4X4X4X2X4X4X6X2X1X1X2X1X2X2X2X#X4X2X4X9XrX9X9X4X4X4X9X4X2X4X9XeXeXwXeXwX7X7X7X7X7X7X7X7XwX7X7XwX7X7XwX7X9X7XwX7X7X7X9X9X9X9X9XrX7X7XrX9X9X7X7XrX6X:.{ $.[ ,.G.1XwX7X7X7XwX7XwXtXtXtXeXeXtXwXwXrXrXd.s.D.o.$.=.} #.;.HXrX].u.c.-.5.$.$.=.#.#.<.+.R.JXJXB.,.$.=.=.-.#.;.:.F.w.1.,.#.$.=.#.#.1.c.*.#.%.=.$.=.#.#.=.#.#.=.} #.-.%.,.;.%.} } #.$.=.#.=.#.} =.#.*.*.#.*.#.*.,.,.*.%.#.*.#.%.*.#.#.=.R b c I %.! f 6 6 7 > 7 7 4 j W x c #.5.4.4.=.-.-.-.=.=.=.=...*.-.c.4.=.j & . # , 4 > > > , , > , , 4 > , 4 > = * , * , , * > W 3.=.} } / } $.} / =.$.d , 3 , 3 2 4 2 = = > & * % = = % % * % * * = = * & * # % * * # % % % % % & # * * * * = % * = & = # % % # & * # # # & # # & & = & # # # & # # & & # # # & # # & $ % & # # # $ # $ = . m ",
"> % , , , , , = * * * * = & ; ; = = = = = & < < < = < = = = = * = = = = = = > > = = < = = & & & = < > * & & * = 4 = $ & = > 1 > > > > > , > , > 2 > > > > * > 2 > > > > 4 > 4 4 2 * = = = 4 6 > 7 x x 9 4 r W S r R #.S = > = & < = > = = = > > > > = = 4 > * > 2 = , > 6 2 = f 5.E , N ! I R { =.#.#.#.=.*.%.%.=.=.=.$.{ ( [ [ [ } } ( #.=.{ { #.{ } } { ( { { } } #.} X.#.#.} #.#.#.#.#.#.o.GXr.{ =.=.=.#.#.=.#.*.M.5.*.*.,.-.,.;.o.v.'.G.m.:.w.m.>.*.5.=.=.{ m.'.'.R.]./.]./.].P././.]./.}.P.G.F.].].}./.].].].}.3X}.}.].].].].].}.1X6X2X3X1X1X1X1XJXyX9XrX1X].].3X3X3X3X3X3X3X1X6X4X(.#X3X1X1X1X1X1X#X1X4X1X#X#X1X1X1X1X1X1X1X1X1X1X1X1X1X1X3X1X1X1X3X(.].].].].3X1X3X].].].].].P.].3X3X].].].].].].].].]./.].I.].]./.I.]./.1X1X6X4X4X2X2X4X4X2X6X4X4X2X#X2X4X2X4X2X6X2X2X2X4X2X2X2X2X2X2X#X2X2X2X4X4X2X4X4X4X1X1X6X6X4X4X2X2X2X4X2X6X2X2X2X9X4X4X4X4X4XrX9XtXwXrX2X6X1X4X9XwX7X9X4X4X4X9XwXeXeXtX7XwX7X9XwX7XwXwX7XwX9X7XwXwX7X7XwXwX7X9X9X9X7XwX7XwXwX7XrX]. .#.#.} =.&.s.rX9X9X9XeX7X%XK.A.P.qXyXrXtXtXrXrX].].{.<.=.=.=.-.*.F.A.'.D.M.#.#.#.=.=.=.=.5.;.D.1Xy.o.=.=.-.=.-.-.*.c._.{ #.#.=.=.=.=.=.%.%.#.-.-.=.=.=.=.=.} =.#.=.$.#.-.=.#.=.*.$.#.=.} -.=.=.#.$.#.#.-.#.-.-.#.#.*.%.*.*.*.=.%.%.*.*.%.%.#.*.R M j 7 > e 7 4 4 7 7 4 g I v h e x ! =.-.3.=.-.=.=.=.5.=.=.( E r , , 6 2 2 2 4 * , > 2 > 4 , > 4 > % > = * = 2 & = > > % , z [ #.=.=.=.[ #.} =.3.4.( L c s , > 2 > * > = & % * = = * = & * * > > * & = % > 4 = % % * = & & % * * * = = * > > = % & & & % % & & # # & & # & & & # % & & & & $ = = & # # & & # & $ & & & # & * # $ & . . m ",
"= * 2 > > > = * = & % & = & = = & = = & = = & < = = = = * & & # & < = * > > > > > = = = = & = # & * # & = = * # & & 4 = 4 > = = > > , > > * > > > > > = > * > > > > > > > 2 2 = = = = * = & = > # o . # & # M X.{ #.W z 8 9 6 < 4 = & = = = = > < = * * > * % * > > > , , * > & F 4.W E ( ( { X.X.#.$.#.$.#.%.$.=.#.#.#.} [ } } #.{ } [ #.=.{ [ } #.#.#.{ #.#.#.#.{ { #.#.X.#.X.{ #.#.[ #.#.#...X.#.$.#.$.#.=.#.$.#.,.,.*.*.*.*.<.%.*.o.G..Xm.%.%. .o.X.*.#.{ <.;.x.oXI.P.P.]./.I.P./.'.'./.P.P.G.G.].I.].].].].3X].].1X3X].]././.].3XI.1X1X(.1X3X].I.rX4X4XJX1X/.].].3X3X].1X1X1X1X1X6X1X1X3X4X4X1X1X(.1X3X1X1XrX9X1X#X1X(.1X4X1X1X1X#X1X1X1X#X#X#X1X2X2X1X1X(.1X].(.1X1X].(.(.3X].].P.].3X].I.].I.].]./.].]././.].1X(.].I.I.].].(.1X1X1X1X3X4X4X4X4X2X4X2X2X1X4X4X4X2X2X2X2X2X2X2X2X2X2X2X2X#X2X2X2X$X2X4X4X2X4X2X1X2X4X4X2X2X4X2X2X2X2X2X4X2X2X9X9X4X2X2X4XrXtXJXrX1X3X3X4X2X4X4X2X2X4X4X2X4XtXeXeX7X7X7X7X7XwX7X9X7X7X7XwXwXwXwXeX9X7X7X9X7XrX9X7X9XwX7X7X4X5Xc.} [ #.( X.v.#X$XrX4X6X$XrXn.;.y.p.(.rX7XrX4XG.D.v.v.,.$.-.-.=.*.x.D.>.*.} =.=.=.=.} =.=.#.X.F.0Xv.*.3.-.=.=.-.*.-.1.N.*.=.=.#.} =.=.=.#.$.=.=.#.-.$.#.#.=.#.#.#.#.$.=.#.#.#.$.#.=.$.#.=.=.=.#.#.=.#.#.#.#.#.*.#.#.#.=.#.*.#.*.*.*.#.%.%.%.#.X.X.S w F M 4 , 7 7 4 7 8 6 1 $ ; = 9 e ! #.$.=.=.=.4.$.( L a % , , > 2 6 2 2 > > 2 4 , * 2 > * > = , * = & * & * * = = * > , O , b } ( } 5.} R [ [ =.4.M.M.4.( a % 2 > * % * & = = = & & % = * > = * % % * = > & & & % = & & & = * * % = * = = = % & & & % # % % # % # & & % # # # # & & & & & = = $ # & # # # # & # # # # # # . :.`.m o m ",
"= = * * 2 * 4 & & & & & = ; = = & = ; = = = = & = = ; = & & * % # & > = > = = = = = < = * & $ * & & * & = & = = ; & = & = 4 < > 4 > > > > > > > > * = 4 * = 4 > > 1 > > 1 2 > = = = > = = = > & j E U v v h S T E W G e > 7 4 = > > > = ; = < > = = 4 4 < = * * > , > * , , 2 , 3 T #.=.) R ( X.*.#.$.#.=.#.#.#.=.$.#.#.$.#.#.{ $.#.$.#.) #.#.#.#.{ #.#.#.X.#.#.#.#.#.#.#.#.*.#.#.#.#.#.#.#.*.#.#.#.=.#.#.#.=.#.=.#.*.#.*.-.,.%.X.#.;.| Y.HX'.r.;.&.l.*.$.-.#.-.%.~ n.].]./.].(.(.].'.A.F.}.I./.].].3X].].].3X3X3X1X3X1X1X].(.(.1X(.(.I./.1X3X1X3X1X1X1X#X#XJX1X].].].].].1X3X1X3X1X6X6X#X^.(.I.I.#X2X1X1X1X4X4X4X#X#X#X3X1X1X1X1X#X#X1X1X1X2X1X1X2XrX9X4X2X2X2X1X#X1X#X1X1X1X(.].}.}.I.].3X(.].].].1X].1X(.].].].].1X].1X]./.].].].].].1X(.].(.1X1X1X1X2X4X6X2X6X4X6X1X1X2X4X2X2X4X2X1X2X2X2X2X4X2X4X4X4X2X4X2X2X2X4X1X4X4X4X4X4X4X4X2X4X4X4X4XrX9XwX9X9X4X9X9XJXKXrX3X3X6X6X4X6X4X4X4X6X4X4X4XyXNXwX7X7X9XwX7XtX7XwX9X7XwXeXwXwX7XwX7XwXwXwX7XwXwX7X7XwX7XwX4X1Xb.} #.=.#.c.P.6X6X}.}.G.2XqXu.>.m.1.p.3X1X4XG.:.,.1.*.-.-.-.=.-.*.m.OX%.$.=.=.-.=.=.=.#.=.-.*.D.{.N.,.=.=.-.=.-.-.4.#.%.,.=.#.=.=.=.#.=.=.=.=.-.$.*.*.-.-.=.=.=.#.=.=.=.#.} $.=.=.=.=.$.=.=.#.#.=.-.*.#.%.-.*.-.*.#.=.-.=.-.%.#.*.*.%.%.%.,.%...c.1.W >.M.G 6 9 7 9 7 9 h { #.5.4.6.W H / =.=.=.=.W c w 3 3 , , 2 6 2 > > 6 2 > 4 4 > > 6 4 * > , > * < = > * > > > * * = = * * % 2 4 a =.M.} D W =./ W S b -.4., , = > * * * & . # % = = > * , * > * * * & # * & * & & & * & = = % & * * > = & * * & * & & & & & & & # # & % % # & # & & = $ & $ & & = & & & & # * # $ $ * & .  .LXOXI ! ",
"* = > > & * = = & & = $ = 4 < & = & = ; ; = & = = = = = = & > > % # * * * * * = = * * = & % > & & # & % & = = = = = 4 9 t ; 4 < > 1 > * > > * > * & = > > * = 4 4 > > > < = = = = = = = * = = & f N v 9 9 8 = # % o # , 2 , > 4 > * > = = < 4 = 4 = < 4 = & > * * * * , 2 * , 2 6 , s T #.#.#.{ X.#.#.#.$.#.=.#.=.=.=.#.#.} #.} { $.#.[ #.} { #.$.#.$.{ #.{ { #.X.X.#.X.#.#.#.#.#.{ } } { $.=.$.=.#.} #.=.#.#.=.#.<.-.-.<.%.*.%.,.%.X.o.Y.HXq.x.B.l.;.#.%.#.#.#.*.:.).]./.(.].I.(.].V.0.u.'.(.P.1X1X#X3XS.G.5X1X1X1X1X1X1X(.1X#X#X1X1X1X3X1X1X1X1X1X3X1X1X1X4X1X(.].3X1X4X1X4X1X1X#X1X2XI.#X1X1X1X1X1X#X2X#X1X4X#XW.1X1X1X1X#XI.#X#X#X#X1X#X1X2X4X2X9X4X2X#X4X2X4X2X1X1X#X#X1X1X(.].].].(.#X1XI.(.(.1X1X(.(.].].].(.1X1X].].]./.].].1X3X1X1X].].1X].].1X1X1X3X3X1X4X1X1X2X1X2X4X4X2X2X2X2X2X4X2X$X$X2X4X2X$X2X2X4X2X2X2X2X2X4X4X4X4X4X4X4X2X4X4X4X9X4X4X9X4X4X4XrXrX4X3X6X3X4X4X3X1X4X4X3X6X3X3XJXyX#X1X4X4X4XwXwXwX9X9XwX7XwXwXwXwXwX7XwX7X7XwX9X7XwX7XwX>X7XrX.X>.} } } <.:.P.qXD.y._.0./.q.>.b.w.1.m.n.].3Xs.x.4.5.=.=.=.$.-.<.*.;.B.1.#.-.#.$.#.$.=.=.$.=.,.4.&.;.=.-.=.-.=.-.-.-.=.%.,.<.$.=.=.#.-.-.#.#.$.=.#.=.<.4.<.=.$.=.} } =.=.#.=.#.$.=.#.=.=.=.#.} =.#.*.*.-.#.-.-.*.#.=.#.#.-.*.*.*.#.%.#.*.#.#.-.=.%.( F w.y.m 4 6 7 r 2 , E ,.F X.X.W H A / $.} $.#.s , e e a a r > * > > > > > 4 > > > 2 7 > % 6 6 % # > > > > = * = > > & & = = % % % O 9 U N 3 , 2 O % # o r R , % 2 4 * o . $ Q h # * * , * = * * * * % % # # % % % & & & & & # * & % * = & * % * & & * * & & & & # $ = # # & # # & # & $ = & # & # # & & & & # $ # # # # & % o q m v %.",
"= = > = = = < = = = = = = ; = = = = ; = = & = = ; = = = = = = > > * = * > * = > > * > = = * < < = * = = = = 4 = & l ~ Q c.h > 4 1 > > > > > > > = * = < 6 > > = > > 4 > < > = > 4 = > < = < 4 = $ o # # # # , > 2 > 2 2 6 2 > 4 < > > < 4 = = 4 > * * & = > 4 , , , 2 2 2 2 2 2 2 3 3 , j W *.#.=.=.4.-.-.-.-.*.#.X.#.=.=.=.=.#.$.$.#.#.-.#.} ( $.#.#.#.#.{ X.X.#.X.=.#.#.#.#.*.*.#.#.=.=.-.#.#.#.=.#.=.=.=.=.#.=.=.*.-.,.-.=.*.1.>.5.:.t.t.w.;.1.o.X.#.*.#.=.*.X.r.oX].].(.1X(.(.P.u.w.y.n.1X1X6X4X3X0Xn.n.GX3X1X1X1X1X1X1X2X1X1X1X1X4X6X1X4X1X3X1X1X1X6X#X4X2X1X3X4X4X4X2X2X2X1X#X1X#X#X$X4X2X2X1X1X2X2X#X1X4X4X#X4X1X1X2X1X1X#X#X2X#X1X1X1X#X#X#X#X$X4X$X2X2X9X9X4X$X2X1X4X1X1X(.(.1X1X3X2X1X6X#X#X#X1X1X1X].1X(.1X1X1X].(.1X1X].1X1X].3X3X3X3X].].1X1X].1X1X3X1X1X1X3X1X1X1X1X1X1X2X2X2X2X2X4X4X4X$X2X$X4X4X4X4X2X4X2X2X4X4X9X4X4X2X4X4X4X2X2X#X2X4X9X4X4X4X4X4X4X3X6X4X4X6X3X3X4X6X3X6X0X1X3X1X1X6XqX2X6X2X9X9XrX9XwX9X9XwXwXqXrXwXeX7XwXwXwXrXwX9XwX7X4XA.;.%.<.=.=.*.&.F.m.o.;._.0.{.+.l.N.>.*.<.%.m.].(.B.;.=.=.=.=.=.-.<.-.-.%.<.4.4.-.-.=.=.-.-.=.-.,.1.1.<.<.4.=.=.-.<.=.=.*.-.-.<.-.-.=.=.=.-.-.=.=.#.=.4.=.*.#.=.=.3.#.#.$.=.=.-.=.=.=.=.=.-.#.#.#.-.*.-.-.*.#.*.%.#.*.-.#.*.-.<.4.<.=.%.*.-.#.#.{ *.<.<.D M h 1 8 r 8 r 9 r S f O > 3 e c [ #.$.} $.=.W e e D r p ] *.r = 4 2 > 2 4 > 2 > > 4 4 > 4 1 > N 9 # > > > > > * * * = & * * & & = O o . % # # O # # , O . # % % , 4 k I >.+.f % , , * * > > > = > = % & & # * & = & & & & & = * = = * * * & * * = & & & = & & & 7 < # & $ & # & = # * & & & = & & & & $ $ * = $ * # # & * * % . # 2 ",
"= # o & = = & & = & & = ; & = = = & = = = & = & = = = = = * * * > * * * > = = = * = = = = & = < 4 & = = = & = = = = = O q 4 = < > , > > = * * * > = * > > < > * > * > 4 < = = = = 2 > = > = > = ; > 4 = > , 2 > 6 > 2 > > = > = = = > = = > < & > 4 2 > 4 > > > 2 > > , , , 2 , , 2 , , > = p S ! E T W { I g h j 4 F 4.=.#.$.=.=.#.=.#.#.-.#.{ } #.#.#.{ X.#.X.X.X.} #.#.X.#.#.=.*.#.#.=.*.#.{ =.} =.#.=.-.=.#.*.*.-.*.*.-.-.%.%.<.;.+.n.D.&.*.#.*.#.#.*.#.*.*.X.%.:.t.3X(.(.(.].n.0.x.q.R.qX6X4X4X3X3Xn.w..X3X1X#X1X1X1X2X#X#X1X#X1X1X1X1X1X3X1X1X3X3X3X1X4X1X1X4X4X1X1X2X2X#X1X#X1XI.#X#X#X#X#X1X1X#X#X2X4X#X2X4X#X#X4X#X#XrX4X#X#X#X1X2X2X#X2X#X2X4X4X2X#X$X4X9X4X$X4X2X1X4X4X#X1X(.1X3X#X4XJX4XI.#X1X1X1X1X1X1X1X1X1X(.1X1X1X1X].].3X].1X1X3X3X1X].1X1X1X1X1X1X3X1X1X1X1X].].1X1X1X1X#X#X1X1X4X1X#X1X4X4X2X2X4X4X$X4X$X2X4X9X4X$X2X4X4X4X4X4X2X4X2X4X4X4X2X4X1X6X3X1X4X6X4X6X3X4X1X4XqX3X3X3X1X6X3X4X6X4X1X4X2X4X4X4XrX9XrX].p./.tX7XwXwX7XwXrX4X9X4X%X#Xy.;.%.-.#.-.{ ..m.y.X.l.c.:.n.+.,.,.*.%.*.,.;.A.y.:.,.=.=.-.$.-.-.-.*.<.%.-.#.$.-.-.=.-.=.=.-.-.#.c.B.,.=.-.-.-.=.-.-.<.-.-.#.=.-.=.#.=.#.$.=.-.#.=.=.-.=.#.#.=.#.=.=.$.} =.#.#.=.=.#.=.#.*.=.-.#.#.*.-.#.#.#.-.#.*.%.#.*.*.%.4.! J X.<.#.#.#.<.<.X.~ *.W N e p e 6 > 6 6 f f r N L n W / } } =.=.=.$.3.} [ -.r # = h 4 , > > > > > > 2 > , * 2 * , & & 9 & , > * * * * * = & & * * * & % & # % # % > e 6 6 , 4 > 9 e j 7 1 h | ! k . # * , % * * > > & % # = > # & = = = & % & % & & & = * & & & * & & & & & & & & & * & & # # & & # & $ & & $ # & $ # & & # & & & $ # & # # = % = 2 3 , 3 % ",
"* r F j = = = = = & & $ = = ; & ; = = $ = & = & = = = = = * > > > > > > * * > = > > > = * * = * = = = & = = > = 2 * > > & & < > > > > * > > > > > > 4 * * * 1 4 4 > > > < 4 > = 4 2 4 4 > = & % % % 2 & * = 2 2 > * , * > 4 > > < ; & 4 4 = < > 4 < 4 > 4 > > > , = 2 = 2 2 2 2 > * , 2 2 , > = > > o o j j 4 f f U -.-.=.=.=.#.#.$.#.#.#.X.#.#.#.#.#.#.#.#.#.X.X.#.#.#.#.#.=.#.#.X.{ { #.#.#.#.$.=.=.#.#.#.#.=.*.-.,.-.,.-.-.*.*.*.*.o./.HXo.*.-.*.*.#.*.*.*.*.%.<.x.u.}.#X(.#X].y.1.r.w.Y.4X1X4X6X6X5Xb.r.Y.}.3X1X2X#X4X4X4X2X4X1X4X1X4X2X4X1X1X1X3X1X3X1X4X1X3X4X4X1X1X1X1X1X1X1X1X1X#X#X1X1X2X1X2X#X1X1X4X#X#X2X2X#X4X#X#X$XwX2X#X2X4X2X4X2X#X2X9X9X9X4X2X$X4X%X4X4X4X4X4X4X4X2X2X1X1X2X1X#X4X1X#X1X1X1X1X1X3X1X1X(.#X#X3X1X1X1X(.1X3X1X3X1X1X3X3X1X1X1X1X1X1X1X3X].].].].].].1X3X1X].(.1X(.#X(.(.(.#X1X1X4X4X4X4X4X2X4X4X4X4X$X$X$X4X4X4X4X4X4X9X4X4X4X4X4X4X4X4X4X4X4X6X4XqX6X4X2X4XrX6X1X6X6X6X4X4X6X6X1X4X6XqX4X4X9XrXrXA.0.Y.rX7XeXwXwXrXP.p.P.4X4XG.Y.B.,.*.%.*.*.%.r.r.*.5.1.;.o.<.,.*.%.,.,.,.;.m.o.%.-.<.-.<.-.<.,.*.*.5.4.*.=.-.#.#.=.=.=.-.-.<.*.1.1.*.<.-.-.<.-.,.<.<.-.<.-.=.=.=.-.-.-.4.-.-.=.-.=.<.*.=.=.-.=.=.-.=.$.=.=.=.=.#.=.-.*.-.-.-.*.=.-.-.*.*.=.-.-.-.*.-.-.-.-.*.S > j ! { <.#./ n W T 6 e j k j 2 7 8 r e r r e f n e A / L L } =.} } =.=.4.#.r > 2 = > 2 2 > 4 > > 2 4 > > , 2 * * > > = 1 > > > > * > > 4 > > * > 2 > = * & = # # N b e { 5.X.b W ) [ M r > * . # * > * , , > * * & # # & * = = = # & $ % = = & = = = = = & = * * & 4 4 & & & & * = = # # # & & = = = $ o # & = = = & & % * * & = & & $ = % & # = , 2 2 2 2 ",
"> x N 7 > * > & & t x 4 & & & = = = = = = & & = = = = = = = > > * * * * * = = = = > * = = & = & = = & $ = = = & > = = 4 > = = * > > = > > > > > = = > > & * > > > < 4 > 4 = > = = > f h p ~ ..T S z r 4 4 > > 6 4 9 r 8 2 = > 2 > = 4 ..I & > > > > > > * * > * = * = > = , , , , * , * , 2 6 , 4 v 4 > r h 9 ! -.-.-.#.#.=.#.#.$.=.=.#.#.#.#.#.#.=.#.#.#.X.X.X.#.#.X.X.#.X.#.#.#.#.#.} } { #.#.#.$.$.=.#.#.-.#.=.*.*.,.,.*.%.*.,.%.,.o.n.D.o.-.-.%.*.*.%.*.%.*.*.X.:.u.t.1X^.I.F.:.%.<.;.0.I.1X6X#X3X5Xy.1.x.R.1X#X$X2X2X$X2X6X/.].3X1X2X2X1X1X3X1X3X1X1X1X4X3X1X3X1X1X1X1X1X1X1X1X1X1X1X#X#X1X1X#X#X#XI.1X4X#X2XW.#X4X#X4X$X#X9X$X#X2X2X4X2X$X2X2X4X2X$X#X2X2X%X$X7X4X4X4X4X7X4X4X4X2X2X1X1X#XI.#X1X#X1X1X1X1X1X1X1X(.#X#X#X1X1X(.1X].1X1X1X3X1X1X1X1X1XrX6X(.1X1X].3X].].].].3X].].1X3X1X].1X1X].1X(.(.I.1X#X1X1X2X1X2X2X4X4X4X%X4X2X$X4X4X2X4X2X4X4X9X4X9X4X4XrX4X4XrX4X2X4X4X4X4X2X2XJXqX1X6X1X4X6X6X1X3X3X6X3X4X4X4X2X2X0Xb.l.m.6XwX7X7XwXrXu.c.n.(.#X0.x.w.*.%.<.<.%.%.%.,.<.%.5.r.;.l.<.<.;.<.*.%.:.OXw.%.-.-.*.-.,.,.,.5.1.4.<.#.#.=.%.=.-.=.<.<.-.-.<.-.*.-.-.-.=.-.-.<.,.<.-.-.<.#.#.-.%.*.<.-.#.#.=.-.=.=.=.-.$.$.=.=.$.-.$.#.-.=.#.=.#.=.-.=.*.=.-.*.%.*.#.=.#.#.-.-.,.-.*.*.-.-.X.W a 1 r U S x , U X.e w e 3 9 e 7 r f 7 > > e 3 j T [ #.[ / } $.4.=.$.[ D w 3 3 6 2 6 > > 2 4 > > > > > 2 2 > 2 4 > 4 4 4 > , > > * , > > > = * * * , 4 * % & # , x 8 % N ) b 6 7 1 4 & , * * * > & * % = * = * & & = & # # % * = % $ $ & % & & = = = & & & & * & = 7 7 & & & = = = & $ = & & # # = & # 9 4 # & & = & & * & * # # & & * = & & * # . % % # % ",
"9 % = > 6 > > > = v E h = = & = = = 5 6 4 = = ; < = ; = = = , * % % = * = * = & * & * = > = = = = & 9 U f & > < > * = * > * * * > > > > > * * * = = > > = = < * = = * > > 4 2 > = = 6 r 2 ( l.=.4.3.$.) ( ! j , 4 r x p 6 , > * 7 7 9 h 4 = < 4 4 4 2 = = * > > > = > > 2 > 6 , 2 2 > , 2 , > 2 8 G 4 $ 8 > O E -.#.#.*.*.#.#.#.=.*.-.-.-.*.-.=.%.=.#.#.*.#.#.X.=.X.( { *.#.#.#.#.#.=.#.#.#.X.#.=.#.#.*.*.=.-.=.-.*.-.-.*.*.=.*.,.*.,.*.&.o.,.,.-.*.*.*.*.*.*.*.<.*.c.{.A.3X^.(.u.;.<.<.:.n.3X2X9X1X1XF.w.2.r.'.].2X$X4X4X$X9X1Xi.G.HX1X2X2X1X1X4X1X1X1X3X1X6X3X1X1X3X3X1X1X1X1X1X1X1X1X1X1X1X1X1X#X#X#X1X1X1X2X4X#X1XrX2X#X4X$X4X2X$X2X2X2X2X4X4X$X#X#X$X2X4X4X4X4X7X7X7X4X4X7X9X4X4X4X4X$X2X#X#X#X#X1X1X1X4X2X1X1X1X1X2X#X6X4X1X1X1X1X1X1X1X1X1X1X3X1X1XrXrX1X1X3X1X3X1X].].1X3X].1X1X3X1X1X1X1X1X1X1X(.(.(.(.(.1X#X#X1X#X2X2X4X4XrX4X4X2X2X4X9X4X4X4X9X4X4X4X9X4X9XwXtX4X2X2X4X4X6X2X4XrXrX4X6X4X4X4X4X3X1X2X6X3X2X6X4X6X6X{.m.l.c.5XwX7X7X7XJXy.N.r.i.(.:.;.,.,.,.,.<.-.,.*.,.<.,.4.2.<.,.*.,.,.;.,.,.*.w.;.-.-.-.-.<.-.-.-.,.<.,.%.*.-.<.-.<.*.-.<.<.,.4.-.4.-.-.-.<.<.<.-.<.,.,.<.4.<.=.*.<.-.-.%.#.#.=.-.-.-.-.-.4.-.=.-.<.-.-.=.-.-.=.=.-.*.-.=.=.=.-.*.-.,.,.-.,.-.-.*.%.%.*.-.<.*.-.*.-.) G r r r T I N m M T M 3 4 > 4 4 7 6 4 g J [ =.4.M.5.M.4.5.=.} F z 3 3 > 3 2 > 2 4 2 4 > > 2 4 > > > > 2 > > 2 > > > 2 > > > > > > = * % * * 2 % e ~ F , = 8 I M O , e x O % 2 # * * * , * * = & & * , # , * * * > > * % * % * * & & = & = = & % & = = * = & = & & = & & * & = & & & = & & $ & # & # 9 4 o & & # % & = & = * = % # . . # . E ;.F 9 o o   ",
"g 6 f M N e > > 4 9 5 = = = = & = = 4 4 = * = = = = = = = = > * * * = * * * = = = * = = = > = & = & & h 5 * > = * = = = > = * * > = = = * & * * * > > * < > = > > = > = > = = = > = * 1 r 3 R *.} ( #.( ( X.b > 9 > 4 4 6 > 4 6 9 9 1 = > > > > 4 4 > * > 4 4 > > > * = 4 4 > 2 2 , , * 2 2 8 > > r J W =.{ ~ #.%.#.#.#.#.#.#.#.*.#.#.*.-.*.#.*.*.#.*.#.X.X.#.X.#.X.X.X.{ X.#.{ #.#.{ #.=.{ ( #.#.#.=.#.=.=.=.=.-.,.*.*.*.*.-.*.*.,.*.,.*.*.,.*.-.*.*.*.*.%.*.%.*.*.>.b.i.P.(.3Xv.;.5.;.>.'.qX1X1X#XqXF.;.%.;.`.A./.4X$X2X$X2XP.q.u.].4X2X#X2X1X1X1X1X1X1X3X1X1X1X1X3X1X1X1X1X1X1X1X1X1X1X1X1X#X#X1X1X#X1X#X2X#X2X2X#X2X#X#X2X$X$X2X2X#X2X#X2X2X$X2X$X2X4X4X2X4X4X4X4X7X7X7X9X7X7X%X%X4X4X4X4X$X2X#X2X#X#X1X1X2X1X1X2X1X1X4X4X4X4X1X1X1X3X1X1X1X1X1X4X1X#X#X3X1X4X1X1X1X3X1X1X1X1X1X1X1X1X1X1X(.1X1X(.1X1X(.(.(.1XI.1X#X#X#X#X#X2X2X2X4X4X4X4X4X4X4X4X2X4X4XwX9X2X4X9X9XrX4X4X1X4X2X4X4X4X4X4X2X2X4X2X1X3X4X1X1X1X3X4X1X1X1X5XD.>.<.<.G.4X7XrX4X{.>.c.w.q.'.w.2.<.*.,.*.-.<.-.*.,.%.,.%.*.*.%.,.,.;.,.,.,.;.%.;.-.-.<.-.,.<.<.*.#.%.-.%.,.*.=.-.*.-.,.-.,.,.<.4.-.=.<.=.-.,.-.-.-.,.<.-.<.<.*.=.=.-.-.<.-.-.-.=.=.-.-.=.=.-.-.4.4.=.=.=.-.=.#.=.=.-.*.=.-.=.=.-.*.<.<.<.-.-.*.*.*.*.-.*.-.-.-.%.#.*.,.W b r r 1 < , r M p 2 % 4 4 > , > j <.3.( $.R W J S a z s e * 2 > 6 6 3 > > > > > > > > > > > > , > > > , > > > > > > > > > > > > , = > * = % f 4.4.! W / X.( x a z W N f 4 # % = = # * & & & % % & * % % * * % , , % * & % % * # % & & % & # * & = * & & * & & & & % & & & # & & & & & # $ # & % o # & & & & & % # & * 4 4 # 4 ~ m o . < | m.m._ y.+.",
"T S b x F v j 7 7 > * & = = = & ; = = & * = = = = = > * = = * > > = > > = = = > < = * * > = = = > = = # * = 2 = > > > > > > > > = = > * * = = * > > > > > > < > = = < > > > = = 2 = 4 1 v k x E 5.=.-./ W W b , = > 4 2 r 8 p 8 4 > 4 4 4 = > > 4 < > > > 4 4 > 2 2 > v *.M % 6 6 4 j 7 % , 6 > 4 , E *.$.*.*.#.#.#.*.#.#.*.*.#.%.%.-.*.%.X.X.X.%.*.*.%.%.X.*.%.#.%.*.X.#.#.#.{ #.X.*.#.*.X.{ { #.#.-.*.-.-.<.-.-.*.-.*.,.-.,.-.*.,.,.-.=.-.,.*.,.,.*.%.*.*.,.*.*.,.,.o.y.G.d.u.w.1.2.1.>.r.V.3XqX3X].y.*.*.*.r.q.P.rX$X4X4X6XD.u.t.D.6X$X4X4X2X2X2X2X2X4X2X2X2X2X4X4X2X4X2X2X1X1X1X1X#X1X#X#X1X1X1X1X1X1X2X2X2X2X1X2X1X2X2X2X2X2X2X2X2X4X2X2X2X4X2X4X4X9X4X4X4X4X4X7X4X9X7X7X7X%X%X7X%X7X7X7X7X%X4X4X2X2X#X2X1X1X2X6X2X1X1X#X1X4X2X4X4X1X1X1X1X3X1X1X1X2X#X1X2X4X4X6X4X3X1X1X1X1X1X3X1X1X1X1X1X1X1X1X#X1X#X#X(.1X1X4X1X1X#X#X#X1X#X2X#X2X2X4X4X4X4X4X2X2X$XKXyX$X4XwX4X9X4X4X4X4X4X4X4X4X2X1X1X2X2X2X2X6X2X6X1X4X1X2X1X6X].G.0.*.5.<.n.6X#XL.1XD.1.c.>.r.{.w.1.<.,.<.<.<.,.<.*.*.<.<.*.*.*.,.,.<.,.<.*.<.,.<.,.<.,.<.,.,.<.<.*.%.%.-.-.<.-.*.<.<.,.<.<.4.<.<.-.-.,.<.<.,.,.<.<.-.,.<.,.<.<.-.-.<.-.<.-.-.<.<.-.=.-.<.-.<.-.-.=.#.*.-.=.=.*.=.=.=.=.-.-.<.-.-.*.<.-.*.%.*.-.<.-.<.-.<.-.-.-.,.-.=.=.%.#.-.W x e v e > & 7 6 4 7 4 < 4 < 7 F G r w 3 * % > % , , 2 6 6 2 2 2 2 2 6 4 > > 6 > 2 , 4 > 2 > > > 4 > > > > > > > > > > > > = > > > = = * 4 x J J ( $.-.#.-.#.( } X.E W F r $ & & * & & * * % * * = * > * * * = * * % % % * = & = = = = & = & = & = = = & & & * & * & = & & & & = = # & & & & * * * & * * = & * & * % > * > z.OXG o . $ 1 Q >.Y $ ",
"7 > , # = > 6 > 2 * = = * & * * * = = * = * * = = = * = = * > = > > > * = = * > * & & & * * = * & = > = > = = = > * = = * * > * * * * = = * * * & < < > > > > < < = = = = * = = = > 7 6 > > % 2 E W ! ( ( R W I F E F e 4 1 7 4 4 > 4 > > * > > > > 2 > > > > > 4 , > 9 X.c.T > , 7 ( E z c N S J I { #.X.#.#.#.#.#.*.#.#.#.#.#.*.%.*.,.%.*.*.%.*.%.%.<.*...X.*.*.X.#.#.#.{ { } #.X.} #.#.#.=.#.#.#.#.=.%.<.4.-.#.*.,.*.*.,.-.*.,.*.,.%.,.%.*.,.,.;.*.*.*.%.*.*.*.%.*.o.y.qXqXq.;.<.*.,.<.%.:.S.I.I.u. .,.*.o.%.t.p.1X$X#X2X1Xu.>.1.u.1X4X%X4X4X4X2X9X7X4X9X9X4X7X%X4X4X4X4X4X2X2X1X1X#X#X#X1X#X1X#X#X1X4X#X1X4X#X#X2X1X4X#X#X2X2X#X2X2X$X4X9X4X2X$X4X4X%X4X4X$X2X4X4X4X%X4X4X$X7X4X%X7X7XwX7X7X7X$X4X4X4X2X$X2X4X2X2X2X1X1X1X1X4X2X2X4X1X#X1X1X1X2X2X1X1X1X4X#X1X4X4X4X#X1X1X1X1X1X1X1X1X#X1X1X1X1X1X#X1X1X1X(.I.1X4X3X1X(.1X1X1X1X1X1X1X#X1X1X4X1X1X1X1X#X4XwX#X2X4X4X2X1X4X4X2X2X4X2X2X#X4X1X1X#X2X2X2X4X2X1X1X1X1X1X3X}.Y.>.1.<.*.x.qXL.d.].y.,.M.,.>.m.>.,.,.<.<.;.,.*.*.*.*.,.<.,.%.-.<.*.;.,.;.1.<.1.5.,.;.;.,.<.<.,.<.<.<.-.*.-.*.-.<.5.<.*.,.5.4.4.,.,.4.-.-.,.<.-.5.5.%.-.,.<.,.;.<.=.-.-.-.=.-.*.-.-.-.=.-.-.-.-.<.=.-.=.=.=.=.$.=.=.=.=.<.-.-.<.-.=.-.<.*.*.,.-.*.-.-.,.-.-.-.*.*.-.-.%.*.$.#.( / #.5.S = p 7 , 6 % 4 7 7 < > = > > 3 2 8 3 3 8 7 8 e 3 > 6 > > 2 > 2 > 2 > > > 2 2 > > 2 > > > > > > > > > > > > > > * , = = * * * = = = o # o 3 j T R ] W ! / W J ( *.] = O & & & * = * & & & * = = * * % % % % % * % % & * = * % % = & * & * = = * & * & & * & * = & # & & = & # & # & & * & * & & & & * * & & # % * O > ,._.! > > % 5 l U h ",
"# % * * > = % * * * * * * * * = 4 = = = > & = = = = = = = = > > = > = > = = = * * % = & * = > * = = * = > * > 2 > = = = * , * = > = = * = = & = = 2 4 > > > < > > = = = = = > = > > 7 6 > 4 e z 4 % 6 f F { X.X.#.T x 4 6 4 6 4 4 4 4 > > 4 > > 4 < 6 > 4 4 > 4 4 > 2 , > I 5.( e D #.#.=.#.$.$.=.#.#.#.#.#.#.#.*.#.#.#.#.#.#.#.*.-.-.*.*.,.,.*.*.%.*.,.%.X.X.#.#.#.#.X.{ { { #.#.X.X.X.#.#.=.#.=.#.=.#.-.<.,.*.#.=.<.*.*.=.*.,.<.;.,.,.,.,.,.*.<.<.,.,.,.*.,.*.,.#.*.,.o.D.JX0.,.<.<.,.<.<.1.y.].1X).1.<.,.,.,.v.u.qX2X#X1X.Xv.>.2.v.5X4X$X7X7X7X7X9X7X7X7X7X7X7X7X7X7X7X$X4X4X7X4X9X4X4X#X2X2X2X1X#X#X#X2X2X2X#X#X2X2X2X2X2X#X2X2X2X$X2X4X9X4X$X2X4X4X9X4X4X4X4X4X4X%X4X4X4X7X7X7X7X7X7X7X7X7X7X7X4X7X9X4X4X$X2X4X4X#X2X2X6X1X4X2X2X2X1X1X4X1X1X1X2X2X4X4X4X4X3X1X4X1X1X1X4X1X1X1X1X1X1X1X1X1X1X1X1X1X1X#X1X1X1X1X3X1X1X1X1X1X3X1X1X].].].1X1X1X1X1X1X1X#X1X1X1X1X3X1X1X1X1X1X6X4X2X2X#X1X6X1X1X1X2X4X4X4X2X2X3X6X6X6XoXn.m.x.c.,.2.r.'./.(.oXc.>.c.1.r.w.1.1.4.<.<.1.5.1.<.<.<.;.,.,.<.,.<.<.<.,.,.,.1.1.4.1.<.,.,.<.1.,.<.,.<.,.,.*.,.*.4.,.%.,.4.*.4.<.<.<.4.<.<.,.<.<.4.<.%.,.4.*.<.,.<.<.-.=.=.-.-.-.<.<.-.=.-.-.-.<.-.<.5.=.-.-.-.=.-.=.=.-.4.<.4.,.=.-.<.,.,.,.<.-.<.<.-.#.*.,.<.*.-.*.*.*.<.=.#.#.-.( v p e e x N G g e > < < 4 4 1 6 p > , , 3 2 7 e r 6 8 2 2 > 6 2 # r g 2 3 2 4 > & = > > 2 > > > 2 > > > 1 > > < > * > > > = * , > * = & & % % o # & 2 = 2 4 8 , 6 T X.> # * * & & o & & = * > % % % * % * % % % * % * = & O > = = = * * = & * * & * * = * & = = = = & & = & & & & & & & * & & & * & * * * % # % = & > O = ) B.5.) | &.P P +.",
"> * , , > * > * * = * & * * = $ . & > & & = = = = = = & * * * = * & * * * = = & & & % * = * * * * = > & * = > > > = * * > * * = > > = * * = = * * > 2 = = < < = = = = = = = * = = = > = 4 * > v f > r , x I N p r , 2 6 8 6 * $ = < < > > > > * 4 4 > 4 4 > 4 > > > > > 2 # r W W ] $.( } #.#.( #.X.{ { #.#.#.#.#.#.%.%.-.<.5.,.*.%.-.%.,.%.*.*.%.*.<.%.%.*.*.X.#.%.X.X.#.X.#.{ #.#.X.{ #.#.#.=.*.*.*.#.#.<.,.%.*.*.*.,.*.%.,.*.,.*.*.*.,.<.;.;.>.;.>.*.*.,.,.%.%.*.*.*.o.w.y.o.;.,.<.%.<.1.*.:.'.V.O.>.%.*.2.;.:.y.S.H.3X/.u.:.2.*.:.F.4X7X7X4X7X7X7X7X7X7X7X>X7X7X7X7X>X7X7X%X$X7X7X4X$X$X4X$X2X2X$X#X2X$X2X2X2X#X#X2X1X2X1X#X1X2X2X2X#X4X2X2X4X2X$X2X4X4X%X4X7X%X$X$X4X4X9X4X7X7X7X%X$X>X7X>X7X7X7X%X4X4X4X#X$XtX9X#X2X2X2X2X1X4X4X1X2X#X1X2X1X#X1X2X4X4X2X1X2X4X2X1X1X1X2X4X4X2X1X#X1X1X1X1X1X1X1X1X1X1X1X1X1X#X#X#X1X#X1X1X1X1X1X(.1X1X].].1X3X1X].1X1X1X1X1X1X1X1X1X1X1X1X3X1X1X#X$X#X2X2X2X#X#X1X4X2X1X2X3X'.].5Xm.:.l.1.,.<.<.%.w.u.F.U.>.4.l.1.2.>.1.<.4.,.<.5.l.4.<.;.1.5.1.;.<.,.;.<.<.,.%.%.,.<.;.1.1.,.,.,.<.<.,.;.,.<.,.-.%.,.,.%.<.*.-.,.*.<.1.,.<.4.<.*.*.<.<.*.*.,.<.<.<.,.-.<.-.=.=.=.=.-.<.-.=.=.-.=.,.<.#.-.<.<.=.$.-.=.-.=.*.v.1.<.<.-.-.-.,.,.<.*.-.,.<.-.%.%.-.-.*.-.-.*.=.*.*.*.=.<.M.W g ! W D ( E x f 6 , > < 4 = 4 , > 3 g N e # 4 % 6 2 > > 8 6 % 7 G x > , > > , 6 ~ E * > > > > > > > > > > > < > = * = > * * * * = * & # & & * % & & % * * O > > # 6 f # # % > o . 7 = % * & & = > % % o # % * % % * = % ; h $ & = & = & & & = & & % & & = = = & * & & = & & & # & & = & & & * & = & & & = = * & # * * = % . v ) ,.>.>.+. .~ ",
"= = > & * = = * = > = * = = . i Y 5 $ = = = = = = = = = = & * & & & > * = * = = = & & = 4 > * = = * > = * = 4 > > > * * = = > = = * * = > * = & > 4 > = > = = = = = = = = = = = = = = > 2 > > > 6 6 8 3 r > % , 6 7 8 6 6 4 j ....9 * > 6 1 4 6 9 = & 4 4 > 4 > > > > > > 2 4 , a H [ ( } { #.#.#.#.X.{ #.#.#.#.#.%.-.X.X.Q m ~ <.*.,.%.*.;.*.*.,.%.%.%.,.*.,.*.*.%.*.%.*.%.*.%.%.*.X.#.*.#.#.*.*.#.#.*.*.,.,.,.<.,.>.<.,.*.<.,.>.;.<.*.<.<.;.>.1.>.1.;.>.,.<.;.,.*.,.*.>.1.;.:.<.,.>.>.>.<.<.w.Y.u. .*.;.,.<.:.0.D.i.9.(.}.y.;.1.,.:.G.3X$X9X7XwX7X7XeXrX2XwX7X7X7X7X7X7X7X7X>X7X>X7X$X$X%X7X%X4X4X%X$X4X$X7X9X2X#X2X2X2X2X2X1X2X1X2X2X4X$X4X$X4X4X2X2X4X4X4X4X7X4X9X4X4X4X9X4X9X7X7X%X%X>X7X>X7X7X7X%X%X7X7X$X7XtXeX4X4X2X2X2X2X2X4X4X4X2X2X1X2X6X4X1X1X#X2X2X4X4X9X4X4X#X2X9XwX9X4X#X1X1X2X1X1X1X1X#X1X1X1X#X#X#X1X#X1X1X1X1X1X#X1X1X1X1X3X1X1X1X1X1X3X1X3X1X1X1X1X1X1X1X3X'.A.P.2X$X4X$X2X2X4X#X#X1X6X2X2X9XP.q.F.oXb.2.l.<.,.,.<.1.>.w.x.x.1.5.5.1.1.1.1.1.4.<.1.1.,.%.;.%.,.<.4.4.1.>.1.1.4.,.*.*.-.,.1.<.<.<.<.,.<.<.<.,.<.<.<.,.,.,.<.,.;.,.5.,.<.,.1.1.1.1.5.,.,.,.5.1.;.1.4.<.,.,.<.,.<.,.,.-.<.,.4.-.-.-.<.-.4.5.*.=.-.<.<.-.<.-.3.=._.UXb.*.4.<.<.-.<.,.<.,.,.-.,.-.-.*.<.*.,.*.,.-.<.-.-.-.4.{ W N b D n J J 3 , > < 4 4 < > e S z b D / =.~ F N v j e a 6 8 > x M.<.8 > r e 3 2 Q OXo.= > 2 > 4 > > > 4 > > > < * > = > * > * = = * * & & & & $ & = # & = > 6 7 * * & # # # & o 4  .N.7 O * 2 > * * # = 8 6 % % % * * > % U OXq = < > = & & & * * * = * & & * = * * & = & = & & & & o O = * & * % = * * * * * = = * * = , , * # o v c.w. . ._ ",
"= = = * * = = = > = = & = # l UXUXoX$ = = & = = = & = ; = ; > * = < < = = & = = & & > f j 4 = * > = & * > * = > * * = * * = * = & & = * = = * 4 j f , * = = = = ; = = = < = * & * * > = * > > , 2 > , 3 M J f , 2 6 7 > 4 , j %.E = * > > 4 4 7 f > & * 1 > = > * * > > > 2 4 > 8 6 x { #./ [ } { ( { { ) X.#.%.-.4.F 7 h     I <.%.%.-.*.,.%.*.,.%.%.,.,.o.%.*.%.%.*.X.X.%.X.X.%.X.*.X.#.*.*.#.#.#.-.*.*.%.,.,.;.<.1.,.;.;.;.<.1.;.*.,.,.;.>.;.:.>.;.>.>.2.,.,.,.*.*.*.,.;.>.,.;.;.,.>.,.%.*. .m.D.:.,.,.%.*.;.>.m.n.n./.G.y.c.l.1.l.m.F.s.$X7XwX7X7XtXI.9.(.eX>X>X7X7X7X>X>X>X7X>X7X>X>X>X7X7X7X>X7X7X$X7X7X%X4X$X2X$X4X$X2X2X2X2X2X2X2X$X#X2X2X2X4X#X$X2X4X2X4X9X9X9X9X2X4X4X4X9X%X4X7X7X>X7X7X>X>X%X>X;X7X>X>X8X7X7X7X4X9X%X4X$X4X9X9X9X4X4X4X2X4X1X#X1X2X2X2X2X9X9X9X4X2X$X4X9X9X4X2X1X1X2X2X1X#X#X1X#X#X#X1X#X1X#X#X1X1X1X1X#X1X#X1X1X1X1X#X1X1X1X].3X3X1X1X(.1X1X1X(.3XG.q.F.6X$X$X%X4X$X$X#X1X(.1X2X#X9XP.0.F.).w.l.1.<.2.,.1.1.>.c.c.>.1.<.<.1.,.1.4.1.<.1.,.1.>.,.4.<.,.%.;.1.1.,.1.1.,.,.<.<.4.,.,.,.<.,.<.,.<.;.<.<.,.;.<.<.,.*.<.,.,.1.l.5.1.;.<.1.5.5.4.1.5.4.4.,.2.,.,.1.<.,.,.,.,.<.4.<.,.4.,.-.<.-.-.<.5.<.%.=.-.=.-.<.-.-.4.;.x.XXx.,.<.-.<.<.<.-.-.-.*.,.-.*.,.*.%.,.*.%.*.*.*.*.*.#.{ ! W W ! b d W | I f > 6 > 1 , > e J / #.[ $.=.=.( -.-.W { } a , % U ~ 4 8 j S v 6 4 h h < * 2 > > 4 > > > 4 4 > > > = = = * & = * & & = & & & # & = & & = = # & 4 7 7 8 4 6 > % o m c._.| o % 2 * 4 # > x E I r % % * % % , o  .LX5 > = = * & & % * = = = * % # * * * * & & * * # & & o 4 r # , * = & = & = = * & & * * = , % * , > % o m l.l.:. .",
"& & * = = = 4 = = = = = = . Q UXUXoX# > 4 = ; = = & & & = & = = = & ; = * = = = = & > k G v r = = > 4 = = = = = = = = = > * * = = * = = = & = 4 j p > = = = = ; < = * < 9 6 = = = = > > , = > > > 2 6 2 9 N F J j > 6 6 4 > = = & & > > > * > = 4 9 = > 4 > > > > > > > > = > 4 8 > 6 b { =.=.#.#.$.#.{ [ #.R f x ! 7 t X.~ ..,.;.;.-.,.,.*.,.<.;.o.,.<.,.;.;.,.*.%.%.%.%.#.%.%.<.*.*.*.*.%.%.*.%.*.*.*.*.,.,.,.,.,.,.,.<.,.,.1.1.;.,.<.1.,.1.>.>.l.>.;.;.;.,.<.>.,.,.<.<.<.>.;.,.>.>.;.>.,.,.;.@.+.%.*.*.,.;.,.;.+.:.0.p.0.@.>.;.>.r.:.0.u.(.%XwX7X7XtXS.0.A.9X7X>X7X7X7X7X>X>X8X>X7X7X7X>X7X7X7X7X8X7X7X7X7X7X7X7X$X4X7X4X4X4X4X4X4X$X2X#X2X2X4X2X2X2X4X4X4X4X4X4X9X4X4X4X4X4X4X2X9X4X9X7XwX7XwX>X>X>X7X>X8XeX7X>X7X7XwX7X7XeXwX7X%X$X4X4X9X4X4X2X2X2X2X1X6X2X4X4X9X9X7XwX9X4X9X7XtX9X4X2X2X2X4X#X#X4X2X2X#X1X1X1X1X1X1X1X#X1X1X1X#X1X4X4X1X1X1X1X3X1X1X1X1X1X3X1X1X1X1X1X}.F.y.F.0X$X$X4X4X%X%X1X1XP.'.].4X2X5XD.D.m.w.l.1.1.2.1.1.1.1.l.l.1.2.<.1.1.1.4.5.5.1.1.1.l.l.1.1.4.4.,.<.1.1.1.5.1.1.;.<.1.2.<.<.<.1.<.<.1.,.1.>.,.>.<.1.1.,.*.,.,.l.l.l.1.4.1.4.1.5.1.1.1.5.<.;.,.5.1.1.<.<.1.,.<.5.<.,.*.*.<.<.<.4.,.,.<.5.<.-.<.4.-.<.<.<.<.<.,.,.;.>.1.4.<.<.<.,.<.<.-.<.,.,.,.<.*.-.*.,.,.X.] X.#.,.{ ( *.5.4.5.%.{ X.;.E r > > > < 4 4 % 1 e n T [ D b A W E A W *.n 6 a a , 7 > 6 r r 3 2 , * > 2 2 4 2 > 2 4 * > > > > 4 > < = > 4 & > = = = * * & & & * = = & = = = & = 6 9 4 8 4 & N ~.c.;.j & 2 > > h m ~ E v > # % * % * * > # l m # 4 > = & & & * * = * % % # & & * * * & * % * * * * . ) LXI # > = = = # > = * = * = * * > = * % * , , . = q C Y ",
"j F 7 6 7 & * = = = & & = & # Y Y ; # = = = = = & & & & = & & & & & & = = & & = = & = > h N N g 9 = < < & = < $ = * * * = * = = = = & = = = = * & = = = < = = ; = = = = 6 9 = & = = > = = = > = > > 4 > 4 O 2 v M 4 4 > > 4 < > > > > * * > > * = = > 8 7 > * > 4 > > = > > 4 < > 4 4 = f x b c N F I M M W r O = m I E 4.4.<.-.-.*.,.%.,.,.;.<.*.%.<.%.;.;.;.%.,.o.o.X.%.#.X.*.,.o.o.*.*.%.*.%.%.%.%.*.,.,.,.*.*.*.*.*.,.,.<.;.;.%.>.%.<.;.;.1.>.1.;.,.1.;.<.;.>.,.*.;.<.;.*.;.,.,.,.;.,.*.,.<.;.;.;.;.,.,.;.;.;.%.;.o.n.u.+.>.,.;.;.;.v.m.s.W.eX>X7X4Xi.0.q.#XeX;X>X>X7X>X7X>X7X>X7X7X7X7X7X>X8X7X7X8X7X7X7X>X7X>X7X7X7X7X$X%X7X4X4X4X$X4X4X2X4X4X4X2X$X9X4X4X4X4X2X4X4X4X4X4X4X4X4X4X2X4X9X7X7X7X7X7X>X7X7X>X>X>X7X7X7X7X7XeXeX7X7X>X7X$X4X4X$X2X4X#X4X2X1X4X4X9X4X2X9X4XwXtXyX9X9X4X4X2X4X2X2X$X7X7X2X#X2X1X1X1X#X1X1X#X1X#X2X#X#X#X1X4X1X#X1X1X1X1X1X#X1X1X1X1X#X1X(.3X'.m.x.n.3X$X%X$X%X$X4X(.F.D.D.V.1XqX5XD.b.y.w.,.5.>.1.1.,.>.1.1.1.>.>.1.1.<.5.1.1.1.1.>.l.1.>.>.>.>.1.5.5.,.z.>.1.1.,.,.>.,.,.1.1.,.,.5.<.;.<.,.1.,.;.2.4.;.,.,.,.%.<.5.<.>.5.>.1.1.1.,.1.,.;.1.,.%.;.1.,.,.<.;.,.,.,.<.<.*.*.=.<.<.<.1.1.,.<.,.<.-.,.,.-.<.4.-.,.<.5.4.1.,.,.<.,.,.<.4.4.*.*.-.,.*.-.,.*.*.,.W I X.5.X.X.,.4.=.X.I b x x 4 > # * > > 4 4 > < 4 7 , 3 c I n D ! =.( ( [ S e e b r , 6 f b e 3 2 2 4 6 > 2 > > > > > , , * * > > > > > = = ;.I = 9 4 * % * * & & # & & $ & & = $ & o # o g G r F T z U 4 , % p W ,.o.I = o # % % * # * * % , o o * & * * & % * & & % % % & & & & & * & & & % * & * * # 4 U.OXe % > O * # = * # & & # * % * = * % * # = & #   .   ",
"7 j < O % j < * > = & & & & % . o & > = & = = = & & = & = = ; = = = = = = = = = = = = % & * t v v f r 1 r m N 9 4 = < * & = > * > = > = = = = & = & = = = = = = = = 4 * ; 4 7 4 = * > > > > < > 4 4 > 4 6 4 > O x r * 4 4 > > > 4 = > = > > > > > * > 7 7 > < < 4 < 4 > = > 4 < 4 > 4 4 > = = # & # & & $ t 9 ; 7 r e F -.#.*.%.,.,.,.,.,.,.,.<.,.,.<.;.;.;.:.;.,.;.*.%.*.%.%.o...X.o.%.,.;.,.*.,.,.<.,.;.,.,.*.*.,.,.*.,.,.>.>.<.;.<.*.,.;.;.1.l.1.>.<.>.1.2.<.>.;.<.;.;.;.,.,.<.,.<.>.;.>.<.;.;.>.>.,.<.,.;.;.;.>.>.o.G.'.o.;.>.>.1.>.r.i.S.^.>X>XeX2Xu.u.q.(.eX>X>X7X>X>X7X>X7X8XeX>X7X8X8X7X8X8XeX8X8X8X>X8X7X8XeXeX8X>X%X7X7X7X7X7X7X7X7X4X7X7X9X4X4X9X9X4X4X4X4X4X4X4X9X4X9X9X4X2X2X4X4X%X7X7X7X7XeX7X8X7X>X7XwX7X7X7X8X8X7X>XeXbXtX7X7X$X4X$X7XwX9X7X9X4XrX4X4X4X9X4XtXtX7X$X2X2X4X4X4X4X4X4X9X9X$X4X4X2X2X2X1X2X2X2X2X2X2X2X2X#X1X1X1X1X2X2X2X6X1X1X4X1X1X1X1X1X].}.Y.m.b.b.'.(.#X%X%X%X1XD.v.m.B.y.P.3Xu.x.U.m.c.4.c.1.1.1.1.1.l.1.l.1.1.1.1.w.l.1.w.l.1.r.l.1.,.<.1.4.1.1.r.l.l.r.l.1.>.<.1.>.1.1.1.<.1.<.;.;.1.1.1.,.1.l.1.,.<.,.<.%.,.,.1.1.5.1.<.1.4.1.5.1.4.l.5.*.<.,.1.<.1.,.<.,.<.1.1.<.,.-.4.,.<.<.<.,.<.4.5.<.<.4.<.<.,.1.5.1.5.<.<.,.4.,.<.<.5.,.*.%.*.-.,.-.,.-.-.<.%.a , f p > 1 U I 7 6 e r 7 6 > 1 * 4 4 4 = < 4 > 4 e r j r x N } -.{ #.-.( e 3 e c n S W F j 2 3 6 6 > 4 4 4 > > 2 7 4 4 * 4 > > > 4 > 4 1 & m N.F = 4 8 4 = # * * = , > j f = r f m h g e a j > O O o = h W ! ,.;.] 7 # # % % = % * * = % = * * = > * * * * & * * * * & * = = & & * & * * & * > * = * > # > I g e 4 % = = 7 = = & * & * # O # * & = & * & # * $ * ",
"= < k I E o.9 = = & = & $ & * = < * = & = & * & = & * & & = = ; = & = = = = = & = & & = & % & # 9 x x t j I F N k = & & = & = > = = > = = & = = = = & & = = = = = = ; < > & q ~ U < < > > > 4 4 < = 2 2 > < 4 f ! f = > > = > = = > * > > = > > > > * > > * 4 4 > 1 4 > > = > 4 4 = > 4 4 6 7 7 9 6 9 4 = f U v t F W / -.#.-.,.-.%.<.;.;.,.1.;.>.;.;.>.;.&.;.,.*.*.;.%.o.*.,.%.;.o.,.;.*.;.*.;.,.1.,.%.*.*.-.-.-.*.*.*.*.*.*.2.2.1.>.1.4.,.<.,.<.>.2.,.,.;.1.1.:.;.>.,.*.;.;.;.;.,.;.:.>.;.,.<.>.,.;.,.;.;.<.;.,.;.;.%.n.v.&.>.1.;.>.>.+.F.}.d.$X$X>X].t.1.0.1X>X;X>X>X7X7X7X7X7X7X8X7X8X>X8X8X>X8X8X8X,X8XeX8X8X8X8X8X8X>X7X7X7X7X7X7X7X7X7X7X7X7X9X4X4X4X4X9X2X2X4X2X4X4X4X9X9X4X4X4X9X4X4X7X7X4X%X7XeXeX>X>XwX7X7X>X7X7XeX8X8X>X>XbXeXeX>X$X7XeXeX8XeX7XeX9X4X4X4X2X2X9XtX7X#X#X4X4X4X4X4X4X7X4X4X$X4X2X4X7X4X2X2X#X2XrXrX2X$X#X2X1X#X#X1X1X1X1X4X1X4X1X1X4X4X1X1XI.1XR.v.m.c.x.'.A.K.4X$X%XP.u.v.m.x.v.(./.u.m.U.x.c.c.w.l.r.1.1.1.>.r.1.1.r.>.1.1.1.l.c.>.l.1.w.l.1.;.>.l.l.1.1.l.l.c.1.>.1.>.>.1.1.,.<.<.,.1.<.;.,.1.<.,.>.<.,.,.<.;.*.,.<.<.l.1.1.1.1.1.2.1.1.5.l.c.<.,.<.,.<.,.1.5.1.1.4.;.1.<.,.,.,.1.1.,.<.1.<.,.1.1.5.1.<.<.1.1.1.4.,.1.,.,.,.;.<.,.,.,.-.-.<.*.-.-.,.*.*.,.,.E z 7 > 2 h N v p x g v f p 4 4 9 7 > 7 7 7 7 f x g 3 4 e r c ( ( } ( { ] J D [ [ L T S 6 , 2 4 2 4 > 4 2 2 > > > 4 7 4 > > , > > > , 1 < 4 o N B.) 4 6 4 9 * % % > # , N ! I a , v N E -.b o * , % 3 I 5.M.#.I 4 # # * & = % % % & * = % & % * & * * * = * & % * * = * & & & * & & & & & * * = > > * * , * o z j o > % 1 7 O > = = & O 1 g # o # = = & # # . . = ",
"4 < 7 U U 5 = = < = & & = & & & = & & = = & & = = & & & = = = = = = = & = = = = = = = = = = = % & # 4 4 > * 7 1 h ~ v 4 r = = & = = = = * = = = = = = = = = = = < = = 4 4 = $ f | ~ h < < = < % 4 < 4 > e x 7 7 h 4 > 6 > > < = > > > > > > > > 1 > > 4 4 > < 4 4 4 4 4 < = < 4 4 > 4 4 6 4 4 6 9 7 7 7 7 < r f j v W ~ <.,.%.*.,.,.,.<.4.,.1.,.;.,.,.>.,.;.;.;.>.;.,.*.*.;.;.<.1.%.*.*.;.,.;.;.;.*.*.%.;.*.<.,.,.*.*.*.,.*.*.<.<.;.%.,.,.;.,.*.,.;.;.<.1.<.;.;.l.1.1.1.>.>.1.>.,.;.>.,.;.>.<.;.>.;.;.<.>.;.;.>.>.>.>.w.q.:.>.>.1.<.>.>.w.D.V.i.1X>XwXF.y.l.r.P.9X;X7X>X7XwX#X#XtX7XeXeX8X7XeX8X8X8X8XeX8X8XeX8XeX8XeX8X8X>X8X8XeX7X>X>X7X7X7X7X7X4X4X4X9X4X4X4X4X2X4X4X4X4X9X4X7X4X4X9X9X7X9X7X9X4X%X$X7X7X7X7XeX8X7XeXeXeX8X8XeX8X8X>X8X8X8X8XeX8XbXbXMX8X7X7X4X9XwX4X4X9XyXtX7X7XwX7XwX7X7X7X9X4X%X$X7X2X4X4X$X4X4X$X2X$X4X$X4X2X4X2X2X2X2X2X2X2X2X4X4X2X1X4X6X1X1X(.3XG.x.M.l.c.Y.D.A.1X%X4X/.v.B.m.m.v.(.5XD.x.r.r.r.w.1.1.l.l.l.1.w.r.1.l.l.1.1.1.l.w.w.l.l.l.c.c.c.1.4.l.z.l.c.1.l.;.5.1.2.>.>.4.l.>.4.1.1.1.5.<.1.>.1.5.,.%.,.<.2.<.,.<.4.5.l.1.1.l.5.%.;.4.4.;.1.1.1.1.5.,.;.5.l.,.;.>.1.4.1.1.5.<.1.1.1.1.1.;.1.w.>.<.1.<.<.1.l.1.1.1.1.1.1.l.1.,.1.,.<.<.,.<.<.,.,.,.,.*.,.,.,.,.X.W J a 8 1 9 k M e 7 2 7 7 7 4 r x j r 7 4 p a f > r ( { [ =.X.#./ #.} #.{ 5.{ g e 3 > 3 4 7 2 2 4 4 2 > 4 6 > > > > 4 > 8 r * > 4 4 > 1 4 & v M.M.( r z v j 4 p 7 7 c | | b , 2 o . F M , , # j 5.M.] b * % % * * > % & * % * * % & = * * = % * * > & * * * * * % & & * & * % % & * & > = > > > % * , 2 % s [ R , O H M O , , = = O g 3.R e . & & < = 4 % $ $ ",
"4 = * $ & % ; & & & & & & & = & & & * & = & = & & = = = = & & & = = = & & & = = * = = & & & $ * & % % # * # * & 7 I k # > = & = = * & * = & = = & = ; = = = < ; = > 4 ; = = = o 5 l m I o.~ m t 9 4 > 6 ~ ] r > * > 2 > > > = = > = > > > > > > > = > 7 * > 4 > > 4 4 > > = 4 > < < < > < 4 4 < < 4 < < 7 4 < $ : o = ; q ~ %.#.-.*.;.,.,.1.;.;.>.;.;.;.;.;.:.;.:.o.&.;.;.o.&.;.;.o.o.*.,.;.,.,.;.;.,.*.*.*.*.;.1.r.r.:.;.*.,.%.;.;.;.*.,.;.,.<.1.;.>.;.1.;.>.>.>.>.>.>.1.;.;.;.>.1.1.;.;.;.,.,.,.;.<.;.,.<.>.;.;.;.@.U.v.;.1.;.;.1.2.;.:.w.0.A.H.+X4Xu.:.r.>.i.4X;X>X>X>XrXp.i.tXeXwX7X8X>X8X8XeX>X8X8X8X8X8X8X8XeX8X8X8X8X8XeXeX,X>X>X7X7X7X7X7X7X7X7X7X7X9X4XrX4X4X4X4X9X4X4X4X4X9X4X7X7X9X4X4X4X7X4X7X$X>X7X7X8XeXeXeX8X7X8XeXeX8X8X8X,XeXeXbX8XeXbX8X8XeX7XeX7X7X7X9X4X7XtXtX8XeXKXPXeX7X7X7X7X7X$X%X4X%X$X4X$X$X4X2X#X#X2X4X4X2X4X4X2X$X2X2X#X2X2X2X2X2X#X1X(.1X(.I.'.b.x.m.c.U.'.n.S.$X#XG.v.x.m.c.:.p.P.0.l.z.l.l.1.l.1.1.l.l.r.w.>.r.w.r.1.l.1.>.1.l.>.l.r.c.l.l.1.1.1.l.w.r.1.>.1.4.1.1.1.r.>.1.1.1.1.1.>.>.1.1.,.1.2.<.,.1.>.1.2.5.<.1.5.1.l.1.l.1.%.,.5.5.1.1.,.1.,.1.1.c.l.l.;.&.1.5.>.1.<.1.<.1.1.1.1.w.r._.N.%.<.,.1.2.>.1.1.1.,.1.;.l.M.c.,.,.<.<.,.<.;.,.,.,.*.*.*.,.-.,.%.X.*.X.T x a k e 6 7 7 > > 4 4 > 9 r r 4 4 , 4 , N ] -.$.F ! 5.{ { =.} R [ =.#.x 6 , 6 4 6 2 2 2 4 4 4 > 4 > > 2 > > 4 > * 9 9 & * > 1 = > 4 4 % 9 E M.M.,.I j , e 2 v F x f x I f p a g j * * # 8 m h # # * * * = & & & & % & & % % * = * % % * = * = * * % & * # # * & & & # % & & % = & > = * > * * % * * O 3 #.{ O ( 4.W r O > > > , W $.{ N 7 o > 2 4 ; 9 = ",
"= = < > < = < = & & = & & = = & & & = & & = = & = = = & & & = & = ; & & & & = & = = = * & & = & = = * % & = & & & . # = * & > = < = = = = = = = = = = = & & < < < = 4 ; ; = = > = o > 6 U 1.N.o.m 7 4 6 m x 4 4 4 > 4 > 8 4 = = < > 4 > > > > > > = 4 7 < > 4 < 4 1 4 > > > 4 < 4 4 4 > 4 6 6 4 < 6 7 < $ = 6 = p k j < . I <.*.*.,.,.%.%.*.,.,.>.;.1.>.;.>.>.;.@.0.:.+.;.*.,.,.*.o.;.,.;.;.,.,.,.,.<.,.,.,.>._.HXHXLX'.w.;.;.,.<.>.>.;.1.>.<.,.>.1.1.>.>.>.l.1.:.;.>.>.1.>.>.:.1.>.1.>.>.;.1.;.;.>.>.<.>.<.;.;.>.;.;.x.>.>.1.>.>.<.>.1.2.1.w.y.s.7X1Xu.1.c.1.u.3X+X$X7X7XqXt.u.rXwXL.$XeXeX8X8XeX8X8X8XeXeX8X8XeXeX8X8XeX,X8X8X8X,X,X8XeX8X8XeX7X>XeX7X7XeXwX7X7X7XwX7X7XeX7X7X7X9X7X7X7X%X4X4X4X7X7X7X4X4X7X%X7X7XeX7X>X>X8X8XeX8XeXeXbX8XeXeX8XbXbX8X8XeXbXeXbXeXeXMXeX$X$XtXBXeXeXtXPXNX7X7X7X7X7X7X7X4X7X4X7X7X9X9X4X#X2X2X4X4X4X4X$X4X7X4X4X4X2X2X6X4X4X1X2X1X3X].].Y.m.M.N.x.U.Y.n.A.2X4Xn.c.c.l.l.w.m.).w.l.c.w.l.l.c.1.1.1.l.l.r.w.x.r.r.l.l.>.>.1.l.x.c.w.w.>.w.l.l.w.l.l.c.l.1.l.l.>.1.r.l.w.l.1.1.;.>.>.l.1.1.1.1.l.1.1.l.1.z.l.l.1.l.l.c.1.l.c.5.1.l.4.5.l.1.1.5.1.1.1.c.l.4.1.1.1.5.1.l.4.5.1.1.1.l.l.l.r.T.b.;.1.4.1.1.1.l.1.l.>.>.1.l.c.l.>.1.<.1.,.<.,.,.,.<.*.*.,.<.,.,.,.%.X...=.[ z 4 6 e 7 7 v j > 4 7 7 4 6 > 7 7 6 3 a N x , , D ( R / W { [ / D a 6 e 8 6 3 6 2 2 6 6 4 > 4 4 4 2 > 4 > 4 2 2 > * * > > > > 4 = 4 4 4 # r U 5.l.<.W W { ~ o.U w 3 I #.,.S % % & > * % o # * , * , & = & & & * # > & % & > & > * * = * * * * & % * & & # * = = & % & & & & # * = > = > > > = * * > % O [ T D $.$.$.A , % e % b $.) $.( g > o O = * o ",
"= = < = = & ; 5 < & $ $ # $ & $ & & & & & & & & & & & & & & & & = = % & = & & = & = & & = & & & # # & & & % % & = = > = = & = = * = = = = = = = = = = = = = & = = & = = = & = = = = 2 & O = 7 = > > 6 > = , 2 4 6 > , 4 7 4 = = > > > 1 > > > > > > > = = > < 4 4 > > > 4 = > 4 4 > 4 6 4 4 < 4 4 < 5 5 k ! ] ( -.6.c.,.] X.*.#.*.*.*.*.,.%.<.;.;.>.1.>.>.;.;.:.v.XXY.@.o.;.%.;.o...o.>.;.,.,.*.,.;.*.,.,.o.;.`.LXJXJXLXv.o.;.;.;.;.;.;.;.>.;.;.;.>.>.:.;.>.1.1.:.>.w.>.>.>.>.:.:.+.+.:.>.>.>.;.;.,.>.>.;.>.>.;.;.>.>.>.:.>.>.>.>.;.,.>.1.;.w.0.A.7XS.:.5.1.1.0.d.#X>X+X4X6Xt.y.4X2Xd.2XeX;XeX7X9XeX7X>XeX8X7X8X>X7X8X,X,X,X8X8XeX,XeX8X,XeXeX8X8X,X,X8X8X8X8X7X8X7X>X7X7XeX7X>X7X>X7X7X7X%X7X7X9X7X4X4X9X4X7X>X7X7X7X7X>X>XeX7X8X8XeXeX8XeX8X,XeX8XeX8X8XbXMXbXbXbXeXbXeX7X>XtXMXMX7X;XtXeX7X7X7X>X7XeX7X$X7X4X7XwXwX7X2X$X2X$X2X4X4X$X4X4X4X4X7X4X4X3X].1X4XrX9X1XE.G.'.b.x.b.c.b.b.m.m.p.#X1Xq.l.c.r.c.w.y.m.w.l.l.l.l.l.l.c.l.w.r.w.l.x.w.c.c.r.l.l.w.;.w.c.w.x.w.w.l.w.l.w.w.c.x.w.w.>.l.1.>.>.l.l.w.>.>.>.1.>.1.1.>.1.r.1.r.1.1.l.l.1.1.2.l.1.r.l.l.1.l.l.1.z.l.1.5.1.1.1.1.,.>.1.l.1.5.>.>.1.4.l.r.>.1.>.r.>.1.>.1.r.>.1.2.1.1.1.l.l.>.1.1.>.w.>.;.,.1.,.<.1.<.1.5.,.*.*.,.,.*.,.*.*.*...{ { ) R F ~ ;.~ x ) U > > 6 7 4 4 7 4 4 7 4 2 , > 4 e w D R L F [ T r 3 3 6 8 3 4 3 > > 4 > 2 > 4 > 2 4 2 > > 4 > > 4 > > > 4 > > , > > > > > > 4 % p x U I I =.( o.T 3 * , p k 6 * , * * * , , , * = * * * & * = # * % % * = % % * = , = , , % * # % & = & & # # = = & * % & * * % % = * = & = * * * % * % , , e L =.( $.-./ w , , O / =.( _ #.! g e G 2   ",
"> = = = = & = 4 = $ & # # # & & & & = & = & & & = & & = = & = & = = & = = & & = = & & = = = = # # # * * * & * & = = = = = = = & > = = & = & = = = = = ; < = ; = = & = = ; = = = = = < = > * * * > > 6 2 4 6 6 6 7 4 4 4 > * 2 2 4 > 4 > > > > > 4 < < * * 4 4 > > > > < 4 < = 4 6 4 7 6 4 4 6 4 7 < 4 4 N #.] T N T ,.*.,.X.#.*.-.*.*.,.,.,.<.;.;.>.;.;.>.>.>.:.n.HXXX:.;.;.;.;.;.o.*.*.,.;.,.>.>.,.;.,.,.,.,.;.F.0X6XJXF.>.,.<.;.;.1.2.w.>.;.>.>.;.>.>.1.1.1.>.>.>.1.1.>.1.>.:.>.m.b.:.w.r.;.>.1.,.1.>.>.>.1.1.1.>.1.>.>.>.1.>.>.1.1.>.1.r.m.F.P.#XA.@.1.,.l.:.s.#XwX+X4X0Xu.p.rX4XH.4XbX,XtXI.S.rXeXeX8X,XeXeX#X9XtX8XbX,X8XbXbXeXeXeXbXeXeXbXbX,XeX8XeX8X8X8XeX8XeX>X8X7X7X7X7X7X7X7X7X7X7X7X7X7X7X7X7X7X7X7X7X>XeX7X7X7XeX8XeX8X8X>X8XbXeXeXbXbXbXbXeXeXbXnXNXbXnXbXbXeXbXeXMXeX8X>X7X7X7X7XeX7X7X7XeX8X7X7X7X4X7X7X4X4X9X%X4X4X4X4X7X%X7X7X9X4X3X].P.G.4XyXrXP.D.V.D.b.c.c.c.m.b.m.m.p.2X/.y.c.c.c.c.l.x.y.x.l.l.l.c.l.l.l.c.x.x.w.l.r.c.x.x.w.w.l.w.:.c.c.x.l.c.x.c.x.l.x.c.l.w.w.l.l.l.r.l.1.l.w.w.r.>.1.r.1.1.1.l.l.l.1.l.l.1.l.l.l.l.l.l.l.l.l.l.1.l.c.l.l.c.l.l.l.1.l.l.>.1.1.l.1.1.1.l.1.1.,.>.1.l.l.r.>.>.>.l.l.r.1.r.w.c.l.c.w.1.1.r.>.l.1.;.>.1.<.<.<.<.<.,.,.*.,.<.,.,.,.<.,.1.,.,.#.%.,.,.) E h 7 r p 4 6 4 7 6 6 6 7 6 8 7 7 s a e a S -.} #.#.W a 6 8 e 6 6 6 7 4 > 6 4 4 6 6 4 4 4 4 4 4 > > 4 4 4 > > > 4 4 4 > > > > = = = > 2 2 & = * > > 7 < * % , % # O % * , * > & * * = & * = * = * & = = * * & * * * * * = = > * = = * % % % * = = % * = = & & * = = = & * = > = & & = * = = & & 2 6 , / 4.$.=.#.-.=.R d , c =.#.#.{ %.#.X.,.) G ",
"* = > = * & & = & & $ & & # # & & & & * & = = = = = = & = = = & = & = & & = = = = % $ = & = & & & & % & & * * & * * * & * = = = & = & * = & = = = = = = = < ; = = = ; = = = = = < = = * = = > > 2 > > > 6 2 4 > > 2 4 > > > 4 > > > > > > > > > > 4 = * > > > < < > 4 > < = < < 4 6 6 < 6 < 4 4 < 4 4 < 4 e v ] z , W #.} *.*.%.*.*.*.*.;.,.;.<.>.&.;.;.:.>.;.@.:.v.w.+.;.;.%.%.;.o.o.%.;.;.,.;.,.;.;.%.;.,.,.;.>.0.5XLXm.;.;.;.>.;.;.r.1.;.;.;.>.;.;.>.>.1.>.>.1.>.>.1.>.:.1.>.:.m.m.:.>.;.>.;.>.,.,.1.1.>.>.1.>.;.>.,.1.>.>.1.1.>.1.>.1.1.c.n.i.I.(.y.1.5.<.:.i.d.+X+XL.P.q.u.5X1Xd.#X8X8X9Xn.y.5XtX>X8X>XeX7XS.1XtX8X,XeXbX8XeXeX8X,X8X8XeXeXbXbXeX,X8X8XeX8X8XeX8X,X8X,XeX7X7X7X7X>XeX7X7X7X7X7X7X7X>X7XwX>X>X7X7X>X7X7X>XeXeX7X>X>X8X8XeX,XbXnXbX,XbX8XnXnXnXnXnXbXbXbXbXeX8X>X>X7X7X7XeX7X7X7X;X>XeXeX$X%X7X>X7X7X7X7X%X7X%X$X7X%X7X7X7X%X7X4XP.D.F.n.1XyX6XA.m.m.U.m.x.c.m.x.b.b.x.u.rX'.w.c.c.l.c.c.l.l.c.l.l.r.l.l.x.w.l.x.x.l.x.r.w.x.w.x.c.l.c.c.x.b.r.w.x.c.x.x.x.w.l.l.>.l.c.w.w.c.l.w.w.w.r.>.1.>.>.1.r.1.w.l.l.1.1.1.r.1.l.l.w.1.l.c.l.w.w.w.l.1.l.z.l.l.z.1.l.1.4.1.l.l.1.1.1.1.1.r.1.>.l.>.1.l.>.>.r.r.l.1.l.1.1.r.l.c.l.1.r.>.>.r.1.;.;.,.;.<.1.,.,.*.,.%.,.%.*.,.<.,.,.] ~ ) ) W X.| I 4 = > r 1 7 7 8 6 4 4 7 4 4 7 4 4 r r a e e x I S S b j 3 4 6 e 4 4 4 6 4 6 > 7 7 6 4 4 4 4 > 4 > > > 4 > , * > > > 4 4 4 > * > = > * * > = 2 > * > % = # % % * * * * , * * * * * * * * * * * = & * & & > & # = # * * * % * = * % % * = % * % # * * * = & & % * = * > * & & & * * = * % * * & = * O # O c 5.#.$.$.=.$.3.-.{ ( $.#.#.( { X.#.{ %.,.",
"= = = = = = = & & & = = = $ & # * & $ # # # & $ & & & & & & ; = ; = & & = & = & # # & & = $ = = < = * & * = = = * * * = * = = & = = = & = = = = = ; ; = < = < = = = ; = = = = = < = > = = > > > > > 2 > 4 4 6 2 2 2 4 2 4 > 1 = < = > > 4 > 4 > > 4 > = 4 = 7 > 4 4 4 4 = 4 4 & & < 5 6 6 4 = > 4 6 5 4 7 7 8 U W J #.-.-.-.-.*.-.-.,.,.*.<.<.;.;.>.>.>.>.&.:.:.;.+.@.+.;.;.;.*.;.;.;.;.:.;.>.;.,.<.>.>.1.;.1.<.;.;.m.XXr.,.<.<.1.;.;.&.;.:.1.>.>.>.1.:.>.w.>.>.1.>.>.w.>.>.r.>.>.;.:.>.:.w.r.>.5.;.>.1.>.>.w.>.,.;.>.1.1.1.1.>.>.1.5.1.l.>.>.w.u.I.rXD.1.5.l.l.n.d.+XwX#XP.x.y.m.S.s./.eX7X/.c.c.XXrX8XeXeXMX4XA.'.rX8X,XeXbXbXbXeX<X<X<X,XbXeX<XbXeXeX,XeXeXeXeXeXeXeXeXeXeXeX8XeXeX8X7XeXeX>X7X7XeX7X7X7X7XeXeXeXwX7X7X7X7X7X7X>X>X>XeX>XeXeXbXbXbXbXbXbXBXnXbXbXnXnXnXbXnXbX8X,XeX7X7XeXeX8X8X8X7X>XMXMX7X>X7X7XeX7X7X7XwX>X7X7X7X7X$X7X7X>X4X1XP.D.D.m.6XKX1XA.U.m.m.m.b.m.m.b.b.b.b.v.G.v.x.c.c.c.c.c.x.x.l.c.c.l.l.x.x.x.x.x.r.x.c.r.r.r.x.x.c.x.b.x.x.w.r.r.l.w.c.c.x.x.x.c.l.r.l.l.c.l.x.l.w.r.l.>.1.>.1.r.l.>.>.>.1.l.l.l.l.l.l.w.l.w.l.l.c.l.l.l.l.l.c.l.c.l.z.l.c.l.c.w.1.w.l.w.l.1.1.l.w.r.l.1.1.c.>.1.l.w.l.l.l.r.l.1.w.>.w.l.l.1.1.1.c.,.| 5.,.<.;.<.1.1.5.<.<.*.,.,.<.<.*.S a e a e r g 4 4 f z r r f 7 , > 8 6 7 6 7 4 7 e g 6 w s s > , , 3 w N b z 6 6 6 e 4 3 4 7 4 6 4 > > 7 4 4 2 > 2 4 2 > > > > > > 4 > 4 > > > > = > = = > > * * = = * & * * % % % * * = * , * * * * * * = = * & * = & * = & * % * > % * * > = * & = & , & * # & * * # # # & & * * * % % % & * = * > * = * > = = o 9 Q  .h ..,.$.#.=.$.$.=.-.-.=...#.#.#.) ] { *.( ",
"= & = = = = = & = & * & & & & # & = & $ & # # & & # & = & # & & & & & & & & & & = & & & & & & & * = * & & & = = & * * * & & * = = = = & = = = = = = = = & = = = ; = = ; = & = = = & = = & # * = > > 4 2 2 2 2 2 6 > > , 4 = 4 N Q r * > > > > > > = > * > 1 > 4 > > 4 > 4 > ; 5 m h 4 4 7 N M 7 4 = 4 6 9 9 4 f ( #.-.*.=.%.*.*.*.-.*.*.,.,.;.;.<.;.>.;.:.>.:.;.:.;.:.:.;.%.;.;.;.>.1.;.>.>.;.;.>.;.;.;.;.>.,.*.,.*.>.r.;.,.1.;.,.>.;.;.>.:.:.>.:.>.>.>.1.:.1.>.>.>.>.>.w.1.>.1.1.>.r.r.w.;.1.r.>.r.1.>.1.>.>.1.1.>.1.>.>.>.1.>.1.1.1.1.>.>.l.w.u.].].u.4.4.l.c.0.K.rX1XF.Y.r.r.y.n.m.A.7X4Xn.5.5.b.3X7X>X8XyXG.x.m.3X8X,X,X8X8X,X,X,X,X,X,X,X,X,X,XeXeXbXeX8XbXbXbXbX8XbX8XeXeXeX8XeX,XeX,X8X,X8X>X8X8X8X>X7XeXeX7X>X>X7X7X>X7X>X>XwX>X>X>X8XeXeX,XeXeX8XbXBXbXbX8XbXbXbXbXbXbXbXbXeX8X>X8X,XeXeX7XeX7X>X8X8X>XeX7X7XwX7X>X7X7XeX7X>X>X7X>X>X>X4XP.D.D.b.v.4XNX(.n.m.m.m.b.m.b.b.m.b.c.b.x.y.x.c.c.c.c.x.x.c.w.c.r.x.x.l.l.x.x.x.l.x.x.y.x.x.r.l.l.r.x.y.x.x.x.c.c.c.l.r.l.c.x.c.x.x.w.l.l.x.l.l.w.l.w.w.w.1.>.1.w.1.1.>.1.l.1.w.l.r.l.w.w.c.l.1.w.c.c.c.l.x.c.c.c.c.l.c.w.z.c.l.z.l.1.l.w.1.l.c.1.l.1.1.r.l.w.r.1.>.l.r.l.w.r.l.r.1.>.l.w.l.r.r.>.c.~ N 4.,.;.,.*.1.<.,.<.,.,.,.*.*.,.<.*./ b j e 6 g j v ;.~ 9 e r 8 r e 6 6 4 6 6 4 > f E H L W T b c z N b S N z e w 6 6 3 4 2 > 4 4 > 4 > > > > > > > > > 2 > > , * > > > > > > = > = = = > = = * = & & = = % & & % & & % % * * = * & * * = * * * = & * * & & = % * = * * = , , = & & = > > = % * & * & % & & * & & & & % % & * % * & * = = % = > o m UXUXUXu.; J -.,.$.#.-.=.=.$.$.$.=.%.#.{ =.] =.#.",
"= = = < = & = = = & & & & = & % & & = = = & & & & & = ; = # & # $ & = = & = = = ; = ; = ; = & & & & * = * & = * * & * & = & = = ; = = = = = = = = = = & & & = = = = = < = = = = > = ; & 9 k * = 2 > * * , > 4 > 1 4 9 t v I E ) I < > 2 > > > > 2 > > = 4 > > > > > 6 1 4 4 < 9 | I < < 9 ) ..! G r r 7 7 4 t J { { #.*.-.=.-.*.-.-.-.-.<.,.,.;.>.;.>.;.:.:.;.:.>.:.:.:.;.>.;.;.>.;.;.>.>.;.;.>.1.;.,.;.1.,.;.;.<.<.1.>.1.<.1.>.>.>.1.>.1.:.>.;.1.>.;.:.1.>.w.>.1.>.>.w.w.1.1.1.>.>.r.c.>.>.>.;.:.>.>.1.w.>.1.1.1.1.1.w.l.w.1.w.l.1.>.>.>.1.l.1.w.n.n.x.l.l.l.l.x.P.qXi.0.D.x.x.x.F.D.V.7X4Xy.5.5.2.Y.4XeXwX4Xm.c.m.].8X,X,X8X8XeX,X,XeXbX,X,XeXbXeX<XbXbXeXbXbXbX8X8XbXbXbXeXbXbXeX,XeXeX,XeXeXeX8X,XeXeX7XeX>X7X>X7X7XwX>X>X>X7X7XeX7X>XeXeX>X,X,XeXeXeX8XeXnXnXbXnXbXnXbXbXbXbXbXbXeXeX,XeXeXeX>X7X;X>X>X7XeXeX7X>XwXeX7XwXrXtXeX7X%XwX7X>X7X9XP.D.m.m.v.1XPX].n.m.D.D.m.B.m.m.m.c.c.b.c.c.c.c.c.c.c.c.c.x.c.x.c.c.x.x.r.c.x.x.l.x.x.x.x.x.x.x.r.x.r.y.x.c.c.x.x.c.x.x.w.x.c.c.l.l.x.c.r.l.w.l.r.x.l.l.1.1.z.l.1.l.r.l.l.l.l.l.l.l.l.l.l.c.l.l.l.c.l.w.r.c.w.c.l.l.x.c.l.c.w.w.>.l.l.l.w.l.r.1.l.r.r.l.w.l.l.l.r.l.r.l.l.l.l.c.l.w.r.l.l.r.l.w.1.l.I k 1.<.*.<.,.<.,.,.*.*.,.<.,.,.,.<.,.5.5.} x a r x 9 r 9 9 r e N W m e 4 7 4 7 6 4 r H S S x n b W H s e 6 , 6 6 e 6 6 6 6 > 2 7 7 4 6 4 4 4 2 2 4 > > > 4 4 4 > > > > 2 > > > > < > > = = = = = = & = = = % % & * % & & = * * * * * = * = = * * = & = = * & = * = = * * * * = * = * # . = = * & * & & & = & = & * * * & = * * * = * * = > & = = # l PXUXUX' $ = j W ,.=.-.=.4.-.4.4.! E #.] *.%.X.| ",
"& ; < = & & = & & & & & & $ & # # # & & & = & # & & = = $ & = & = = & & = & = = & & & = = & # & & % & & * * & & * & & & = & = = = ; = = = & = = & = = = = $ = ; = = ; = = & & & = = = # I o.< = > > 9 f h t h h v v E ] ~ I m 4 = , > > > , > > > 2 * * > > > > 4 4 > 4 > > 4 > 7 I E x k U { { X.( W N x f U { #.[ #.#.-.-.=.*.-.*.*.*.*.*.2.|  .<.<.>.;.;.;.@.;.:.:.&.;.:.;.:.;.:.:.1.;.&.;.,.>.;.>.;.;.,.<.;.;.1.>.;.1.<.,.1.1.>.1.1.,.;.;.,.>.>.>.;.,.>.>.w.r.>.>.w.w.>.w.:.1.:.1.x.@.w.r.>.r.>.1.>.>.w.1.>.1.>.:.1.l.w.w.w.w.l.l.1.1.>.1.l.l.r.l.l.l.4.l.1.w.n.P.V.A.0Xn.>.y.).m.s.;X#Xy.<.4.,.b.2X$X7XI.x.b.b.].7X;X,X,X,X,X,X,X,X,X,XeX<XeXvXvX,XbXbXbXeXbXbXbXbXbXbXbX8X8X,XeX,X,X<XeXeXeX,XeX,X8XeX8X7X>X>XeX>X7X>X>X>X>X>X>X>X7XeX7X>X>X8XeX8XeX>XeXeXbXbXbXbXnXbXeXbXbXbXbXbXbX8XeX,X8X8X,X>XeX>XeX>X>X>XeX>X>X7XrX(.K.2X7X%X#X%X4XI.P.F.m.b.m.v.A.5XD.v.m.n.n.U.&.N.m.b.b.x.x.b.b.x.x.c.x.x.b.x.x.x.c.x.x.w.x.x.r.c.x.w.r.x.x.r.x.x.r.c.x.x.x.y.r.x.x.r.r.c.x.x.r.x.x.w.l.r.l.x.w.w.x.r.r.l.1.) ) >.r.w.r.1.l.l.r.x.c.c.c.l.l.l.l.l.c.l.r.>.w.r.l.l.w.x.c.l.l.l.w.c.l.w.l.r.w.l.w.>.l.>.w.r.l.w.>.w.x.w.r.w.r.w.r.l.l.l.l.w.w.l.l.>.1.r.;.~ m %.%.,.<.;.*.<.,.*.,.*.,.*.,.%.%.1.1.,.<.<.X.c F I 7 > 6 6 r r f 4 2 4 8 4 7 4 7 4 > 3 3 , 3 3 x f , > 7 4 4 6 6 > 4 7 3 3 6 > 4 6 > * * > 4 > > > > > > 2 > > > 4 > * > * = > > > > & = = = & & = > & & & * % % % % & * % = * * & * * = = * * * = = * > & & = & > = & * % = = = # 5  .q & = & & * * & & & & & = & & & * & & * = = = & = * % = > $ t O.^ $ > , O O p f f e j x M k > & 8 < 6 x %.o.",
"= & = & & & = & = & = & & & & & # # & & & & & & = & = & = & = = = = = = = = = & & & = $ & & & & = & * % = = = * & = = = & = = = = = = & & = = = = = ; ; = = = = = = ; = & = 4 < < = = * & = = 4 4 > j m m t m o.1.F k v 9 = * = > > 2 > > 2 2 > > 4 = & * > < > 4 4 4 > > > 4 > 4 6 I { ] ! { / { X.%.{ / ( =.{ #.] #.#.=.=.-.=.-.=.-.<.<.-.*.~ ..<.*.o.;.;.>.@.:.:.:.:.>.:.w.:.>.>.l.1.>.;.1.;.>.w.1.;.,.>.1.,.>.>.1.1.1.1.>.r.c.,.o.,.1.>.;.>.>.>.1.;.>.1.r.1.>.:.;.>.z.w.r.w.w.:.x.y.0.w.w.>.w.w.r.>.1.w.1.w.r.1.1.>.1.r.l.w.r.r.l.r.l.r.z.l.l.l.c.l.l.l.c.l.l.w.v.G.qXPXn.w.y.m.v.p.7X4Xu.5.5.2.F.rX$X7X/.b.N.b.}.8X;X,X8X>X>X,X<X,X8X,X,X,XbXbX<XeXeXbXbXeXbXbXbXeXbXbXbX,XeXbXeX,X<XeXbX,X,XeXbX8XeXeXeX8XeXwXeXeX>XeX8X>XwX>X7X>X>X>X7X>X7XeXeXeXeXeXeX,XbXbXbXbXbXbXbXbXbXbXbXbXbXeXbXbXeXeXbXeX,XeXeX,X,X,X,X>X<X7XrXF.n.P.rX9XL.#X2XV.A.D.m.m.m.b.n.u.v.v.m.b.n.XXm  .T.b.m.b.m.b.m.b.c.c.c.c.m.b.b.b.y.x.b.b.c.x.c.x.x.r.r.c.b.x.x.x.c.l.x.c.c.x.x.x.x.x.b.x.c.x.x.x.c.x.c.l.x.x.r.l.x.x.x.x.c.1.1.w.l.x.l.x.c.l.c.l.l.r.w.l.c.c.c.l.c.c.w.w.c.c.c.r.x.x.c.x.c.x.x.x.x.x.x.r.r.x.l.w.r.l.c.x.r.w.r.r.x.r.x.l.l.w.x.x.l.x.x.r.l.x.c.r.l.l.E m m ;.,.,.,.<.<.,.,.,.<.*.*.,.<.,.#.~ o.| *.*.*.( G F F G F M x , 1 2 6 4 6 8 7 7 8 4 7 4 4 7 8 > r r 6 4 4 6 8 6 6 6 7 8 3 6 6 3 6 2 2 N N > > > 4 > 4 > > > > * > 7 > > > = > = > > > * = = > 8 4 $ = * > * = % * * % & * % > * = = * * = > = % * = 4 * = * = & * * * % * * > * = . G.UX' . > = * = = & & = = = = & * & = * * & * * > * > * * * * = = . $ > & * * % & o % # & o # # = & # # $ . & & ",
"= & & & = & & = & # & & & $ $ # & # # & # # & & & & & & = & & = = & = & & = & & = & & = = $ = $ & & & & & * = & & 4 9 4 & & = = = = & & = & = = = = = & ; = = = = = = = = ; 4 4 = & = = = * > > = & & o * * < f h < = % * 2 > 2 2 , , > > > 2 2 2 > = * * * > > > 1 > > > = > > 4 , 6 g W { { { -.#.X.) #.[ { =.W H #.#.J J =.#.#.-.{ W ( <.X.! ,.] x E ;. .&.@.:.;.:.>.:.:.>.1.w.>.1.1.;.;.>.>.w.>.:.;.>.;.>.>.;.,.1.1.1.>.1.w.l.;. .;.>.;.>.>.>.:.>.1.1.w.1.>.>.:.1.:.1.l.1.>.>.y.XXw.:.w.:.w.w.:.1.>.:.>.1.w.w.w.>.:.w.w.r.r.r.w.r.r.>.l.l.1.l.z.l.l.1.l.1.l.r.>.r.q.A.HXq.w.w.x.b.0.W.1X0.5.<.1.Y.rX$X#X/.x.c.b.P.%X:X;X>X>X>X;X>X,X>X:X>X,X,X,XeX8X,XeXbXbXbX8XbXbX8XbXbX,X8XbXbX,XeX,X<X,X,X,XeXeXeX8XeX8XeX7X7X>XeX8X8X7X>X8X7X>X>X>X7XeXeX8X8XeXbX8XeXeXeXKXNXbX,X,XbXbXbXgXvXbXaXbXbX,XbXeXeX<XeX,X8XeX,X:X,X:XeX7X1XG.G.D.3X#XH.#XrXP.n.m.m.n.m.m.m.b.m.b.m.b.y.`._ h OXb.b.m.b.m.b.b.b.x.b.x.x.b.b.v.v.b.m.b.x.x.x.x.c.x.w.r.c.c.c.x.c.c.c.r.x.x.c.x.x.x.x.x.r.r.x.x.x.x.c.c.c.l.x.r.r.x.c.r.c.c.c.x.x.y.c.x.x.x.l.x.x.l.c.l.r.c.x.c.x.x.c.l.w.c.x.x.x.l.x.x.x.b.x.x.x.r.r.x.l.c.c.w.w.c.c.c.w.w.r.w.w.l.c.l.l.l.x.r.x.w.x.x.x.x.l.l.w.l.! 1 r %.<.%.*.*.<.*.*.*.,.*.,.;.;.<.{ A N F ! ! ) X.x , x %.{ x f 4 6 6 6 4 4 4 7 4 4 7 6 > 6 , > 8 1 > 4 4 7 4 4 3 3 8 6 , 6 > 6 6 2 # r 4.W > > > > > > > > * = * * > 4 > > = = = > * = = = = * k G x M 1 % # * # * * * & # % * & * = > * , = = = > = = = = * & & & & & % * * = > = & @.A.h # = & = & = = = & = = & & & & & & & & # * = = * & * # & * = * > & * # % & * % = & * = = & = & $ * ; # o * ",
"= $ = = = & & = & # # & = # & & # # & & # # & & & & & & = & & = = = = = = = & = = = = = = = = & & & & & = = = * = = 6 < * = = = ; = = = ; = < ; ; = = = = = < = ; = = = < = = = = = > * > = > * > > > > 1 > > & & = > > > > > , 2 , , > 2 > 2 > = > 2 , > * > > > 2 > > > = > > > 4 4 = > 4 f x F z f x [ X.#.W e D 4.=.s d =.} $./ f = v { N h l 7 9 ) ,.+.+.:.>.:.0.0.w.>.w.>.>.:.:.:.>.>.>.1.w.>.;.>.1.>.1.>.>.1.1.1.1.1.l.r.l.1.;.1.1.>.>.1.1.>.1.1.>.;.>.;.r.w.r.>.w.w.r.r.>.w.m.0.w.w.w.w.w.w.w.>.w.w.r.w.w.w.>.r.l.r.r.x.x.l.l.r.l.w.w.l.c.l.l.l.l.l.l.1.r.r.l.w.D.Y.y.w.c.c.r.0.1X/.0.5.c.2.x.F.W.%X}.b.b.b.D.2X>X;X$X$X>X$X>X%X>X$X7XeX,X,XeXeXeXeXeXeXbX<XbXbXbX8XbXbXbX8XbXbXbXeX<X,XbXeX<XbXbX8X,XeXeX8X,X,XeXeX8X8X>XeXeX7XeX>XeXeXeXeXeXeXbXeXbXbXKXS.#XNXeXeXbXbXaXbXbXbXbXbXbXbXbX<X,XvXbX,XeXeX<X:X<X,X7X4X].F.G.D.}.1XH.(.6XG.m.m.m.m.b.m.m.n.m.b.b.b.b.U.b.# B.U.b.m.m.m.b.b.m.m.m.x.x.x.b.b.m.m.b.x.x.b.x.x.c.x.l.r.x.x.r.w.>.r.l.x.c.x.w.w.x.w.x.r.x.x.c.x.y.w.w.x.x.c.c.x.c.x.x.c.x.x.x.x.b.b.B.b.x.x.x.l.c.c.b.c.c.x.c.c.b.c.b.x.c.b.c.r.x.x.c.x.c.l.x.x.c.x.x.x.c.x.w.w.r.:.l.r.y.r.x.r.x.w.1.>.>.l.x.c.x.r.l.x.c.l.c.r.w.l.1.v j *.,.*.*.,.,.,.,.,.;.,.1.*.,.<.*.W W X.T x T ) N 6 6 p r > 4 8 8 > 4 7 8 4 6 6 7 6 6 p x g e > r r 8 7 6 6 r 6 8 8 6 6 8 3 6 2 8 j { ~ 7 * > 2 2 > > > > = 4 * = 4 > % > = * > > = > = > = > > 9 G #.F e f v r = % = & = 7 , * = * > > > = = = = & > = = % * & & & & # = * , > > & . . # & = = = = = ; = = = ; ; = = & ; = = & = = * & % & & & * & * = * & & * & % % * = % & * & & & & = $ $ $ $ * ",
"$ = = & = = = & & # & = # $ # # & & & & & # $ & & # & & & & $ & = = = = & & = & = & = $ = = $ = = # & & . $ = & = * & & * = * & = = = & = ; < = = = = = & = = = & = ; = = = = & < * * = = * = = > > > = 4 * > > > > > , 2 , , , , 2 , , > > = = > * , > > > * * > > > > > > > > > > > 4 2 & * # = & = > f x x 7 = M 4.( , w [ } / e 6 > 7 7 $ o o ; N ! |  .:.+.>.w.w.:.w.w.1.1.>.>.w.>.1.>.:.>.>.;.>.>.>.>.>.>.>.>.w.>.1.w.w.r.>.1.w.>.1.1.1.>.w.w.>.>.>.>.1.w.>.w.1.w.w.w.r.w.w.:.:.w.r.>.w.w.>.w.y.w.r.w.w.r.r.>.w.1.r.c.x.w.r.r.r.>.w.w.l.l.l.l.l.1.l.1.r.>.1.r.l.w.m.U.w.w.l.r.x.y.oXA.>.1.5.5.>.n.#XW.F.v.c.c.w.P.#XL.I.#X#X+X$X#X$X%X7X>X,X,XeX8XeXbX8X,XeXbXbXbXeX,XbX,X<X,X,XbXbXeX,X,XbX,X,X,X8X,XeX,X,X,X,X,X,XeX8X;X8X>X7XeXeX,XeX>XeXeXeXeXeXbX8XbXKXl A.KX,X8X8XeXbXbXnX,X8X8X,XvXvXvXvX,X,X<XeX>X>X>X&XeX2XP.P.D.n.F.G.G.F.F.A.m.m.m.n.b.m.b.m.b.v.v.m.b.n.y.Y.1 P oXv.b.m.b.b.b.m.m.b.x.b.x.x.b.b.v.y.y.b.x.x.x.x.x.c.r.y.r.x.w.w.w.x.x.x.x.w.r.c.c.x.w.x.x.r.c.c.x.x.y.x.x.x.x.y.b.c.x.x.x.x.x.y.m.m.x.r.c.c.l.l.c.c.b.c.x.x.c.b.b.x.x.c.c.y.y.x.x.x.x.w.r.x.x.x.x.x.x.x.x.x.x.x.l.l.w.x.y.w.x.x.>.;.%.*.;.c.c.r.r.r.l.l.l.w.w.;.;.1.f 9 ,.*.%.,.,.<.%.%.%.,.;.;.<.5.*.o.] J J v r r r s 8 8 8 7 9 8 2 4 7 6 4 4 7 8 4 4 > 6 7 x ] T b E D 3 e e , e 8 6 , e 7 3 > 7 j X.*.E > * > > > > > > * > > = > > & 7 p & * > * = > > = = = 4 > > , g R ) =.=.I , O * o 1 j # o % * # # > > 4 = 6 f 7 * * * & & & $ & % # * = # & & = = = $ & & < = ; = = = = & ; 4 ; = < < = = = = & $ # # & & & & * & & & & & & # & % & & * # * & & & * * $ $ $ $ ",
"$ & = & = = = & & $ = ; = $ & & & & & & & $ = & & $ & & & & $ & = = = = $ $ = = = = = = $ = ; & = ; = $ _ h $ = ; = * * = & = = = = = & = & & & = = < = = = = & % & = = * > = > > > > = * = > > > > > > > > > > > * > > , > > > > , > > > > = > 2 2 4 > > > > > 2 > 2 > > > > > > > 4 = > > 4 > > < 6 = > % > 4 4 7 x 7 = = e e 6 > 7 7 4 = 9 9 g J ] W ) | ;.&.:.:.w.w.w.>.:.>.w.w.r.w.w.>.>.w.>.>.1.>.1.1.w.1.w.x.l.>.w.l.l.w.w.w.r.w.w.w.>.>.w.w.r.w.r.r.r.w.w.w.r.w.l.w.w.w.r.w.r.w.r.w.w.w.r.r.r.>.w.w.y.r.w.r.l.w.r.y.y.y.x.r.x.l.l.r.c.l.l.l.r.l.l.l.r.r.l.w.x.c.c.r.x.c.l.l.c.x.y.w.x.c.l.5.l.Y.6X#Xn.x.c.l.y.P.K.i.C.#X$X#X$X$X$X$X%X7XeX8XeX7X8XeX8X>XeXeXMXbX8X8XeXeX,X,XbXeX>X,XbXeXeXeXbX,X8X,XeX,X,X,X<X,XeXbX8X>X8X>X7X7X8X8XeX8XeXeXbX8XeXbXbXVXH.l JXtX7XeXeX8XMX8X>X$X$X8XbX,XvXvXvX,XvX<X7X#X4X>X;XwX/.D.'.m.m.D.F.D.F.m.D.n.m.m.m.n.m.m.m.m.b.v.m.n.m.v.U.Q   U.D.n.m.b.m.m.m.b.b.b.m.x.b.x.x.y.x.v.b.b.b.b.v.x.b.x.x.x.b.c.b.x.b.x.c.b.x.x.b.x.b.c.b.x.b.b.b.b.b.c.b.b.b.c.b.x.c.x.x.c.b.x.x.x.b.x.x.c.c.x.x.x.c.x.x.b.b.c.b.m.c.x.x.c.x.x.c.x.x.x.c.x.b.x.x.c.x.r.y.y.x.x.c.x.x.x.x.y.x.c.c.1.*.*.,.%.c.b.c.r.c.w.l.l.w.>.>.l.1.h h ,.;.*.,.%.%.X.X.X.*.*.,.,.<.%.<.*.~ g 6 p x p a 6 7 r r 6 8 6 6 6 4 4 8 6 6 6 8 r 7 > > x / / =.{ D L H H j e 7 6 S x 4 j ] =.#.b * > 4 < 4 = 4 > > > > > > > > > * j 6 * = > < = > = > = 4 > 4 , > , x / =.$.( W E S I I x z z f x A R W ( W F v 7 * * * * & & & & & & * = # % * = & = & = & 4 < 4 = = ; = = ; ; ; = = & < & & = = = = & & & & * * * & & & & & & = & & # & * & & = & & * * $ $ * ",
"& $ & & & & & & = & $ = & # & & & & & $ & & & & & $ & & = & & $ & = = $ $ $ = = & = = # = $ & $ $ = % q UXu.. 1 = = 2 * * = = < < = * * * * * * = = = > = < > & & & & & * & > = = = > * = * = > > * = = > > > = * > = , > > > , , , > > > > 2 = > 4 2 2 > > > > , > > > > = > > > > > > = = < > > = = > 4 < 6 4 6 1 = & > = = = < 4 7 = 5 7 f G ( ! ) ( ] ) ..%.| | w.0.w.o.o.;.l.1.>.w.w.w.w.>.1.>.>.>.1.w.l.>.>.>.l.c.l.l.w.>.w.>.>.w.l.>.1.>.>.w.r.w.w.w.w.w.r.w.w.w.w.w.w.w.x.r.r.w.w.w.w.>.w.r.>.>.w.w.w.w.w.w.r.w.w.r.x.r.w.y.c.x.r.w.w.c.l.w.x.r.w.c.c.r.x.w.r.x.x.w.l.r.x.r.r.r.w.r.c.l.l.1.r.D.K.#Xu.w.c.w.w.D.A.i.S.1XW.#X$X#X$X#X4X4X7X7X7X7X7X7X7X>X7X8XMXeX>X>XeXeX,X>XeX>X@X>XeX8X,X8XeX8X,X:X,X<X,X,X,XeXeX8X8X,X>X>X7X>X;X8X,XeXeX7X8XeXeX8X,XAX^ ^ PX7X7X7X7X7X7X7X$X#X2X7X>X:X;X;X,X,X<X7X1XP.1XL.%X#XS.D.F.m.v.m.G.n.D.D.D.m.m.n.m.m.n.m.m.v.m.n.b.m.b.b.v.m.. Y XXu.m.m.m.b.v.v.m.b.b.b.b.b.b.b.m.b.v.m.m.v.b.b.x.x.b.x.x.v.x.v.x.v.b.x.b.x.x.b.b.v.v.v.b.x.b.x.x.b.b.b.b.x.x.b.x.b.b.x.c.c.x.b.x.x.c.c.x.c.x.c.m.b.b.x.b.b.b.b.x.x.c.x.c.x.x.y.b.x.x.x.x.b.c.x.x.r.w.x.x.r.r.x.x.y.r.y.x.c.w.;.<.*.%.%.r.x.c.l.w.l.l.1.l.o.o.,.S q 7 I *.X.X.%.X.#.*.X.| X.*.{ ! E ) <.<.R b e x p , 8 8 6 8 7 6 2 , > 6 2 6 4 > > 6 T W N A L W D R { / / / } c e b M #.! F ( =.I e % > > 4 * > 4 > 4 4 = > > > * > > * & * * > * = < = = > = > = = 4 4 , , , c N ! { $.=.=.} =.=.$.} 3.=.3.3.4.( r > > * = & & & & & & & & & % & * % & * & # = & $ $ ; = = & ; = = : ; = ; = & & # # * & # & & & & & = & & & & & # & = = % # * & & & & & & $ * $ $ * ",
"& & & & $ # & & = & & & & & & & & & & & & & & & & $ & = = = & $ & & = = & & = & = = = & = & & & = = = 5 R.Y o 4 > = = = = = = & = = = & = = * = = = > > = * = = ; = = = & * > = > = = > > = = > > = = > > > = = = = > = > 1 4 > , > 2 > > > * = , * , = > 2 > > 2 > > > > > > > < > > 4 4 = = 4 4 > = < 4 < 4 4 7 4 4 < < < 4 4 6 1 7 9 9 & 1 T ! W ( ] ..] X.o.| | >.w.r.o.| %.1.w.l.w.r.w.w.w.r.w.>.w.w.:.>.:.>.:.r.w.l.>.>.r.l.1.1.1.>.1.>.w.w.>.w.w.w.w.l.w.w.w.r.r.r.w.x.x.w.w.w.r.r.w.r.w.w.>.w.w.r.w.w.y.x.w.y.r.r.y.x.x.x.x.w.w.w.r.c.w.l.r.r.r.b.c.x.r.l.x.c.l.x.r.x.x.c.r.l.r.l.r.x.x.c.l.w.V.Q.W.t.c.c.r.r.v.D.p.I.4X$X#X$X#X#X2X4X$X$X$X4X7X7X7XwX>X7X7XeX7X>X>XeXeXeX7XeX>X$X>X7X,XeX8XeX7X>X>X7X8XeX,X,XeXeX$XeXNX8X;X7X$X$X>X8XeXeX>X7X7XeX,XeXeXi P.tX7XwX7X7X4X7X7X9X7XwX$X7X%XQ.Q.,X,X,X#X].G.].f.%X(.V.D.m.n.n.D.F.D.D.A.A.D.D.m.D.m.D.m.n.m.D.n.m.n.m.m.b.).m O y.u.n.v.b.v.v.b.m.n.m.b.b.b.m.b.b.b.m.m.b.v.v.b.b.v.v.v.b.y.y.x.b.b.b.b.b.b.b.b.v.m.m.v.v.b.b.b.b.b.b.b.m.b.m.b.b.m.m.b.b.b.m.c.c.b.b.x.c.b.b.b.b.m.m.b.b.b.b.c.x.c.b.c.c.v.y.x.m.c.w.>.c.b.b.x.y.y.c.x.x.x.x.x.c.x.x.y.y.r.r.,.,.,.*.;.x.c.x.1.>.l.l.1.l.;...) r 7 7 F X.%.#.%.%.%.*.#.X.#.{ T T J W <.;.;.<.~ I j r 8 r 6 r r > r p 6 r 7 6 > 7 4 > 6 x J } 5.[ A c x n L W ( W R X.( / S b g 8 = > = 4 * > 4 > > > * > > > = * > > > > * > = > = = = > > > = = = 4 * > 2 4 2 , % , 3 n L / ( [ ( [ } } W R W F e , , 4 & = & & & = $ & & = & & & ; = = = = = ; $ t h $ ; ; ; ; ; ; ; ; ; 4 = = $ $ % = & % # & = & & * & & & & & * % = # % & & & * % & * & $ $ $ $ $ ",
"% & = # # $ & $ & & & # # & & # & & & & & & & & & & & & = = = $ & & = & = = & & = = = = & < = $ & & = = $ $ = = > * * = = & & % = = & * = * * * * = > = & * = & = > > & * = * > > & * = = = < = = = = = > > = * = * = = * o # 2 > * > > > > 2 = = = * = 2 > > > > > > > > > > > > > 4 > 4 > > < > > 4 > > 4 4 < 1 4 6 = = = 4 6 4 = = 1 9 < b ! ( ! ( ( ( ] ) X.X.] &.r.>...| ..%.>.w.w.w.w.w.w.w.>.>.1.>.>.1.r.l.r.>.l.w.r.r.w.w.l.>.>.1.>.r.>.>.w.w.1.w.>.>.x.x.w.r.x.w.>.w.r.w.w.r.w.w.w.w.w.w.w.r.w.w.w.w.y.b.b.y.w.y.y.y.x.x.y.r.r.x.r.w.x.x.w.r.r.r.y.w.r.x.r.x.x.r.x.c.y.x.x.l.w.x.r.w.l.x.l.w.P.KX4Xq.l.l.x.w.q.n.y.P.wX%XQ.#X#X#X2X4X$X#X$X4X4X4X7X4X7X7X7X7X4X>X$X7XtXeX7X>X%X7X%X%X>X7X7X>X;X7X>X%X$X>X7XeX7X$XL.4XPX>X$X$X$X%X$X>XeXwX$X#XQ.7X;XbX7.l JX$X4X9X9X7X9XwX7XwX7X7X>X>X+XW.$X&X:X7XP.Y.Y.F.A.^.P.n.F.D.b.D.n.D.D.m.m.D.m.n.m.n.m.D.n.D.n.m.D.m.v.m.m.v.n.:.o l v.m.n.n.v.b.b.n.m.m.v.b.b.b.b.m.v.v.b.v.v.m.v.v.v.v.v.v.v.v.x.v.b.v.v.b.v.b.v.b.n.b.v.v.b.b.b.b.b.b.b.m.n.b.b.m.v.m.m.m.b.m.b.b.x.c.b.b.x.b.b.x.b.m.m.b.v.m.b.b.x.x.b.b.y.u.v.c.1.;.%.>.b.x.y.x.y.x.x.x.x.x.x.y.y.x.r.r.w.1.*.%.,.,.<.l.x.>.;.>.1.>.2.<.+.;.<.) x I X.( { #.X.%.#.#.#.%.X.T b E ! b F <...) X.J 6 p 6 6 8 9 e G W F 6 4 9 8 4 4 4 6 , > e H W A c c e r W -.( ( F S x e , 2 , > > 4 = * < < > > > = > > > * = > = > * > 2 2 = * * = * = * * = < = = < = = 4 > 2 2 , * 2 , e n H D S a w > o , e , 2 > * & & * & & & & = # & & = & & & & & & = = = B Q & = ; ; ; ; < ; ; ; ; ; = $ & % % & & # # # & & & = * * = & & # # & * % % & % & & & & $ $ $ # $ ",
"= = = $ # & & & & & & # $ & & % & & & $ = & & & & & & & = = = & & & = & = = = = & $ $ $ & & & & = & = = = = = = = < > & < < = = 4 < * * = = = * * > > * & = > = * = = > > > 4 = * * = * > = = * = = < = > * > * > = > = > U k & > 2 2 * , > 4 2 2 2 = , > > 2 > > > > > 4 > > > > < 4 < > = > < 4 < 4 4 < 4 6 4 4 6 4 < = 4 < 4 7 j N c M T ( / / ( { ( ] ] ) X.X.) >.y.w...X.X.*.*.w.r.w.r.r.w.r.w.r.w.w.w.w.r.l.r.x.l.x.r.x.w.x.r.w.w.>.w.r.w.w.r.r.w.r.w.r.w.w.w.r.w.w.>.w.w.w.w.r.w.r.x.y.w.r.y.y.w.w.y.y.0.y.x.x.y.x.y.x.x.x.y.y.v.b.x.x.x.x.x.x.r.x.w.r.x.c.x.x.x.x.c.b.x.c.x.x.x.x.y.x.r.r.x.x.u.s.p.q.x.l.w.x.y.v.u.S.#X>X>X#X^.#X2X4X4X$X2X4X4X4X4X%X7X7X7XwX7X7X$X7X7X7X$X7X$X7X%X%X%X4X%X%X$X7X%X$X$X%X$X7X4X$X#X$XwX$X$X4X#X%X$X7XwX7X2X#XL.$X@XNXy ^ KX4X4X9X9X9XwX7X7X7X7X7XeX7X#X#X;X&X,X4XP.Y.Y.F.F.P.F.D.F.D.m.D.D.D.D.m.m.D.D.D.D.D.m.m.m.F.n.m.n.n.n.m.m.D.u.b., 1 m.D.m.m.m.m.n.m.m.b.n.m.b.m.b.b.v.b.b.m.b.n.b.b.v.b.m.n.b.m.v.b.b.v.b.b.b.m.n.m.b.b.v.m.b.n.m.m.b.m.D.m.u.v.b.m.b.m.m.m.b.b.m.m.b.b.m.m.b.m.b.b.b.b.b.m.m.b.m.m.b.b.b.v.v.v.b.x.,.*.*.1.l.b.x.b.x.x.b.c.x.x.x.y.x.x.y.x.w.1.,.,.%.,.*.&.w.>.;.2.>.>.r.4.o.<.l.X.N N I ( X.*.#.*.%.#.%.*.X.I v E ] x p I ~ %.J x j f r f 6 m ! 5.N , 4 6 4 4 7 6 > 4 6 r 6 r e c T H e e f v e e 2 > > 6 4 4 > 7 > > = > 4 > < 7 = 4 > < = = = < = > > > = > > > > * = < = > > 4 < < = < > 6 = = 2 2 2 4 4 e e 3 , > % % o % g z > , , * * = & & # # # = & & & = & = & & & = # = & . # = ; ; ; 4 ; ; ; ; ; ; ; = & & & & * & # & & & & * % * & * % # # % & = & % & & * * & & & & $ # * ",
"# & & & & & # & & # # # # o & * % # & & & & & $ & & & & & & & & & & & & & = = = & & & $ & & & $ & & & = = = = = ; = = = = > & 4 < = * & * > > > > = = = = = = = = * * = = > > & & * = * & = > & = * * = > = > * # 4 1 = = Q m # > = 2 > > * > 2 2 * > > * > 4 > 2 > 2 > > > 4 > > < > = > & < = < 4 < < 4 < 4 4 6 1 1 < 4 4 7 1 1 E 5.{ ( ( ] ( ( ( ( ( ( ! ) ) ) ) l.y.>.| { *.#.X.;.:.w.w.r.0.w.x.w.r.w.w.w.w.w.w.l.w.w.w.w.y.w.x.l.:.w.1.l.r.>.>.x.y.w.x.r.w.w.r.w.w.r.x.x.w.r.w.w.r.x.x.r.w.y.w.y.w.0.y.y.0.w.w.x.y.y.x.y.y.y.y.b.y.y.v.x.y.y.y.y.v.b.x.x.y.x.b.b.y.x.x.x.b.b.x.x.x.x.y.x.y.x.w.x.0.0.0.x.r.r.w.x.y.y.v.i.J.,X>X#XK.I.4X4X$X4X$X4X7X4X$X%X$X7X9X9X7X%X%X%X$X$X+X%X$X$X$X4X$X$X$X%X$X$X$X4X$X#X$X2X#X2X#X#X$X#X#X2X#X#X#X$X4X2X#X2X#X#Xf.JX- V.yX$X9X4X4X9X4X9X7X9X4X7X4X2XK.K.$XeX7X/.G.D.F.F.A.F.D.F.D.D.D.n.D.D.n.D.m.A.D.D.D.D.m.A.A.n.n.A.n.n.m.n.n.D.u.x., > w.m.b.m.m.b.b.m.n.m.b.m.b.b.b.b.b.m.b.n.b.b.n.m.y.v.m.b.v.b.b.b.v.v.v.b.b.v.m.n.n.m.b.m.b.n.m.m.b.b.U.m.b.n.v.b.b.m.m.b.b.m.b.m.m.m.x.b.m.b.m.b.b.b.b.b.b.m.b.m.b.b.x.b.u.u.b.>.;.<.-.,.l.x.x.v.b.b.v.x.x.y.w.x.x.y.w.y.c.1.*.%.%.#.o.;.w.1.%.;.w.>.;.l.R U %.t x 2 c ..) { *.#.#.%.X.X...W b j ! U r e f U z e e x ! ! M I E I 8 4 6 7 1 6 2 > 4 6 4 7 p a e g n e 3 6 4 > 4 6 6 7 4 7 6 4 4 > 2 > > 4 = > > > 4 > > > = > = = > > = = > = = > = > > < > = * = > = * > > = 4 4 # o o & 7 r 2 6 6 , # = r E S , * * * * # % % 4 v m 4 & & & % % = = & = & & = = = < ; < = = & ; = = ; ; ; ; = = & & & * # $ = 6 > # % % # # # # & * # # % # * * * * % & & & & = & $ # ",
"# & & & = & & & & & & = = $ & = * & = & & # & & = & & & & & = & = & $ = = = = = = = = & & = = = = = = = = = = = < = > = < = > < 4 * = * = & > = * * = = < = > > > * = = > * * & & = > = = * = > = * > ; = = > > 7 r 7 > * . . = 2 * > > , > > 2 2 , > = 2 > > , * > 6 4 4 4 > = = * 4 > = = < 4 < 4 > 4 6 4 6 6 7 4 4 = = & ; 4 6 1 T X.( ! ( ( [ ( { ] ] ) | o.*.o.;.o.;.o.{ X.%.%.%.;.x.v.x.w.w.w.c.w.w.w.r.w.r.r.y.w.w.r.x.x.x.r.r.r.w.x.x.y.w.>.w.w.w.>.w.w.x.w.x.w.x.y.x.x.x.r.y.w.w.w.w.y.x.y.q.y.y.x.y.w.y.x.x.x.x.y.x.x.y.y.y.y.y.y.y.y.b.x.v.x.b.b.m.x.x.b.x.b.b.x.b.b.v.x.x.b.b.x.x.r.y.r.r.y.x.y.x.r.x.x.y.y.b.v.u.#XAXeXS.A.G.2X4X4X7X$X4X%X4X%X4X4X7X4X%X$X%X4X4X%X4X%X%X$X$X$X%X$X$X$X4X$X$X$X4X2X$X#X2X$X2X2X#X#X2X#X2X#X#X#X#X#X2X#X$X#X4Xe.S.7 i.JX$X9X4X4X9X7X9X%X9X9X4XI.P.G.P./.6X1XF.F.F.F.G.D.D.G.G.D.F.D.D.D.D.D.D.D.D.D.D.A.A.D.D.A.A.A.D.m.m.n.m.m.n.m.y.= < w.U.n.b.v.v.b.b.m.D.n.m.m.n.b.m.m.m.n.m.n.n.n.n.n.n.v.m.n.n.n.n.n.n.b.m.n.n.n.n.m.D.n.m.m.m.m.m.b.v.n.m.m.m.n.m.m.m.m.b.b.m.m.m.n.v.v.b.n.m.v.b.b.n.v.m.b.m.n.v.n.b.v.n.v.b.c.>.%.*.*.,.c.c.b.x.b.b.v.b.x.y.y.v.x.x.x.x.l.1.*.%.%.,.X.1.c.l.;.>.c.>.1.l.N N 1.U N r F *.] ..*.#.%.%.X.X.X.X.J v U U v v e x N N z F ) E v x 1 7 8 r 4 6 6 7 6 4 4 7 6 e 8 8 e 3 6 6 3 8 6 7 7 6 4 6 6 4 4 7 4 > 4 4 > > > 6 < 4 > < 4 > > < > = < < = * & * > > = > > = & & & * > = > > > < > & h v p 9 > % , 2 # , N #.[ c , * > , % 6 e f r I ..U = % = = % & & = = = = = & & & = = ; ; ; ; = ; ; & ; ; ; ; ; = & & & & & & 4 = % # # % # & * % * & % % * = * % & * * & & #   o $ # ",
"& # & % # & & = * & & & = $ O = = & # = = & & & & = & & & & & & & & & $ = = = & = & = = = & ; = & = = = = = ; = = < = = = * = = & = < & & & & & = & & * = < 4 > = * * * & = = & = * * = = & * = = = x F 1 > 1 7 j e > * 4 > 2 , * * * * > , > * 2 , * * 2 > , * > * , > 2 = = * = = > * 4 = > 4 < = 4 < 4 4 4 < 4 7 f 7 7 ; 4 = v v r / ] ( ( ( ] ] ] ( { ) ( *.%.| ) ) %...) { X.) X.;.m.n.y.>.&.&.;.>.w.w.w.r.r.r.w.y.x.r.w.x.y.y.y.x.r.x.c.0.w.w.x.w.r.w.x.w.w.y.w.r.x.w.w.x.y.x.y.w.y.w.x.w.w.y.y.y.b.w.w.r.x.y.y.x.x.y.x.v.w.w.b.x.y.y.x.y.x.x.v.x.x.v.b.v.v.x.v.x.b.b.v.v.y.x.b.v.b.x.y.y.y.x.c.y.y.y.w.x.x.y.y.y.y.x.u.K.NX7Xi.n.A.P.$X$X4X4X$X$X4X$X$X%X%X$X$X$X4X$X4X$X4X4X%X$X$X$X#X$X$X$X$X4X4X$X$X$X$X#X2X$X#X2X2X#X2X#X#X#X#X#X#X#X$X$X#XW.rXi.t c 9.JX2X2X4X4X4X7X4X2X4X#X1XP.F.G./.F.P.G.F.F.Y.D.D.D.D.A.F.G.F.A.n.D.D.A.n.A.A.n.V.A.D.D.D.D.n.'.:._ U.v.m.n.v.D.@.O < w.m.n.n.m.m.m.m.n.m.D.m.D.n.b.m.n.n.n.n.n.n.n.D.n.n.n.n.m.v.n.m.n.n.n.n.D.n.n.n.n.n.m.m.m.m.m.m.m.m.b.m.n.n.m.n.n.m.m.m.b.b.m.m.m.U.m.U.n.b.v.b.b.n.n.b.n.v.v.n.v.b.v.v.v.b.w.1.1.-.5.c.l.x.x.b.y.x.v.b.w.y.v.x.y.v.y.x.:.;.*.,.*.*.%.;.4.*.%.;.;.;.>.,.z N 5.] c r X.5.F ( %.#.X.%.%.*.X.X.( M 7 g G S z b F I M x f r 9 9 6 p 7 2 > 6 6 4 4 6 4 > 4 4 > 3 3 6 3 6 4 4 6 7 4 4 4 4 4 > 4 4 4 4 = > = 2 > < 4 > > > > > = > > > > > = = = > = * > * > = * > > = * > > = > < = # m 5.X.N r x e j e N X.#.S e , e 3 a n R { W N N j & # & & * & & # = & & = * & = & & = $ = ; & ; = & = = = = = ; = & & & # % % > = # & & # * % % % # & * # = = # # % # * & # 5 Q 5 # = ",
"& & & % & # % # # & & & # $ & & & & & & = = * & = & & & & & & & & = & $ & & $ & = & = = & ; ; = = ; < < < = = = = ; < = = = 4 = = = < = * = = = > = = % * = > = = = = * = = = = 4 = = * & & = & > * 4 f 9 6 4 > 4 > > , > > 2 % 2 > * , > > 2 > 2 , 2 > 4 > > , 4 > > > , = 4 > 4 > > > > & = < 4 < 6 4 4 6 6 4 9 h m U o.| o.) ~ I H { { ] { ] { ] ( { X.( ! ) ) ) ( ] o...( X.*.%.%.%.x.v.n.w.o.o.o.o.r.x.x.w.y.y.y.x.x.x.x.x.y.y.x.w.x.y.y.y.r.y.x.y.x.y.c.y.y.v.y.y.y.x.x.x.x.w.y.x.x.x.x.y.y.y.x.w.w.y.y.x.v.v.v.v.v.y.v.v.y.y.v.v.m.v.v.v.x.b.v.v.b.b.m.x.x.x.b.v.b.v.b.v.y.v.b.v.b.v.y.y.v.x.b.x.y.y.x.y.x.x.v.y.v.x.y.u.S.H.p.m.A.G.2X#X#X#X%X%X7X$X%X$X%X%X4X4X7X4X7X4X7X$X%X%X%X$X$X$X$X$X$X$X$X$X4X$X4X$X$X$X2X#X2X$X2X$X#X#X#X#X2X#X2X$X$X#XrXp.. W 9.PX2X2X4X7X7X6X6X6X1X1X].P.'.G.G.G.G.F.G.G.G.F.G.F.A.A.D.D.A.A.A.D.F.D.G.D.D.D.D.D.F.D.V.D.A.XXO.1 Y.m.n.m.v.U. .o e m.m.n.D.n.D.D.D.m.m.D.D.D.n.D.D.A.D.D.n.n.D.n.D.D.m.D.D.m.v.m.F.n.D.A.D.n.n.n.m.n.m.m.D.n.n.n.D.n.m.m.m.b.n.m.m.m.m.m.m.m.n.m.m.n.m.m.D.n.v.n.m.b.n.m.n.n.v.v.n.n.n.n.u.n.m.x.>.<.-.<.1.>.x.y.v.y.v.b.b.r.r.w.b.v.y.y.>.;.o.,.,.,.%.X.;.%.%.X.,.,.*.,.4.J e J M e r U G 6 ( *.#.#.%.%.%.#.%.*.W e 7 r e p p 4 6 8 p 7 4 f f 7 7 8 f 9 4 6 7 6 7 4 4 4 4 4 6 4 6 6 6 6 4 4 4 4 6 4 4 6 4 4 4 7 4 > < < 7 > > > > > > > 4 > = > < < 4 = > > 4 * > = > > = = > = > > > > > > > > 4 = 4 6 r x E / =.{ W c L R / L L J W ( } ( M 3 , % * % = & * = & & = = = * & = = = = = = = ; ; 4 ; = ; ; = ; = = $ $ & * % % & < = & & & & % & * & * % & * = % * % * = * & # 5 r.y.o = ",
"% & % & % % # # & # & # & & & & & # & # # * & & & & # & & & & # $ $ $ # $ # & $ $ & $ & = = = = = = = = = = = = = = = ; < = > = ; & = < < & = = = > < * * * * = = * = = = * * = = = = * = & & * * > * = 4 = , * , , 2 , , , , = * > > * , 2 2 > , , > * = > > , , > > , 2 > * 4 > = > < < j x > 4 4 < 4 6 1 < G *.E f , f N W E x F #.} ( ( { ( ( ( ] ( { X.] ) ..( X.] ) ] E X.%.%...{  .x.v.0.>.o.*.o.,.>.x.x.y.y.y.y.y.x.x.y.v.y.y.y.w.x.x.w.x.w.y.x.x.y.w.y.y.v.y.y.x.y.y.x.w.w.x.y.y.y.w.y.y.y.w.0.y.y.x.x.y.x.b.v.v.u.u.v.b.y.y.v.b.b.v.y.v.y.b.b.m.b.b.x.x.x.b.v.v.v.b.v.v.y.v.v.v.u.v.y.v.y.x.x.v.q.x.v.v.v.v.y.y.y.v.v.u.n.n.y.v.P.I.I.H.L.4X$X$X%X%X$X$X%X7X%X$X7X7X%X$X$X%X$X$X%X%X+X$X+X$X$X$X4X$X4X#X$X#X$X2X#X#X2X#X#X2X#X#X2X1X#X2X#X#XW.4Xu.  D q.KX#X4X4X%XrXR.P V.5XP.G.P.P.G.G.F.F.F.F.F.F.G.F.F.G.D.D.D.D.A.D.A.A.D.G.G.F.D.D.D.D.D.D.D.V.G.D.-  .Y.u.m.u.U.U o g U.n.n.m.D.n.n.D.D.F.n.V.n.D.V.V.D.D.n.n.n.n.A.n.A.D.n.D.n.n.n.D.F.A.D.V.n.D.n.n.m.n.n.n.n.m.n.n.D.m.n.m.m.b.b.m.n.m.m.m.m.m.n.m.n.v.n.n.v.m.v.n.n.v.m.m.n.n.v.v.m.n.n.n.u.b.x.&.#.#.{ %.o.:.b.b.n.m.x.w.w.>.:.y.x.:.w.l.>.;.%.%.%.*.*.<.*.,.*.%.%.,.X.%.] s w x f r f 7 m *.%.X.%.%.X.X.#.X.%.%.W x x x 4 1 7 r r p 9 f e r 7 6 f I v 7 4 7 4 4 4 4 > 4 4 2 2 6 4 > 2 6 2 2 4 4 4 6 4 4 4 4 > 4 4 1 1 > 4 > > 4 > > > > > > = 1 & < < < = , > = > > * > * * * * , > > 2 > > = 4 > 2 > 6 , e R =.{ J D ( ( / / [ [ [ ( [ n , * , * > & & % & & & % & = = & = & & = = & = & & ; 5 4 & & ; = & = $ $ = & & & & # # & & # % % % = * = & % % % = % % * % % # # % o . l B U ",
"% % % & & & & % & & & & = & = & & & * & & & = & = & & & & $ # $ & $ & $ & & = = & & # & ; = = = = * * & = = = = < = > = < = = > > * = < < = > * < > = = = = < = = = = = = = > & & & = > 4 = = > > = 4 > > * , > > > 4 > 4 > > = * > 4 > > > * > 2 > , t m % 2 > 2 > 4 4 4 > 4 > 4 2 4 = * G <.N > 4 4 4 7 4 > f ] ,.,.! W L F F ( ( ( ( { { { { ( { X.| { ..] ..X.] ] ) ~ { W ] %.) ( ] ..;.x.v.m.%.] o.*.;.r.y.x.x.v.x.v.y.v.v.v.v.v.y.y.y.v.v.v.y.y.y.x.y.x.y.v.y.y.y.b.x.x.b.w.y.b.y.x.y.v.y.b.x.q.y.x.y.x.x.v.v.x.y.x.v.v.v.b.v.b.v.b.y.x.b.v.v.v.x.v.x.x.b.b.b.v.b.b.b.v.b.v.v.v.v.v.v.v.u.v.v.v.v.v.v.b.v.v.y.y.y.u.x.v.y.b.v.n.u.b.G.P.S.S.P.4X>X7X4X$X%X7X4X7X7X7X7X%X$X$X$X7X$X$X$X%X7X7X$X$X$X%X$X$X#X#X#X2X4X2X#X$X2X4X2X$X#X#X#X#X2X2X#X$X#X9Xi.o d 0.LX#X4X4X%XJXO.O q.}.P.P.P.G.P.P.F.A.F.G.F.Y.F.G.F.G.G.G.F.G.F.G.A.D.V.A.n.V.D.G.D.F.D.F.D.F.A.oXY : U.n.n.n.Y.t o I `.m.n.m.D.D.F.F.D.n.F.D.D.F.D.A.A.V.V.D.V.D.A.D.n.n.n.A.D.n.n.D.n.A.A.D.A.D.D.n.D.D.D.n.D.D.m.n.m.m.m.m.m.n.n.n.m.D.m.m.m.n.D.D.m.m.m.D.D.m.n.n.m.m.n.n.n.m.n.n.n.n.n.m.n.b.w.;.,.4.-.<.*.2.r.m.v.x.w.;.l.w.;.b.b.>.>.1.;.<.,.,.*.,.*.*.,.,.*.%.*.*.%.%.*.T e j x x F N v ) %.%.X.#.#.#.X.%.X.X.#.X.X.~ M j e f 4 e j m f j r r e r 7 7 7 7 4 4 4 7 4 4 4 6 4 7 4 4 4 6 4 2 2 4 7 6 4 4 4 6 > 4 * * > 4 2 > > 4 4 4 > > 2 4 < & 9 ; = 1 < > > * * , > > > > * * > > > , > 4 > < 4 6 , 4 > 2 , R ! N R W / } / ( R T b e , , , 2 > = * = = < & & = = & * & = & = = = = = = ; = < = = = ; = = & & & = & = & & # % # & & & & * % % % % % * & * * * * * % , , * > 7 < m 0.",
"% % & & & & & # % $ & & & & # & & & & & $ # & = & & & & & & & & = = = $ # = & = & & & & = = = = & & & & & & = = > = & & & = < = = > = = = = = * = 4 = & > = > > = = = * = = = = & & = = = > > * & = = = = = & # > * = > > > * % = * , 4 > * > * > > O V.LXq , > 2 , > 2 > 2 > * 2 > > > * > U I 8 7 8 > 1 4 4 = > r M F I T ! ( { ( ( ( { { ( ( { ( ] ....) ] ) ) ] ) ! ~ ( F I ..) { ( X.) o.w.>.| ( ..*.o.o.:.x.y.y.v.y.y.u.v.u.v.v.v.u.y.u.y.v.v.u.y.y.y.v.y.y.y.v.y.y.v.b.y.v.y.y.v.v.v.y.y.v.v.v.y.q.y.x.y.x.y.y.y.v.v.u.u.u.v.v.v.v.v.v.y.v.v.v.y.x.v.b.b.b.v.v.v.b.n.v.u.b.v.v.u.n.u.u.v.v.n.v.y.v.v.u.v.y.y.u.y.v.y.y.y.v.v.y.y.u.m.A.V.P.P.#X+X7X#XK.#X4X$X%X%X7X%X$X$X%X$X%X$X$X$X$X7X4X%X%X$X$X$X$X#X#X#X#X$X$X$X4X$X4X$X$X#X#X#X#X#X#X2X$X#X4XA.O w P JX#X4X2X4X0Xq P 3XP.P.P.G.P.G.F.F.F.D.D.G.F.G.G.A.F.F.P.S.A.F.A.G.G.D.A.D.F.D.F.F.F.D.D.D.G.D.Y.m.. Q OXt.D.0.O O _ U.v.D.n.n.D.D.D.A.F.n.A.A.V.A.A.V.D.V.V.D.V.D.A.V.D.V.A.V.D.A.n.D.n.n.A.D.V.D.D.D.D.n.D.n.m.D.m.n.n.m.n.m.m.n.n.n.m.D.n.n.m.n.n.m.m.v.v.b.m.D.D.n.n.n.m.n.n.n.n.v.n.n.n.m.m.l.1.<.4.<.;.;.:.:.x.x.w.>.1.1.1.;.y.x.:.;.o.X.o.%.%.*.*.%.%.%.*.*.*.#.#.#.X.| %.T e 8 e g j 6 b { %.X.X.X.X.X.X.X.X.{ ..X.E I G g 7 8 9 t g f e r r 6 4 4 7 4 6 4 6 4 4 4 3 , 6 4 > > 4 4 4 > 6 3 6 4 4 4 4 , > 4 > 6 k 2 > 2 4 > > > 2 > > > > < $ OX~ . 6 > * > * * > > * > , > > * * = > * = > 4 1 4 2 , > > , e e x ( { R H x r > = % * * > * * * * * * > = = = & = = = & & & & = ; = = = = & & $ = = ; = = $ = & # & * # % & & & % # # & & # # & * % % * = = * % % % J E 6 * 8 < . . ",
"# % & & & & & % % & = & & # & % & & = = = % & = = & = & * * = & = = = & * = = & & & = & = = = & * = = = = & > < < = = & = & = < 4 > = * = = > = > > > > > = = = = = > = = = = < = * = = = * & & * = * = 9 E I 9 > = 2 = > > 2 > > * , , > > 4 > > = :.UXUXQ O 4 4 > > > > 2 4 > , % % * = * > > 8 9 8 4 4 6 6 4 7 > 4 & = = N { ( ( ] ( { ( ( { { { X.{ ] ] ] ] ] ] ) ( ] ] x F { ] X.] ......o.o.) ..X.*.o.%.;.x.y.x.v.v.y.v.v.n.y.v.u.y.u.v.y.u.u.u.u.v.u.v.y.y.u.v.y.y.y.u.y.y.q.y.y.v.y.v.u.v.v.v.u.v.u.v.v.v.v.y.v.n.u.n.v.v.b.n.v.v.v.n.v.v.v.n.v.b.v.m.v.b.n.n.v.n.n.n.n.n.n.n.u.n.p.n.u.n.v.u.u.u.v.v.v.u.v.v.v.v.u.v.v.v.v.y.u.v.u.m.n.D.A.K.I.7X^.s.I.4X$X7X$X7X>X%X%X7X%X%X7X4X$X%X$X$X%X%X$X$X$X4X%X$X$X4X$X4X4X4X$X$X%X7X4X4X$X$X$X2X$X4X$X$X5X7 w e 5X4X2X2XJXO.+ R.6XP.'.'.P.P.P.P.P./.F.G.P.G.F.F.S.P.P.P.S.S.F.P.G.P.F.D.G.G.F.G.G.Y.F.F.F.F.G.F.OXB . q.R.XXm O , y.G.D.D.D.D.G.D.F.D.A.F.G.A.F.S.F.F.F.A.A.A.A.A.A.D.D.A.F.A.D.A.D.D.V.n.A.A.D.D.F.D.n.n.D.D.D.D.m.n.m.m.m.m.n.n.m.m.m.D.m.n.D.m.D.m.b.w.:.w.b.m.D.m.n.n.m.n.n.n.n.u.m.m.v.y.l.1.2.#.X.X.%.1.r.b.m.b.c.>.1.1.>.>.c.c.r.1.<.;.,.%.,.*.#.%.,.*.*.*.,.%.#.{ { #.*.#.H e 4 x ] ( ( { X.X.X.X.X.X...X.X.X...{ ..] X.] ) ] v 7 N x 6 r 9 6 7 7 8 4 6 6 7 4 2 r T p 6 e r 4 > 4 6 2 4 2 > 1 7 > > r r e 4 6 j > 2 4 4 2 2 2 > 2 4 > 2 < ; h q = 4 > > > > * > > > * > > = > , > > > = < 1 > r N x 7 9 8 7 = > x x 4 % # * % * * 4 , > * = = > * & # % & * * = = = & & = = = = = < ; & & = = = $ < ; = & = = & % & # & * = & & & & # & # & * * % % % # = * = , # M ( J O # = < > ",
"% % & & & % & # & & & & $ # & # # & = = & & & & = * * = = & & & * & * * & & & & & & & = ; & & & & & = = & = = < = & < = = & = < < = & & = = = > > * * * > < > * > = > = = & = * = & * = = * * = = * 4 4 < < 7 4 * * > * * % > > * * * = , = > > , > v.UXUXl , 4 , > > , 2 > > > > f p # & * 2 4 4 > , 2 4 1 7 7 6 6 9 r x f J { ( / ( ( ( ( { ( ) ) { { { ( ! ] ] ( ] ( ! ( e N X.( ] ] ( X.X.%.,...X.) X.%.,.o.w.y.u.y.y.y.y.y.u.u.y.y.u.y.u.u.y.y.u.u.u.v.u.u.u.u.u.u.y.u.v.v.v.u.v.u.u.v.v.u.u.u.u.v.u.u.v.v.v.y.v.v.v.n.v.n.v.n.v.v.n.v.v.v.v.n.n.n.v.v.v.n.n.v.n.v.v.v.n.n.p.p.n.A.A.p.u.p.n.u.n.u.u.u.n.u.v.u.u.u.u.n.v.v.u.y.u.u.v.u.v.n.u.m.A.C.#XP.p.S.(.#X#X%X%X$X>X$X>X>X7X%X$X$X$X$X%X$X$X$X%X$X>X7X7X%X%X$X%X$X$X$X$X$X%X7X4X4X4X$X4X$X$X$XW.JXC , O _ JXW.4X6X+ l JXL.I.P.P.P.P.P.P.P.P.P.P.G.P.S.G.P.S.P.G.F.G.A.S.P.F.F.G.A.F.G.G.F.F.F.G.F.F.G.A.].y.  O +.+.O O k Y.V.D.V.F.V.F.G.G.F.F.F.G.G.F.A.F.F.A.V.A.V.A.V.A.A.A.F.A.A.A.A.A.D.D.V.A.V.A.A.A.V.n.n.D.D.V.D.D.n.n.m.m.n.n.n.n.n.D.m.m.m.n.D.D.b.w.>.r.>.w.u.n.n.n.n.n.n.n.v.n.n.v.D.y.@.;.&.<.,.#.X.%.%.l.B.m.w.>.;.,.;.1.1.w.>.w.w.5.1.,.<.<.*.*.#.*.,.*.%.%.*.#.{ #.[ ( } W 3 , f ] #.#.X.X...X.X.X.X.X.........{ ] ..*.%.%.] f a U M e 8 4 7 7 4 4 6 6 4 6 6 4 e R a 6 c <.4.c , 4 > * > 8 > 4 6 8 j r > 2 , , > 2 > > 2 2 > > > > > * > 4 & = > = > > * > = * > = > , = > % * = , > > = 1 > > f r 4 > 4 > = * & & & , * > = = * > = * * = * = = & = = & & & = = & = = = = & $ # = ; = = < = = & = = = = = = = # # % & % & * & $ & & # # * = = * & # % # % % % O g -.-.W e O 7 7 ",
"& & & & * & & & & % & & & $ & # % # & & & & = = = * & > = % % & * & * = & # & & = & & * = = = = = = = = < = = = = = ; < ; = > * = & * = = = = > & & > * * > = > < = & & & = = = = = = = = = = = = > 4 < > & = & > = > > % > > * * * = * > * > > < = > _ Q % 4 4 2 2 2 > 4 > 2 > , I ( b s 2 6 7 j I v 9 7 1 4 4 g b R ) X.( ( ( ( ] ( ( { ( ) { X.) ( { { ( ~ ) ] ] { ) ~ ~ e N o.) { ] ] { ] o.*.] ....X.%.;.+.w.u.v.v.u.v.y.w.v.v.u.u.u.u.u.u.u.u.v.u.u.u.u.u.p.u.p.n.v.u.v.v.n.v.n.v.n.n.u.u.u.u.v.u.v.u.v.u.y.y.n.n.n.n.n.v.u.u.n.n.n.n.n.u.A.n.n.v.v.v.n.v.n.n.n.n.v.v.n.n.n.p.p.A.G.p.p.n.n.n.n.n.p.p.n.n.n.v.v.n.v.u.v.v.v.v.v.u.n.v.n.n.n.m.m.p./.P.A.D.S.(.I.#X%X%X7X%X>X>X%X7X4X$X$X%X>X$X%X$X$X>XwX7X7X$X$X$X$X$X$X$X%X$X4X$X#X#X7X4X%X$X$X$X$XrXi., , e JX$XJX^   O.JXI.].P.P./.P.P.'.G.G.P.P.P.].P.P.P.P.F.P.F.P.S.P.P.P.F.G.F.F.G.G.F.F.G.G.G.G.G.Y.Y.HXh   O , , O +.'.V.F.G.G.F.F.A.A.F.P.F.F.A.S.V.A.V.A.F.F.A.A.S.F.A.S.F.A.S.F.A.F.D.F.D.D.A.D.V.D.D.A.A.D.D.D.D.D.D.D.v.n.m.m.n.m.m.D.m.D.m.D.n.b.y.l.>.2.>.:.y.m.p.m.n.n.n.m.v.b.b.m.U.v.:.l.4.*.%.%.-.,.%.1.w.w.:.;.;.<.,.l.l.:.&.:.:.>.o...| X.%.*.*.*.*.*.*.,.-.{ ( =.} [ } ! s 8 r z z x I X.#.#.X.X.X.X.......X.X.] b g x f 7 r x S h 9 8 7 7 7 7 7 4 7 4 4 6 8 6 A x e > p b v a 8 4 v ..{ a > 8 4 > , > 2 2 4 4 2 2 4 > 2 2 4 > 2 > 2 = > 4 > > > > > > > > > * > * > > > = > * = * = > 4 > = & & = 2 = > = = * > = 2 * * * * * * > > = 4 = > = * = < = = = = & = & & # # $ & & = = ; = ; ; < & * & = = = ; < & % # & & & * = & & & & & = = * % & * * % % % * % , ( 5.,.-.! ) ] ",
"& # & & = = & # & & & # $ & $ = = & # # & & & = * = 4 = & & * % % * = * & % & & & & & $ & = = = = = & = = = & & = = = & = = * * = * > = = = > * = * * = & * > = = = & % = & = = * & = = = = = = * > = = 4 4 4 > > * = & = h 7 # & % = * * > = * = > > , = 4 4 > 2 > > 2 > 4 4 > > > r x S G r = e ! ..x g F F F ] X.X.) ) ( ( ( ( ] { ( ( ( { ] ] ( ] ( ( ( ( W ( ] ( ) ] I 7 x ) ] ( ( ] ) X.{ ] ] ( ..X...%.:.b.v.y.q.u.v.y.;.>.w.v.u.u.p.u.u.u.u.i.p.u.u.u.u.u.p.n.u.v.u.n.u.u.u.u.u.n.v.u.u.v.u.u.u.u.u.n.u.u.u.v.v.n.n.n.u.n.u.v.n.n.n.n.u.n.n.u.u.n.v.v.n.m.D.n.n.n.n.n.n.n.p.u.p.V.p.u.n.n.p.n.n.n.u.v.p.u.n.n.u.u.u.v.u.v.v.u.u.u.n.n.v.n.v.n.n.A.D.m.n.A.].K.K.#X$X$X>X>X$X%X$X%X$X>X$X$X>X%X$X$X$X7X>X$X$X$X$X$X%X4X$X$X4X4X$XW.#X$X%X$X$X4X$X$X$XHXh , o ' IXR.. . G.6XI.I./.P.P.P.P.P.P.P.S.P.E.P.P.S.P.S.F.P.F.F.G.P.F.G.A.F.F.G.F.F.F.G.A.G.G.G.G.R.F.GXw.  O 1 O k GX}.S.A.A.A.G.A.A.F.A.A.F.A.A.F.F.S.V.A.A.S.F.F.F.P.F.A.A.F.A.S.F.F.A.A.A.F.A.A.A.A.V.F.A.V.D.D.n.D.n.m.n.n.n.n.n.D.m.n.D.D.n.m.u.x.w.l.:.;.:.r.b.n.D.n.n.m.n.x.r.r.w.x.m.m.1.>.1.%.%.-.%.%.<.>.:.>.w.l.,.%.,.,.w.:.:.1.>.1.>.,.,.<.-.-.%.%.%.*.*.,.%.D c E ( #.=.R , 6 r g r g v { X.X.X.X...X.X.X...] ..X.G e 4 r r x 7 6 4 6 > 7 4 4 4 7 4 4 4 7 4 6 , N { $.I r 3 n x r 4 r p r 4 2 2 2 > 2 2 > 2 6 4 3 > 2 > > 6 6 4 > * > > > > > , > , , > > > > > * > 2 * = > 4 4 > = = = = = = = = = = = = & & = < * * * * * = * * > & & = < = & = & & * = * & & = & & & & = = = & & = = = = = * & & & * & ; < & # # & % & & & & & # & & & = * % & & * * * % % = O = ) 5.1.X.) ) ",
"* & $ $ . . & & = & & & & $ = ; = & & & & & & * > > < = = * * & & * = = & & = & & = = = = & & & # # = < = & & = < = = = = = > = > = > = = = = = 4 > > * & * > > = * & & = = < = = = = = = = < = > = < = > 4 4 * * * > < 4 9 4 * 6 > * * > > * * > > 4 1 4 2 4 > 7 1 4 > 4 > > 4 4 > 2 = 6 J I 3 # & f 6 f { { ! ( ! { W R / ( { { ( ( ( ( ] X.) ) ) ..) ] ] ] ~ ~ ] { ] ..I 7 g ! ( ..) ] ] X.] ] ] { ..X...%.o.>.:.+.+.v.n.+.o.;.;.x.u.p.p.p.u.n.u.p.p.u.u.n.u.p.n.p.u.u.n.n.p.n.p.n.u.u.u.u.v.n.p.p.u.n.n.n.n.n.u.n.n.n.n.v.n.n.n.n.p.n.A.n.u.n.u.n.n.n.n.n.n.n.v.v.u.n.n.n.n.n.n.m.p.n.n.p.n.m.n.n.n.p.n.n.n.m.n.A.n.n.n.n.v.m.n.n.m.n.A.n.n.m.n.n.m.m.n.m.n.A..XF.A.].#X$X>X>X>X>X$X>X>X>X>X;X>X7X$X%X$X%X$X$X%X7X$X%X>X7X$X4X%X7X7X$X$X4X$X%X%X7X%X4X$XPXO.O % o HXP   7 JX1X1X/././.P./.P.P.].P.P.P.I.P.F.S.P.P.P.P.P.P.G.S.V.A.A.F.F.A.F.G.F.F.G.P.G.P.R.R.P.R.HXe O 1 + n.HX_ F.P.P.G.A.F.F.P.F.F.F.F.G.F.G.P.F.F.A.F.S.P.S.S.A.A.A.G.S.F.G.S.A.A.S.G.A.A.S.S.A.F.S.A.F.D.D.D.n.n.n.n.n.D.n.m.D.m.D.D.D.n.y.b.x.l.1.>.>.r.0.u.n.A.A.D.y.>.>.r.w.w.0.b.c.l.,.,.,.<.,.,.,.,.>.l.r.l.,.,.;.1.>.>.>.1.>.>.>.,.,.<.,.<.,.%.*.,.*.<.#.J n j e S W E s 8 j ~ ( #.( ..X.X.X.X.X.X.X.X.......| ] ! I E N f 7 1 4 6 2 6 4 r 7 4 4 4 6 8 4 8 8 7 f I N r e r 4 6 > > , > 4 6 2 4 > 2 > 3 2 4 4 6 2 > 2 4 > 4 4 > 2 > > 2 > > > > , > > > > = * * > > < 4 > > * * = < = > = = = ; = = > < * * = < = * = > = * = > * % % * = = = = = = = & & & = = & & = < = < = = & = = > = = & & & = & = ; = % & & & # & % & & & & % # & & & & * & & & % # & & * # # z ..4.4.%.",
"# & & - q.l o = & & & & $ & $ = $ # = & & & = & & & & & = % * * & % * & = & & = = & = = = & & & & & & = & $ = = & = = = ; = > = = > = = = = & * = < > & * & > > = & = * & ; 4 & & = = = = = = > = = = = = = > 9 9 = = 6 > & < 6 4 7 6 * > * > = * * > > 4 > > 4 4 4 > > > > 4 > > 4 4 > 2 > M I M 7 4 4 r ( ..] W F I T [ / ( / ( ( { { ..~ ~ { X.{ ) ) ) ( ] ] { ) ) ~ ] S % v { { { ( ] ) ] { ] ) X.{ ..X.X.....o.;.o.q.u. .| *...;.y.p.i.p.u.u.p.p.u.u.u.p.p.i.p.p.u.n.u.p.p.p.p.u.u.n.u.n.u.u.n.n.p.n.p.p.p.n.u.n.p.n.p.n.n.n.n.n.n.n.V.p.n.n.v.n.n.n.n.n.n.n.u.n.n.n.n.p.n.n.V.n.V.A.n.m.p.n.A.V.p.n.n.n.V.p.n.m.v.n.n.n.n.v.n.D.D.A.p.n.u.n.m.m.m.n.n.m.n.n.G.m.v.G.P.L.$X%X$X>X$X$X>X>X>X>X;X>X>X>X$X$X$X%X%X7X7X7X>X>X>X7X7X7X$X7X$X%X7X7X%X%X7X4X$X4XHX7 , . 1 o   P PXI.1X1XP.P.P.P.P./.F.P.P.G.E.P.F.P.G.P.P.G.P.G.P.F.F.P.P.G.F.G.F.F.F.G.G.G.P.R.R.R.'.S.GX .O O B LX0.O G.P.S.G.G.P.F.F.P.P.S.F.P.G.S.G.P.S.S.S.G.A.S.S.A.S.A.A.S.S.A.S.A.S.A.S.S.S.A.A.S.A.A.F.A.A.D.D.v.x.w.x.b.m.m.m.n.D.D.D.A.n.q.y.x.z.>.:.>.r.w.0.0.n.V.n.y.w.l.c.c.l.:.r.l.<.%.*.%.*.<.*.%.<.;.>.>.1.l.,.%.,.;.1.;.;.>.>.*.,.%.%.*.%.%.*.-.%.*.-.X.! { ( A z c J a , g W I F M ! #.X...X.X.X.X.....X.) ) T N x z e > > 4 > 2 4 4 9 f 9 4 2 4 4 6 7 7 9 4 > , , 2 6 4 > 6 4 4 4 6 2 2 > > 2 2 > 2 > > 4 3 2 4 > > > > > 4 > > > > > > > > , > > > * * & = & > = = > & & > = & * = & & & = & = = = * = = > = = * = = = * = = = & & * = * = = = * & & = & = * & = ; = = = = & = * * = & & = & & * & & & % * & & & # % # $ & # & & & & * % & & & # % % % # % & > O & 9 ! ,.",
"& > $ h LX~ O 4 = & = & = & & $ & & = = = = = & & & & = = * & & & & & * = & = & & & < = ; = = ; < = = & & & * & > = < = = & & & & & = > = = = & 2 = = = = & > > = * = * > = & # & = = = = = = > < = = = 4 = > 7 7 > > 6 = * 4 = * 7 7 > , > > > > > > > 4 2 4 4 4 > , > 4 > 2 > 4 > 1 4 6 > > 4 v I N 4 > t E v g G R T ~ W ] ( { { ( F k 9 7 m U f 7 ! X.) ] ] ] ] { ..X.N 6 F X.U W ( ..) ............X...o.X.o.%.,.o.w.y.o.X.*...%.0.i.p.n.n.n.p.p.p.p.p.p.p.s.i.i.p.n.p.p.p.n.p.p.p.n.p.n.p.n.p.p.u.p.n.n.p.n.V.n.V.V.n.A.n.n.n.n.n.A.V.p.V.A.n.n.n.n.n.n.V.n.V.D.V.A.n.A.A.A.V.n.V.V.A.A.n.n.n.p.n.A.n.A.V.S.A.p.n.m.v.v.n.n.n.n.n.D.n.A.A.A.n.n.m.n.n.m.n.n.n.n.m.F.G.G.I.4X>X%X$X%X%X;X>X>X>X>X>X;X>X$X>X7X>X>X7X7X7X7X9X4X4X7X7XwX7X7X7X7X7X>X7X7X%X$XPX9.o , O %   9.PX1X1X1X(.].].I.P.P.P.P.P./.P.P.P./.P.P.P.P.P.P.P.P.P.P.P.P.P./.P.F.G.'.F.P.P.R.R.R.'.R.oX&.O O n.JXt l 5XP.P.P.P.I.P.P.P.P.P.P.G.P.P.P.H.P.P.P.S.P.H.H.P.P.S.S.S.S.A.S.S.F.A.S.F.P.S.S.F.S.S.F.A.G.D.v.w.l.r.x.w.b.v.y.b.D.m.D.D.m.y.y.w.w.>.w.c.m.y.0.0.A.G.m.y.c.l.c.c.c.r.l.>.,.X.%.X.*.%.*.,.<.;.>.l.c.4.1.;.>.z.l.>.1.1.>.,.,.,.*.*.%.%.*.*.-.*.-.X.I c c S J D n e e e e r 6 3 ( %.X.X.X.X.#.X.....X.....T x w 3 3 6 2 7 > 6 4 > 4 e 6 2 6 7 4 7 6 4 1 7 8 7 4 6 6 7 4 6 4 > 2 6 > 4 2 > 2 2 > 2 2 3 6 > 2 6 > > 2 > > 4 > 4 > > > > > > > > > , * = = = = 4 = < > = > 4 = > = < = = = = < 4 < = = = * > = = & > < > * > = > = = * > = = & & & > & = = = & = & < = = = = = = * * & & & = = * & & & & & * & = & % % & & & & & & & & * & * * * & * * = % & & > < 6 % * j ",
"* & = & = $ = & & & & = & & & # & & & = = = & = = & = & & & & & & & & & & = & $ & & = = & & = = = = & & = = & = = = & & & = = * * & = = = & = & * > > & * = * > = * * * = = & & = = = = = = = = = = < = < > > = * * = > & * 4 > , > > * > = > > = = 1 > > 4 > > 4 > 6 > > 2 > > 4 4 4 > > 4 6 * % 7 x r 4 G ! k F { ] J ! X.X.( E k 7 = 5 6 9 7 7 9 r ! | ] ( ! ~ ~ ] E x 9 7 t 7 M X.( ( ] ] ] ..........| X...%.X.o.o.+.w.+.X.X.*.o.0.F.u. .0.n.p.p.p.p.p.p.p.s.i.s.i.p.i.i.s.i.p.p.p.p.p.p.p.p.p.p.n.n.p.p.n.n.n.n.V.A.p.n.n.p.p.n.p.n.V.n.n.n.n.n.n.n.n.A.n.V.n.n.n.n.A.V.A.A.n.n.p.A.V.n.A.n.n.V.n.p.A.V.i.HX5Xu.n.n.n.A.n.D.n.n.n.V.A.D.F.V.n.m.n.A.n.n.A.m.n.D.n.n.'.G.A.4X7XI.K.#X$X>X$X>X>X>X;X>X$X>X;X>X7X>X>X7X7X7X9Xd.L.tX>X>X7X>X7X7X7X>X>X>X%XwX7XPXm O w ,   s.JX#X4X].].}.F.P.P.P.P.I.P.I.P././.P.I./.P.P.P.P.P.P.P.S.P.P.P.P.P.5Xt.u.5XG.P.E.R.'.R.P.GXU   y UXv.O n.1XP.I.P.P.P.I.L.H.P.P.H.H.P.P.K.H.K.P.P.H.K.H.K.H.H.S.S.A.S.S.P.S.S.S.K.S.G.S.S.A.S.S.A.A.D.n.y.>.c.w.>.r.0.0.y.y.b.m.A.A.D.b.x.w.l.1.>.l.w.w.y.u.A.G.b.w.1.1.>.1.l.1.1.>.,.<.<.,.%.*.,.*.;.1.l.1.>.&.;.1.l.>.z.1.1.;.;.,.,.*.*.%.-.%.#.*.*.X.%.*.#.R A w 6 w w > 3 8 6 e x J #.X...X.X.X.X.X...{ ] ..| ..( A z e 6 3 > 6 4 4 j f 4 6 6 > 6 6 > 6 8 6 7 6 7 8 > > 4 4 > > 7 4 4 2 > > 2 > > * > 2 4 > 4 > > > 4 , > 2 > 4 > > > > 4 > , > > > > * = = $ # = > = * > = = 4 6 4 = = = * & ; 4 4 = & = * = * * * > < * * = & > = & * * = = & = & = & * = = & & & = = = = = & * = = & & $ & & & & & & & * & * & & % # & & & & & & * & & & # . % & & # & & & # % 7 7 6 2 $ ",
"& & * = = = = & * * & & & & & & & & = = = * = = & = < = = & * = = = = = = # & 4 < = = $ & = = & & & = & = = = = = & & $ & = < = = = = = = & = & * > > = = = = > > = > & = = = = = = 4 < ; = 4 = = = 4 < 4 4 4 = * = 4 > = * > > 2 > > * > > > > > > 4 > 4 2 > 4 4 4 7 2 4 4 4 > 4 4 4 4 4 4 4 4 7 > < 9 7 7 7 > 6 9 9 7 r r h 7 = * = < 5 5 h 7 t f 9 I ( ~ ) ) X.) ] I , 4 4 ; v ( X.] ] | ..{ ..X.X...%.X.o...X.o.%.o.&.>.;.o.*.%.o.:.m.0._ ;.w.u.n.p.V.s.V.s.s.V.V.p.p.s.V.p.s.s.s.p.p.V.V.p.V.p.n.n.V.n.n.n.n.n.A.G.S.V.n.p.p.n.A.n.n.A.V.n.A.n.n.n.A.n.n.n.n.n.A.V.n.n.n.p.n.V.A.A.A.A.A.A.D.A.D.V.V.A.A.s.F.S.p.A.A.n.A.V.A.V.A.D.V.p.A.A.p.n.D.A.F.F.A.A.A.A.D.A.D.G.F.A.3XqXS.A./.#X7X$X>X>X>X>X7X>X>X>X>X7X>X>X7X7X7XwX2X9XeX,X8X>X7X7XeX>XeX>XwX$X#XKXyX1X$ , 3   G.JX1X6X1XqXO.C 5X/./.I.].I.I.P./.I.].(./.I.P.P.P.P.P.P.P.P./.I.P.P.HXq.y Y.5XR.E.R.].E.P.HXt + b.0.< P qXI.L.^./.P.P.P.L.I.I.P.I.H.H.K.L.P.L.P.I.K.K.K.L.K.P.P.F.A.P.S.P.K.H.H.P.H.P.S.S.S.G.S.G.D.D.n.x.r.l.l.>.l.x.w.x.r.x.m.D.V.m.y.y.l.c.1.>.;.>.>.x.y.v.n.w.1.1.>.w.1.2.>.1.1.>.<.1.,.,.,.<.,.>.r.1.%.%.%.<.,.1.z.1.>.>.;.;.,.<.,.<.-.,.*.*.#.#.%.*.X.X.#.=.E n 3 6 8 6 3 g W { { #.{ X.X.X.X.X.X.X.......] ] ( ( T z a n r 3 7 f ] U 6 7 8 4 6 6 7 6 8 7 7 4 7 4 6 4 4 4 4 > 7 4 4 6 4 2 2 > 9 j r > 4 4 4 4 2 2 4 4 4 > 4 > > > > 2 7 > , > > > > * > & 6 ~ 5 > < = > > < < 4 ; = = < = = = > = ; = = = > & > = > = & & = = > = > = > = = = = = = & = = = & * & = & * * = = * = = = = & = & & = = & * * * & & & & & * & & * & * = & * # = v = # * * & & # # # r 9 # # = ",
"* % * * = & & = = & & & = & & & & = = = = & = & = = = = & & & = & = = = & # & 4 = $ $ $ & & = = = & = = & & = = = = = & & = = < = & & = = & & & * & = = = & = * > = * = = & = = = * < ; = = = < = & = < < = > * = = 1 > > * * > > * * * > * > = > > > > > > 2 > 7 4 4 4 4 > 4 4 > 4 1 4 4 > > 4 6 4 6 > 4 > > 4 4 * > ; = % = = 4 ; 4 = < < 4 4 < = m ] ..) X.) ) ) { ,.J 8 4 9 ) #.) ( ] ] { ....| ..X.%.,.%...o.X.%.o.;.o.o.o.X...o. . .o.;.1.;.:.n.n.p.s.V.s.s.s.s.s.s.s.s.s.s.i.s.V.V.s.V.V.V.p.V.p.V.V.A.n.n.n.D.G.V.p.V.V.A.n.n.n.V.A.n.V.p.n.V.n.n.V.D.n.n.n.V.V.A.V.A.V.A.V.V.A.V.A.A.V.A.A.A.A.A.p.A.A.V.V.A.n.V.V.n.V.V.V.V.A.n.n.n.n.A.n.V.A.G.A.A.V.A.A.A.A.A.A.D.V.F.].V.A.G.H.#X%X>X#X$X7X>X>X>X,X>X>X>X8X8X>X8X7X7X7X8X,X,X>X7X7X7X8X7X>XeXrXB #XKXPX'   3   9.JX1X1X1XJXl 7.JXK.I.(.P./.].I.P.P.(.1XI.P.P.P./.P.P.P.P.P.P.P.(.K.].V.l P i.HXF.R.I.P.5Xv.. :.~   o A.1XI.I.L.I.I.I.K.I.I.L.K.P.K.L.K.K.L.K.K.L.K.L.H.H.P.P.A.A.S.P.H.K.H.K.H.S.P.S.V.A.G.A.A.F.n.n.x.b.r.>.1.r.>.l.x.l.r.w.b.n.u.q.w.r.1.w.l.1.>.1.1.>.0.m.n.>.1.l.1.l.1.,.2.2.,.1.,.%.;.,.%.%.;.>.1.>.<.4.4.1.;.1.l.:.;.w.:.;.X.#.-.-.,.%.%.#.#.%.#.%...X.X.) ] ] n 3 * 6 3 b #.R F #.%.*.X.#.#.X...X...{ ( { ( / ] R a x / S e p 9 h r 4 4 4 4 4 4 7 6 2 > 6 9 7 4 7 > > 4 4 > , 2 7 , 4 2 , 7 I G e > > 4 6 > 4 > > 4 > > > > > > , 4 7 > * > > > * * > = > c.W O 4 > = * = = = = = = = = = & & * = ; > = = & * = > > = * > = = > < > = > > = * > = & = * = = = & & * * & & = = = = = = = = & = & & & & = & & & % * & & * = & & & & & & # = N = # & * % # & # # & & % # & ",
"* * , = * * = = = & = = = = * & = = = = & * = = = = = & & = & & = & = & $ $ & $ $ $ = & = $ = = = = = = = & = = = = < = = = = = = = > ; = & * = = & = = = & * > 4 = = = = = = = = = = = 4 ; < < = * = > = > > = = = > < > > > > > > > * > > 4 > > > > 4 > > 2 > 6 4 4 4 4 4 7 4 2 4 4 4 4 2 4 4 4 6 6 4 4 4 4 4 4 < < 4 4 = < < 4 ; 4 4 & = > 1 G ! #...X.X.X.X.| X.X.] G > 4 & x { ] ] ..] | X.X...*.X.%.X.X.o.*.o.%.%.;.o...X.X.o.*.o.o.o.+.;.;.;.y.p.V.s.A.V.s.s.s.s.s.s.s.s.s.s.s.s.A.s.V.A.A.V.A.V.V.V.V.A.A.n.A.A.V.V.A.A.D.V.V.V.A.A.A.p.V.V.A.A.A.A.A.A.A.V.V.A.G.A.S.S.G.A.A.A.A.A.F.V.s.s.A.S.A.A.A.A.S.A.A.V.D.A.V.A.A.A.V.n.D.A.A.V.D.A.V.S.P.A.V.D.D.A.D.A.D.n.D.D.F.S.F.D.D.V.P.2X#XH.L.4X>XwX>X8X,X>X>X8X8XeXeX7XQ.;XeX,XeX>X8X8X8X8X8XeX7XPXY 0 #XPXPX5 % O Y IX#X1X4X/.q ].3XI.I.(.I./.].I.].P./.I./.I./.P.].I.I.L.(.I.(.(.I.(.(..XY ~ B R.rXG.G.G.LXY , D o . _ 3X#X^.#XI.I.(.I.I.^.I.#XL.L.I.I.L.L.L.L.K.L.L.L.L.K.P.F.u.y.p.F.P.K.K.K.H.H.P.S.p.V.G.F.G.A.n.m.b.b.x.c.w.l.;.>.w.w.r.x.y.v.A.u.w.r.1.1.1.>.1.r.1.1.w.b.x.w.1.1.4.l.1.1.>.1.1.1.<.1.,.1.,.;.>.2.>.>.1.l.1.1.1.5.>.1.>.l.w.1.X.X.X.#.%.*.*.#.*.*.#.#.%.*.W J J E F a 8 8 , e H W { -.{ T x E #.X.{ X.....] ) E J D I J D J b s a 7 4 2 6 6 4 6 6 4 4 2 6 4 6 7 9 7 > 6 8 * 6 4 , W G , 4 > 6 e j 7 > 2 4 > 4 4 4 > 2 , , > > 2 4 > > > 4 > > > < > = > > > % x 4.v 4 > > > 4 = > = 4 = = > = = < = > & o # & = = = < > > = = = > > < * # * 4 > > * = * > * = = = * * * = * * & & & & % & & & & & & & & & % & * & & & & & % & & * & & & & # # o # & * & & % & & & & & & & $ ",
"= * * * * & * & = = & = & = * & & * = & = * = * & & & & * & & & $ & & $ & $ = & & & = & & & & & = = = = = $ & & = = * = = = = & * = < < & & * & & & * & & & = = % = = & = = & * = = = = < < > * = & = = = = > = = = < = > > > * > * > * * 4 4 4 * > 1 > 4 > 4 2 > 4 4 2 4 4 4 4 > 1 4 4 4 4 4 1 4 4 4 4 4 4 4 < > < 4 = = ; < < < 4 < > j I W / %.X.X.....X.) ] %.) ) o.X.f & $ x #.] ) ] ] | | X.X.o.o.....X.X.%.X.%.&.%.o. .*.*.o.o.o.%.o.o...;.o.+.u.D.V.V.i.s.s.s.i.s.s.s.i.s.s.s.s.s.s.C.s.A.C.C.S.A.V.A.V.V.V.V.V.V.A.A.V.A.V.A.V.V.A.V.V.A.V.V.A.A.A.V.V.A.V.V.A.A.A.S.A.S.S.A.V.A.A.A.A.V.A.S.V.A.V.V.A.S.A.A.A.A.A.A.V.V.V.A.V.D.A.n.A.A.A.V.F.F.A.A.A.F.A.D.A.A.A.D.A.F.A.F.A.A.A.A.(.K.d.S.6X#X$XeX>X>X>X8X,X,X8X8X8X>X8XeX,X,X>X>XeX8X7XeX8X7XNXP.- 1 9.UXs.  , $ 3X4XI.6X9.i HXI.(.(.I./.I.I.].(.I.I.I.(.I.I./.L.1X1X(.1XI./.I./.K.(.A.p.l _ ^ 0X3X3XGX^ o + O o Y HXI.I.#X(.#X(.I.I.I.I.I.I.L.I.L.L.L.I.J.L.L.L.L.L.L.I.A.u.v.x.q.n.P.K.H.K.H.K.V.p.v.n.V.P.S.n.v.n.n.x.w.w.>.;.>.;.>.l.;.w.w.u.5XY.0.>.w.1.>.w.>.>.w.w.>.>.w.>.1.l.>.1.1.1.>.1.<.,.>.<.4.<.*.;.,.;.,.1.>.>.1.4.;.,.%.&.;.w.w.>.*.X.X.#.#.#.#.%.#.%.#.%.#.#.{ W D g g z 3 6 g H W ] E G f r w I *.#.X.{ ( { { ] ! T F J A S j r e 4 6 8 6 6 2 2 4 2 4 4 > 4 4 4 4 6 4 6 , > > > = 4 T j 6 7 2 4 e 4 > 3 > 4 > 4 4 2 4 > > 2 , 2 > > > = = = * > * > > > * * > > O N -.F , 8 = > = > = % = 4 = = # = # % 7 U F = & = = = = = = * * = = > = & & = > & & * * = * * = * * * & & * = & & & & & = & & & & & & & % & * & & & & & % # % % & * & # # # $ & * & % & * % % & & & & # # & ",
"> = = * = & = & = = = & * = = % & & = * = = & & & & & & & & = & & & & $ & & = & = & = = & & = & = = = = & & & & = = * & = = = * * & & & = & ; & & * = & = = $ 5 l $ = = > = = = = = > = = & = & * = = * > > = = = = > > > > > > 4 > > = = > 4 > 4 4 4 4 > 2 4 2 4 2 4 4 7 7 7 4 > 4 4 4 4 4 4 4 4 4 4 4 4 4 6 4 4 < 4 < < = < & & = 7 1 ! #.#.#.#.] ..X.#.X.X.{ ] ] D t m 7 % % S { ) ) ..] X.X.o.X.X.....X.*.X.%.*.%.&.o.o.o.%.*.%.*.o.o.o.o.o.;.o.:.0.n.V.p.t.V.s.d.s.V.s.s.d.d.d.s.s.A.A.S.A.S.S.A.C.C.A.S.A.A.S.A.V.V.A.A.A.A.A.A.V.A.V.A.A.A.V.A.V.A.A.A.A.F.A.A.A.A.P.P.S.S.A.A.A.S.A.A.A.A.A.S.A.A.A.G.A.A.A.A.A.A.A.D.A.A.D.S.D.A.A.D.A.A.S.F.A.F.A.F.S.A.A.F.A.A.D.F.D.F.F.S.A.F.A.S.P.F.S.S.3X^.L.7X>XeX>XeX,XeX,X,XeXeX8XeX,X,X;X>XeX8X8XeXeXeXeXPX' . O Y JXh , O ^ JXI.rXO.l LXI.(.1X(.(.(.].I.1X(.(.(.(.(.(.P.1X1X1X(.I.(.(.I.(.I.3X9.LXY Q Q l ].p.y   O , o I 5X(.I.#XI.#X#XI.(.#X#X#XI.I.I.W.L.L.L.L.L.L.L.I.L.L.L./.A.v.m.m.q.n.S.P.K.K.K.P.S.V.D.v.x.F.F.V.n.n.n.u.u.0.:.>.>.>.>.r.1.1.w.q.n.u.w.w.z.w.l.l.w.w.r.l.>.>.1.r.1.1.1.1.l.1.1.r.1.1.<.<.%.,.,.1.>.>.>.w.>.1.4.1.%.%.%.<.o.1.c.>.%.%.#.*.%.#.#.*.%.#.%.-.%.X.W R ~ ( R J a e N U g r 4 r g j b E E ~ ( *.X.( T E I T S S r 6 6 6 6 8 4 6 2 4 4 6 4 2 7 6 4 2 6 8 4 6 9 g r r p r > 6 > 4 > G J e 6 8 4 4 2 > 2 4 2 4 > 4 > 4 > 2 > > > > * = > > > = * = = > = > > , x -.] U p * < < % g g % 6 f 9 1 9 x g N h & * = > = = > * > = = * = = 4 & > & * & = * = * = * > = = = = = = = * = = * * * = & = = & & & * * & & & * & % % & # * * = # & # & & * & & & & & & % & & & # # & ",
"* * & = * & & & = = * & * * & & & % % * = = & & & & & & & & & & & $ & $ $ & = & & = & = = & = = & = = = = & * & * = & & > = * = * & & & & = = = = & & & * * 5 0XUXl O = & = = = = = = = = & = = > * * = = > = = = = > > * * > > > > 4 7 = * > * > 4 > 4 4 > 2 > 4 > 2 4 4 4 4 > > > 4 4 4 4 4 4 4 2 4 4 4 4 4 4 4 < 4 > < < = v G 6 4 1 c ( X.{ X.X.X.{ ..X.#.X.| ( { A 4 = = 7 ! ( ( ,.E z X.o.| o.*.X.*.X.X.X.X.*.*.o.%.o.%.o.o.o.*.o.o.o.%.o.o.%.o.+.F.'.F.q.q.A.s.s.s.i.V.d.d.d.S.A.A.S.S.S.S.s.d.d.d.d.A.A.S.A.A.V.A.V.A.A.A.V.V.V.V.V.A.V.V.A.A.A.A.V.A.A.A.A.F.A.V.P.K.S.S.A.S.A.V.S.S.V.S.C.A.S.S.A.S.A.V.A.S.A.A.V.A.A.A.A.F.A.A.V.A.A.A.A.A.S.V.S.F.A.A.A.F.S.S.A.A.F.F.V.S.S.A.S.S.A.G.A.A.P.K.H.wX>X>X8X8X8X,X,XbX,XeX,X,X8X,X:X,X8XeXeX,XeXeXeXtXPXQ     & e % , % G.5XqX^ m JXI.(.(.(.].(.(.1XI.(.1X(.I.(.(.I.I.1XI.I.#XI.(.(.P.(.].7.JX}.Y e O 1 o . , , o P 0X#XI.W.#XW.I.I.#X#XI.W.#XI.I.L.W.W.W.L.L.I.^.L.L.I.L.L.P.n.x.x.x.b.u.V.P.K.S.H.P.V.n.F.y.w.m.n.V.D.Y.n.t.HXR.O.>.;.r.1.>.1.w.>.w.w.w.w.r.1.w.w.r.l.l.w.w.w.r.1.r.>.>.1.l.>.r.>.>.1.4.,.*.%.%.-.<.&.>.>.>.>.>.,.;.;.,.%.%.%.>.w.;.X.X.#.#.#.%.X.X.#.%.#.#.X./ A F X.X.F g e e e 9 7 r x N r w W R e j c I E m e 7 4 r 6 3 6 4 3 r 3 6 4 2 6 4 2 6 4 6 4 4 4 6 4 7 7 9 4 r n e r T z 3 4 r x I x 6 4 4 > 6 > 4 > > 4 4 > 2 > > > * 4 2 * = * = > > > * & * = > * , 2 2 O x ] c.;.f = < t o.m 1 E ] E v r f & o o & & & & * * * * * > > * = = = > > * * * * * = * * * = > = = = = = = * & * & & & & & & * * & & & & & & & & & * % % & & & & & & # & o # & & # & & & % & # # $ $ # ",
"= * > & > = & * = * * & = * * * * & * % > = & = = & * & * & = = & & = & $ & = & & = = = & = = = = & = = = & & & = = & = ; = = * * = = & * & = = * & & & > . Q UXqX: = > * * = = = = = = = = 4 = ; = = = < = = = = = > = = * > > > , 4 7 1 * > > > > 4 > 4 > 2 4 2 4 4 > 4 > 4 4 4 > 4 4 4 4 4 4 4 4 4 4 6 4 4 4 7 6 4 = & = < ) <.( W W { { X.X.#.X.X.X.#.{ X.%.<.%.4.6.T > % x { E I F p # I ,.o.o.o.*.*.%.%.%.o.o.%.;.o.o.%.%.%.o.o.o.*.o.o.o.o.%.o.&.b.).m.@.y.A.A.s.i.q.p.s.S.d.K.A.t.p.R.A.A.S.d.d.S.S.S.S.F.A.A.A.A.A.A.A.A.V.C.A.A.V.A.A.S.A.A.A.V.A.S.S.A.S.A.A.P.P.A.S.S.S.P.A.A.A.A.S.S.A.A.S.S.V.s.s.S.A.S.A.S.A.A.A.A.V.V.A.S.A.A.A.G.A.G.S.S.S.F.S.F.F.S.A.A.F.A.F.A.A.F.S.F.S.S.S.G.S.S.S.S.H.1X>X%X@X7XeXeX,X,X<XbX,X<XeX,X<XeX,XbX<XeXeXeXeXeXeXPX^ . . , , w O r R.LXY B LX^.#X].1X1X].(.1X(.#X(.#X#X1X#X(.(.1X(.#X1X(.(.(.I.5Xe.9.6XLX' . , O O % % o ~ GX#X#X2X#X#X#X(.(.#X#X#X#X#X#X#XL.W.+XW.W.I.I.I.P.P.I.I.^.F.b.x.c.x.b.v.D.P.H.S.K.G.n.u.x.x.y.m.v.n.n.Y.D.'.PX.X@.w.w.r.w.w.>.>.w.w.w.l.w.x.x.m.y.r.r.r.w.w.w.r.1.r.1.1.1.1.l.l.w.1.1.1.>.,.*.*.#.<.>.1.;.1.r.w.,.&.;.,.%.%.%.4.>.o.X.#.%.#.#.*.#.#.*.-.#.#.#.X.W J v e 4 6 6 s 7 e r g e e f E l.*.x e 7 7 2 7 4 9 7 > 2 6 2 6 7 8 7 7 6 9 f r 4 4 4 7 4 4 4 4 4 4 7 p r e e r , a a 4 6 I #.g , 6 6 4 4 4 4 4 2 4 4 4 > > > 4 * 2 4 4 = * > 2 = > > > > 4 > < > > > 2 2 > , | OX~ 7 E ) ] v r j 9 2 2 O % * < = = & = = < = > * , > > > = * 1 > > * * > * = = * * * * & * = & & & & = & & * * & * * * & & & * & * = * & * * * & & & & & & & & & # 4 = # & & & & * & & # # & $ $ ",
"& & * = * = = # & & * & & = * & & * % & * = = & * & & * * = = & & & = & $ $ & & & & & & & = = = & & = = = & & = < * & * = = = & = & & & # & = & % & & & & % 5 ' q o = & = & * = = = & & = = = = = = = = = = = = = > > = = * * > > * * 4 > = > * > > > > > > 1 > 4 > 1 4 4 4 4 4 4 < 4 < 4 4 4 4 4 4 4 4 2 6 6 4 4 4 4 m N 1 , x ! ..=.#.-.{ { X.#.X.*.#.X.#.( a g N b I x > < 1 6 , 2 , 6 & E ,.o.X.o.o.%.*.*...o.X.%.o.%.o.o.o.o.o.o.o.o.o.o.*.o.o.;.&.;.:.:.@.:.i.G.u.@.q.t.q.s.S.S.t.q.u.F.p.t.A.S.d.H.S.S.A.V.A.F.V.A.A.S.A.C.s.A.C.A.s.A.C.A.A.C.C.A.C.A.S.H.S.S.A.H.S.d.S.H.S.S.S.A.A.S.A.A.S.S.A.S.A.A.A.S.A.V.A.S.S.A.V.A.V.A.A.A.A.S.A.S.S.S.A.S.A.S.S.S.G.S.A.S.V.S.V.S.A.A.S.A.G.F.A.S.G.F.A.S.S.S.4X+XW.%X;XeX<X,X,X,XbXbX,XbXvX<XeX8XeXeX,XbXbXeXeXeXIXq.. . , , , O 1 HXY l LXI.^.1X(.#X1X#X(.#XI.1XI.(.6XI.I.1XI.1X1X(.1X1XI.I.5XQ s.qXJXt O , O , O % :.JXI.#X#X1X#X#XW.#X#X#X#X#X#X#XW.#XW.+XW.W.W.#XP.V.n.F.A.P.P.n.y.c.w.l.r.q.D.F.s.S.G.p.u.y.w.c.r.x.b.y.0.v.v.n.A.y.w.r.>.w.r.r.>.>.b.x.1.w.w.w.m.m.y.w.r.w.w.r.>.>.w.w.r.r.>.1.w.w.r.r.>.>.;.<.*.X.%.;.>.>.>.w.w.>.%.%.X.X.X...| &.*...X.%.X.%.#.X.X.%.( W #.#./ { ( I c r 6 s w 6 e r 4 > , 6 M 1.1.,.I w f r 6 9 7 9 < 7 8 6 > 6 6 7 7 4 6 g x r 4 > 4 4 > 4 > > 6 v r , 9 r , 8 e 6 r r 7 r r 6 4 6 > 3 > > 4 2 > 4 > > > 2 , , > = 4 * * > > > > > = > > 4 > * > > = > 2 4 % 7 I l h ] v 7 > > & & % = * > = 4 & & * = < > > = * = > > , > * > > = * > = * = * * * & & & & & & & & & & * = = = = & & & & & & & * * * * & * & & * & & * & & # & & o m x # & & # & & & # # & # # & ",
"* % > > > = = & > = = & * * * & * % = & * & = & & = * & & & & # & & ; & $ & & & $ & = & = = = = & & = = = & = & = * = * = = = * * = = = * & = & & & = & = & & . * = = = = = = = & & = * = = = < 4 = * & * = > = > > > < > = > > > * = = > = > > 4 4 4 > > 4 4 4 4 4 4 4 4 4 4 4 4 4 4 4 > 4 4 4 4 4 4 4 4 4 6 6 6 6 , I <.T a 6 N E X.R ! ( #.#.%.#.*.%.#.,.-.d 3 w , % , 2 4 = > 1 9 > 8 ~ *.o.o.%.*.%.%.o.X.%.%.o.*.o.;.&.o.o.o.o.*.o.%.%.%.%.%.o.,.;.;.o.;.>.+.0.F.q.O.0.q.9.i.A.G.u.q.n.n.u.q.V.P.K.C.p.n.u.u.n.A.F.S.A.S.A.S.S.S.C.A.A.A.d.A.S.C.A.S.A.S.S.S.H.P.S.S.A.A.S.H.S.H.P.S.S.P.H.S.H.H.S.K.H.K.A.A.A.S.S.S.A.A.A.S.A.S.A.A.A.G.A.A.A.S.S.P.S.S.S.A.S.K.S.K.S.S.S.A.S.S.A.A.G.S.G.F.S.G.S.G.S.F.L.^.#X4X#X>X,XbX,XbX,XbXvXvXbXbXbXbXbXeXbXbXeXnXbXeXeXIX].q   % , , O t h 5 JX#X#X#X(.1X#X#X#X1X(.1XI.I.#X#X1X1X1X1X1X3X#X1X(.].G.C ].UX' . , , , . 7 A.HX#X#X1X#X1X2X2X#X#X#X#X#X#X#X#XW.#X+X+XW.#X#XI.V.n.b.D.n.A.D.n.c.M.l.x.x.y.D.A.V.G.F.v.b.r.w.c.r.x.r.y.r.x.y.y.w.r.r.l.w.r.r.w.>.x.B.c.1.w.r.w.y.y.w.r.y.w.r.r.w.r.r.r.w.1.1.r.>.c.w.w.1.>.<.2.<.*.,.5.>.;.l.m.w.;.#.*.X.X.#.X.X.%.o.X.%.%.#.%.%.X.*.-.D s ] *.( W A g I ~ M e e e 7 7 h Q ) #.( E R ~ I v v x 7 7 > 4 9 > 4 8 6 6 7 p 9 6 4 e 7 4 2 4 4 4 2 7 4 > 6 ~ I c ( #.( T 6 e g f 2 > > 6 4 6 3 4 4 4 > 2 4 4 > > 2 2 > > > = = * = 4 > > < 1 > 4 > * * * > < > 4 = < 4 * o & > 4 = 4 = 4 < < ; > = = = = = & % & & = & * = > = > > > * * > * * > = > > * * = = = * & * & = = & * & = & & & * & & & & & & * & % & * * & * & & = & & & & * & & $ = & * & & & & % % & $ # # & ",
"& * & = = & = = < < & % * & & * & & & = * % & = = & & # & # & # # = = & # & & $ & & & = & ; = & & & = = = = & & & & * & = & * & & = > * & & & = & & & & & & = = = & & & & * = & = & & & = = = = > = = * = = = > = = < > > > 4 > = * * = > = * 4 4 4 4 > > > 4 6 4 4 4 4 4 4 4 4 4 4 4 2 4 1 4 > < 1 7 6 6 4 7 6 4 6 2 1 F W ] G e r ~ ( ! { #.X.#.%.X.%.%.| ,.W 3 s a 3 6 > > 1 7 , = z o.<.%.o.o.o.%.%.%.o.%.o.*.o.o.%.o.o.+.o.o.o.;.o.o.o.*.%.%.;.%.;.,.%.;.o.o.+.0.:.O.@.t.q.q.i.i.q.q.y.u.y.y.u.A.V.i.q.u.y.y.q.v.D.n.u.u.u.V.V.A.P.A.s.A.S.S.d.S.C.S.H.H.S.H.S.S.S.C.C.S.S.S.H.H.S.H.S.H.K.K.S.H.H.H.S.H.A.S.S.K.A.s.A.S.A.A.A.A.A.S.A.A.A.P.(.S.A.H.P.S.S.H.S.H.H.H.H.S.K.P.S.S.V.A.A.F.S.S.S.S.P.S.S.F.H.(.L.^.#XL.Q.,X<X<XvXvX,XbXaXbXbXbXaXbXbXbXbXbXbXbXeXeXPXPX' $   , , O O . q.JXI.#X#X1XI.#X#X1X#X(.#X#X#X1X(.#X1X#X4X1X1X1XK.HXO.Y UXu.. , , o . m R.qX#X1X1X2X#X1X1X2X$X$X#X#X#X$XQ.#X#X+XW.+X+XQ.#XS.u.b.b.b.v.n.v.b.c.l.c.c.>.v.u.F.F.n.y.x.w.x.1.>.l.r.w.r.x.w.w.c.r.l.w.1.r.r.w.l.1.w.b.w.w.r.>.r.w.w.w.w.w.x.w.r.y.x.w.w.>.1.>.1.w.:.w.1.;.>.,.,.,.,.;.5.;.| ;.c.;...X.#.#.#.| #.X.X.X.%.#.X.#.#.#.#.X.-.R d D { 2.<./ S z I M , 6 e 2 4 e I ~ ~ T / ( $...W e r x k e f 4 4 > 7 6 2 7 r 8 7 4 4 4 2 2 4 > 4 > > > 4 > p g z R -.#.( ] S > , 4 4 3 4 4 > 4 4 > > > > 1 4 > > > > > * > > * > * = > = = 4 < = = * = = * = > > = = 4 = = 2 = > = 4 < > = 4 = * = = & * = = & = * * = > * > > > > , = > * * % = > > * & * = = * > = & = * * = * & & & & & & & % % % & & & % # # & & & & & & = * % & * # & & & & = & # & # & # # # $ & & $ ",
"= > & # = = > = * & & & = & & > = % % & = * = & * & % & = & & $ & = = & & & = = = $ & & = & = = = & = = = & & = = & * = = * = & = & % # # & * & * & & = = & * & = & & & = & & = ; = & = = = < = > = > < < = = = = > < > < > > * * * > = > > > > = = < < < > 4 4 4 > > 4 4 4 4 4 4 < < 4 7 4 4 7 4 = = > 1 > 7 7 6 6 8 1 8 7 M N J ( #.X.#.{ X.#.#.*.*.%.*.*.*.*.S , , , 4 4 4 > = p E %.<.| o.o.*.o.o.;.*.*.*.o.;.;.o.;.;.;.;.o.*.o.+.;.;.o.;.;.;.;.,.,.*.%.;.%.;.+.&.&.&.:.t.0.t.q.q.q.y.q.y.y.u.q.u.u.y.q.y.y.y.q.u.u.u.0.w.w.y.q.n.V.p.u.n.A.S.S.S.A.S.H.S.S.H.S.S.H.K.S.P.H.H.H.H.H.P.H.H.H.H.K.K.K.K.S.S.S.K.S.S.A.A.S.K.S.A.S.A.S.K.S.S.H.L.(.3XK.P.H.H.K.K.S.K.H.H.H.P.P.K.H.A.F.G.A.P.S.P.S.S.P.P.F.K.K.P.P.K.#XK.f.$X8X>X,XbXvXbXvXbXbXvXvXvXbXnXbXbXbXbXbXMX8XeXPX6XY . O , , % $ P.qX^.1X#X#X1X#X1X#X#X1X1X1X1X#X1X1X1X#X#X1X1XI.HXB @.F.- $ o . h @.LX1X#X4X4X1X1X2X6X1X1X$X$X#X$X$X$X#X#X#X#XQ.@X@X+X#XF.v.x.x.b.m.m.v.m.c.c.l.c.c.x.m.D.n.u.w.c.l.c.>.1.w.w.r.x.r.x.x.r.w.r.r.l.w.l.r.l.r.x.x.x.r.x.r.l.r.r.w.r.w.y.r.r.r.r.w.>.w.r.w.r.>.r.w.1.>.1.1.,.%.o.%.5.;.o.o.l.;...#.#.#.%.%.%.X.X.X.%.X.#.#.*.X.*...-.-.S e H F X.<.5.( W c e r r e e 2 = O r ! 4.c.5.<.4.W x f F F I m Q m 4 7 6 4 7 4 7 4 6 4 6 2 4 4 4 4 2 6 6 4 f 8 r e r 6 N ! 9 > 3 4 4 > 2 4 4 4 4 4 4 4 6 > 6 4 4 > 2 2 > 2 4 4 4 > > > = * 6 4 > * = = > * > 4 4 > < > > * > = 4 = = = > > = = > * = = = & & < > = = > = * * > 2 * * = > * * * * * > * = * > = > = > = > = = = = & & * = & & & % & & % * = * & & # & & & % & * & % * & * $ & & = * = & & & # # & # $ = & $ ",
"& = # % * = & = * & * # * & * > = # # # & & * = & # * & & = = $ & = & # & = & & = ; ; = = & = $ = & = & = & = & = * * & * * & & & & % & = & & & & & = & & & = & & & & & & & & = = ; = & = = = = = = = = = = = = = < = * = > > * > = = = = > > > = = > > > = 1 > > > < 4 4 4 4 4 > > 4 > 4 4 9 F ) X.E k g f 7 , 6 > 2 9 r 4 g R *.#.#.{ #.{ { X.#.#.*.#.%.X.X.<.o.I ) J 4 4 1 4 U %.;.o.>.>.,.%.o.o.;.%.&.;.;.;.o.;.o.| ;.+.&.;.:.;.;.+.;.;.:.+.o.o.;.&.;.o.o.*.:. .%.o.o.:.:.q.q.q.y.q.y.0.y.y.y.y.q.q.q.y.y.q.q.y.y.y.y.y.y.y.y.q.y.u.y.q.v.y.n.V.A.S.S.S.H.S.S.H.K.K.P.H.H.K.H.H.K.H.K.K.H.H.K.H.H.H.H.H.H.S.H.H.H.S.H.S.S.H.K.S.H.S.S.H.K.K.d.qXK.K.K.K.K.H.P.H.S.H.K.S.H.K.S.S.P.S.F.S.S.P.P.P.P.S.P.P.P.K.H.K.P.K.K.K.I.$XL.W.>XbXaXaXgXaXvXaXbXbXbXbXbXbXeXbXbXtXtX7XKXIXi.5 . % > . q 5X4X#X#X1X#X1X#X#X1X#X#X1X1X#X1X#X#X#X1X#X/.0X@.& x $     l t.HXA.^ S.6X2X4X1X2X1X1X2X2X1X#X#X$X$XQ.$X#XH.S.#X@XQ.>XL.n.v.m.x.x.b.b.x.x.l.l.w.l.l.l.m.b.y.x.r.r.w.1.w.:.>.l.w.y.y.y.x.y.w.y.w.w.w.l.r.w.x.c.x.c.x.r.x.w.c.x.:.>.w.w.r.w.w.r.w.r.w.w.w.w.x.x.w.1.,.>.1.*.X.*.%.%.,.*.X.,.%.X.X.#.X.X.o.X.X.%...X.X.#.#.#.X...) ( <.<.b e w r f m M ~ J e 6 e e 7 r x x ! 5.3.$.4.,.&.,.F , r f r m ..F 4 4 6 4 2 4 4 4 6 2 2 > > 4 4 > 4 > > p *.5.M.{ r > 7 * = 4 6 > > 4 2 > 4 > > 4 4 > 2 4 6 6 6 2 > , > 2 > 4 4 > = * * & * 4 * = 4 = , = = > > = > = < = & < < = & & = = = = > * & = * & & & * = > = * = 4 > > , , = * > > & * % * * = * & = & & & = = = = = = = * & & * * # & & & & & & & & & & & & & & & & & # # & & & & # & # * & = $ & = & & & & # # ",
"= = & & = & = = > > * % & * = > & & & % * # & & & & = & & & $ & = & & # & = = & = & = $ $ = ; = ; < ; & = = ; = * * < > 1 * * % * & & = = = & & = = = & & = = & & & = & & & = = = = & = = = = & = = ; = = = = = = < = & = > > > > > > = > = > > > > < = > < 4 4 4 4 4 4 4 4 4 4 > > 4 > > 4 4 > 7 ] *.F ~ *.) U I r e r 9 x ,.*.#.{ X.X.#.{ X.X.#.#.*.*.=.J R o.~ &.l.o.r 6 4 e *.1...1.o.N F *.;.&.;.&.;.;.;.;.+.>.%.m ;.>.+.;.;.;.:.;.;.:.;.@.v.v.y. .:.*.;.%.;.+.;.o.o.@.0.q.q.y.u.q.y.y.y.q.u.u.q.q.y.y.y.y.y.y.u.y.y.y.v.y.0.y.b.v.v.v.v.u.u.y.V.V.S.H.H.S.K.L.P.H.S.H.P.K.K.K.L.K.L.L.K.H.L.L.L.L.K.L.K.H.H.H.K.K.K.H.H.H.S.H.K.H.K.H.K.d.6XUXS.H.P.P.K.K.P.K.K.S.K.S.S.S.H.P.P.K.H.P.P.G.P.K.H.K.P.H.P.K.K.K.I.P./.K.(.1XL.K.$X>XbXgXbXaXvXnXnXvXbXbXbXbXbXbXMXMXeXwXrXPXUXJXC . % 6 . i 6X6X#X1X1X1X#X1X1X#X2X1X1X2X2X#X1X1X4X1X5Xn.= O .   . ^ HX9.i $ . 9.rX1X4X2X2X2X2X1X].P.1X2X$X$X$X#XP.A.n.P.$X;X$XS.n.b.m.c.c.x.x.x.c.l.l.l.c.r.r.x.b.x.c.w.w.>.w.>.>.w.c.y.y.x.x.y.y.v.m.y.w.y.x.x.r.x.x.b.b.x.x.x.x.m.m.w.:.r.r.w.r.r.w.r.r.r.w.r.r.w.y.x.1.,.,.;.*.%.,.%.*.*.*.%.1.%...#.*.X.X.X.X.%.%.X.o.X.%.X.X.%.X.! %.,.%.] x x N t e e E U r r r e f ~ *...;.1.4.4.1.,.*.;.o.E I f r f m 9 6 8 6 4 6 2 4 6 7 4 4 4 4 > 4 7 8 7 4 6 N ..] p 2 6 > > 6 4 6 4 2 4 4 > 4 > 4 4 4 2 2 4 4 o & 2 2 , 2 , 2 * > * * * 2 & = > > > 4 < = > 4 = = > 4 < < = 4 ; < = = * = = > = = * > = = & * & > > = = , > , > = > > * > * < > > = > * > * * & & & = & > > > = & * = & % & * * = & = & # # % # % & & = * & = = = & & & & & & & & & & & # # = ; # o # # # # ",
"= & = = & & = = > > % % * & % * = & = & % & * # & & & & & # & # & $ # # & & & & & & $ $ = $ = = $ o = = = = = = = & = O o = * & & % = & & = = & & & & & & & & & & & & & = & & = = & = & = ; = & = = = = = = = = = < = & = = > > = > > = * = > > > > = > = < 4 4 < < 4 4 4 4 4 > 4 < > 2 > > 4 2 > & = = j S X.,.5...{ F ( F *.%.X.{ { X.{ { X.{ X.#.-.*.-.E T X.~ | ~ k 8 7 6 6 G ) *...k 1 4 E ;.o.%.;.;.&.;.+.:.>.! t E ;.&.o.o.+.o.&.;.&.+.9.LXLXLXy.o.o.;.o.o.+.%.o.| &.0.0.y.q.y.y.q.q.y.q.y.q.y.q.q.y.y.y.u.y.y.q.y.y.y.y.y.y.v.u.y.v.v.y.v.v.u.V.S.d.H.H.H.L.H.H.H.H.H.H.K.L.J.L.J.H.L.H.H.L.^.L.L.H.K.L.L.H.H.L.H.L.K.d.H.S.H.K.K.H.I.K.H.1XH.K.K.H.P.K.K.K.K.S.S.P.P.S.P.H.H.K.P.P.K.S.S.K.P.K.H.K.H.K.P.P.K.P.K.K.(.I.K.I.I.Q.eXbXbXgXnXgXnXnXbXbXbXbXnXbXbXeXNX(.5 l O.HXUXu.< . 4 . q I.qX(.1X#X2X#X1X1X#X2X2X#X2X1X2X#X#X1X5Xt O # = m Q C -   O , , n.6X#X2X4X#X#X4XS.A.A.S.#X$XQ.$XL.V.n.v.A.$X+Xd.u.n.b.x.c.x.x.c.x.x.c.c.l.l.l.r.w.c.x.r.x.w.r.x.w.w.l.w.x.x.y.x.w.w.b.b.y.w.r.x.w.x.y.x.x.x.b.b.y.y.b.b.w.r.w.r.y.r.w.w.w.w.w.w.r.r.w.w.w.%.,.,.%.*.%.*.#.*.X.#.X.%.%.X.X.X.X.....X...X.%.X.X.%.X.X.%.*.U F ;.4.X.-.-.%.E ~ J z e e r r 6 e ! ~ b A ..,.] U x F x M N I x x r e 7 6 6 4 4 6 2 4 > 4 7 7 4 7 4 1 4 4 < 7 > > 2 , , > 6 4 2 6 > > > 4 > > 4 > > 2 > > 2 2 = 5 ' Y $ 2 > , , > 2 > = 1 > = = * = > = > > 4 = > = 4 = 4 < = = = 4 = = < = & & = = = = 4 * & & * * % * > * > $ h u.U $ 1 > > * * > 4 1 > * = = * = = * & = * = * & & & = * * # & * * = & & # # % & & % & = = $ & ; = = & & & # & # % = & O & # & = # # $ # # $ ",
"= = < ; = = = = = * % * = & * & > = > = = * * & = & * & & & = & & & $ & & $ = = = & & = ; & ; $ ; q ; = = = > = < ; . B ^ - = = = * * = > = = & & & * & & & * & = & & & = & & = = & = = = = = = = = ; = = = = = ; = = = = * > > > > > * * = < > > > < 4 4 > < > < 4 4 4 4 < < 4 4 < 4 < 4 > > 2 8 7 9 > > , G N v E =.( { ~ ) ) X.X.{ { X.{ #.X.#.#.I N U ] -.<.F e 7 > e 8 e 7 7 4 a e h E j j ;.+.&.;.%.&.;.;.;.) M J G ) +.o.%.;.;.;.;.>.;.O.P.9XUXHX@.%.;.%.;.>.>.X.| %.w.0.q.y.y.y.y.y.u.y.u.u.u.y.q.y.u.u.u.y.q.y.u.y.y.u.v.y.y.y.x.x.v.v.n.v.u.V.F.S.H.H.K.K.K.K.I.H.I.L.L.K.J.L.L.L.J.L.L.L.L.L.L.L.L.L.L.H.H.L.L.J.L.L.L.K.L.L.L.L.I.L.L.H.#XK.K.K.L.K.I.K.H.K.I.K.I.I.I.H.K.P.P.H.G.P.I.K.I.P.P.P.K.I.(.P.I.P.I.K.P.(.I.I.I.^.%X+X>X,XnXbXnXnXnXbXbXnXnXbXbXeXPX3X$ O o $ B u.XXY # & . - V.rX#X#X2X1X2X2X#X2X2X#X1X2X4X1XI.JXO.. , 4 E k   . # , , % f P.4X2X2X2X2X#X3Xp.n.G.n.1X$XW.#XP.n.m.b.A.9X#Xp.b.m.b.b.c.x.c.b.x.c.c.c.c.c.c.l.x.c.c.x.x.y.x.x.r.r.y.x.y.y.x.x.y.x.y.y.y.x.x.x.x.x.x.b.x.x.x.x.x.x.w.y.y.x.r.y.y.r.w.y.w.x.r.y.w.w.>.w.:.,.;.,.*.*.%.*.*.%.%.*.X.#.%.%.X.#.X.X.X.*.X.%.X.X.o.*.X.%.%.S e t r M x N S k 7 v x e e r e r e e e e 4 e r j g j e v 7 8 > < 4 7 r s 6 8 6 7 6 6 6 7 4 4 7 7 4 > 2 4 > > 4 4 4 7 6 7 2 2 > 4 > > 4 4 4 6 4 4 2 > 4 4 > 2 6 4 ; G.UXUXY & > 2 2 > > > > 4 4 < = = > 2 > > > < = < < > & = 4 = = = > < = 4 > = = = = > 4 4 = * = > * = * 2 2 2 f HXUXUXh 1 1 = > > = > & * * = * & * > = = = = & * * * & & * & * * & * * & * & % & & & & * & & # $ & & # & & % & = & & & & & = & ; & & & = # $ * ",
"= = & = = = & = & % & % * & & % & = * * * * > > = = = # # $ $ = = $ & $ & & & = & $ & & $ = ; . m c.; & = = & = = o Y UXUXC O , & * & = = * % & & & # & & & & & & & & & & & & & & & = = & = = = = = = = = = = = = ; < = = = = > > * = * = * > < = = < < > = < < 4 < 4 4 < > < < 4 4 4 < > > 4 > , 4 b M z , 1 3 F N ( c.) *.#.#.{ { } { X.#.{ { #.{ 6 , r r M G I I T S r 6 6 6 7 6 r e N ] M f | o.o.o.;.%.o.;...x b H N ~ &.&.>.o.+.+.+.>.;. .G.PXPXLX:.o.*.o.+.1.>.X.| | :.0.0.q.y.y.y.y.u.u.u.i.u.u.u.y.u.u.y.y.y.y.y.y.u.y.u.y.u.y.v.y.y.v.b.v.y.u.V.S.S.S.K.H.L.L.H.I.I.I.L.H.H.L.L.L.L.J.L.J.J.J.L.L.L.J.L.L.L.H.L.H.L.J.L.L.L.J.L.L.K.L.L.L.6XI.H.I.K.I.I.L.I.K.I.L.K.H.P.I.K.S.P.P.I.K.L.K.K.I.I.K.I.L.I.^.^.K.P.K.I.L.^.K.^.#XI.#XW.Q.8XbXnXgXbXbXbXbXbXbXbXeXtXJXh % 3 % o   5 ^ _ 7 1 . $ 9.JX#X#X2X2X#X2X#X#X#X2X#X$X#XPXV.$ & * & . . & $ = # , o Y 4X#X2X2X1X#XqXn.y.F.n.n.P.#X@X#XS.n.b.b.n.(./.n.b.b.v.b.x.c.c.x.b.x.x.x.b.x.x.c.x.x.x.x.w.x.y.y.y.y.w.y.y.y.y.x.y.y.w.y.r.x.y.x.b.v.y.x.x.y.y.x.y.r.w.y.w.w.y.y.q.y.w.w.r.x.y.r.w.w.w.r.+.o.,.*.%.%.%.X.*.*.X.X.X.%.X.X.X.X.X.*.%.%.o.X.X.o.X.X.X.o.%.R g x e f v k 4 e 7 t h f e e 6 7 8 r r j f p 7 x r 9 k h v f 1 7 4 r 6 6 4 6 6 6 4 6 6 6 6 4 > > 4 7 6 7 4 4 > 4 6 4 2 8 2 > > 2 > > > 6 4 > 4 2 > 4 > > 2 4 > * q PXIXUX`.$ > > 2 > * > > = 4 > * > * > 4 > * = > > = > f t 9 6 & > = < = = < > = = & > 4 = & > * , > > * * 2 2 5 ^ 5XoX9 > 4 4 > = > * = > * & * * & * * = * * = * * * % % % * & * & # # * # & * & & & & & # $ $ & & & & # & * & & & $ & = & & = $ & = & & & # # ",
"= & = = < = = & * * * & = & & & * * * & = > & . $ $ $ * = # & # & = = & & & = & $ & = & & = ; = # $ & = = = ; = < & q ].LXh # > & * = & = & & & = & & & = & = & & & = = = & = & & & 4 = & = ; = = = = = = ; ; = = = < = = < > * * > > > > = > > > < > * * > 4 < 4 4 4 4 > > 4 < 4 4 4 4 > 2 4 4 4 , > r F J c , f j x g r x S ( { X.X.{ X.{ #.#.#.%.H 3 f 4 > , 7 x U G r , 7 7 7 8 r e r t 4 g ) %.;.%.;.;.;.:.X.F E H S o.:.+.+.:.:.;.:.&.:.+.u.UXPXD.+.;.;.o.o.+.o.X.] | >.:.0.0.y.u.>.:.y.v.u.i.u.u.u.u.u.u.y.u.u.u.u.u.u.y.q.u.v.y.v.u.u.u.u.u.y.y.n.V.p.s.S.K.L.L.L.L.L.J.L.L.L.L.I.L.#XW.L.L.wX4XL.L.W.L.L.W.L.J.L.L.L.H.J.L.L.L.I.L.L.L.L.L.2X#XL.L.I.L.L.L.^.L.L.L.L.L.I.L.K.K.K.I.#XL.I.I.I.I.I.I.I.I.I.I.^.I.I.I.(.^.#XI.#X#X#X^.#X#X$X$XeXbXnXnXnXbXbXbXnXbXeXIXB o * * * % #   o 9 f , # . 9.JX4X4X9X9XrXrXrXtXyX9XrXJXA.- O * & # & * = $ & $ % # 9.2X#X#X2X2X2X].+.v.).n.n.p.f.L.(.n.b.n.m.v.p.n.n.m.n.b.b.b.b.x.b.v.b.x.b.m.b.b.b.x.x.x.y.y.v.v.x.v.y.y.x.y.v.y.y.w.y.y.x.y.x.x.b.v.y.y.x.x.x.x.x.y.r.y.x.r.y.y.y.y.y.y.y.w.:.:.>.r.x.x.b.:.%.,.,.*.*.%.%.*.;.%.%.#.*.#.X.X.%.o. . .%.o.X.o.*.X.X.o.o.X.;.] I v N g ) X.] U A r e e r 8 e 7 7 r j e 7 F 1.I 4 4 1 > r h x p f r 8 6 6 4 6 7 8 4 6 4 2 4 4 2 6 7 4 7 7 4 4 2 4 4 2 2 4 > > 2 4 1 7 4 4 > 1 4 4 4 4 > 2 4 > = ' PXJXC & 4 > > 4 > > > > > > = > > > 4 = * > = 4 = = j j 4 9 & = > < < = = = = > = > * = = > * * * , = 2 > 2 * # ; < = 1 > > , > > * > 1 * & = = = = = > * = * = & & * & & = = = & # % * & & * = = * & & # & & = & & & & & > = = & & & = & & # & & = = = = $ # ",
"& * & = = & & & = & & & = & & & = & & & * # 5 n.HXD.4 # & $ $ $ & $ & = = & & & & $ & & = & & = = = = = = & ; = = = o < t o % & * # & & & & & & & & # # & = = & & & & = = & & & = & = = = = = = ; < = = = = = = = = = ; = > > * > * > = = > > = > = > = = < < 4 4 4 4 < 4 > < < > 4 4 < 4 > > 4 4 2 4 > > M E S e , S g E X.W W #.) { { { { #.#.{ #.#.S 2 7 p 4 4 , , > 3 6 4 4 9 6 6 r 6 7 f I ;.o.o.;.;.&.o.:.1.E D J S ~ :.0.w.y.x.:.+.+.:.+.@.Y.m.@.&.+.o.;.+. .:.X.o.| o.:.0.0.q.q.;.o.>.y.u.t.u.u.u.u.u.u.u.u.u.u.u.u.u.t.u.u.u.v.u.u.u.u.v.y.v.u.u.v.u.u.p.S.L.H.L.L.L.L.I.L.L.L.L.W.W.W.W.L.7X$XL.L.L.L.L.L.W.W.L.f.L.L.J.J.L.L.J.L.L.J.L.L.L.#XL.L.I.L.L.L.L.L.J.L.I.L.L.I.^.K.L.L.L.#X#XL.L.L.I.L.I.L.L.I.#XI.I.I.I.#X^.#X#XW.#XI.I.#X#X#X$X;XbXnXbXbXbXbXbXMX,XPX' . * % % % * * * . % , , o . ' I.L.K.C.S.d.s.9.s.S.5X^ . # > # & & = & & $ $ & . h ].I.#X2X4X].4Xp.~ b.m.n.u.p.^.H.p.v.v.b.b.v.v.v.n.v.b.n.v.v.b.b.u.b.m.v.x.x.b.x.x.b.x.y.v.y.u.u.y.y.y.y.y.u.y.y.y.y.v.y.y.y.w.x.v.y.y.x.v.y.x.x.y.x.v.y.w.y.y.w.y.u.y.w.x.1.%.o.>.;.y.w.>.:.;.%.;.;.,.X.%.;.%.o.*.*.X...X.X.X...;.>.| X.o.X.o.%.%...*.X...) W N g w z N M f a 7 e 7 8 8 7 4 4 4 4 4 4 f U v 1 1 9 1 S Q | W g > e 6 3 6 6 6 6 4 > 2 6 > 4 2 > 4 7 4 4 2 = * 2 4 2 2 2 > 4 > < > > 4 > > > > 4 4 > , > > 2 > & h q $ 4 2 > > 4 > > > > > 4 = = > > * * = > * = = = & * * = * = > = = = * = * = = * & & > > > > * , > , , , , 2 , > > > * = * = = > * > > % * > * * * = > = & * * = = = % & = & & * & & % & & = = & # % & = & & & = & & & & = = & & & & = & # & & $ & = # # $ ",
"> & * = ; & & & = = & * = & & * * = = = = ; R.UXUXUX@.. = = & & & $ & = = & & & = $ & = = = = = = = = = < ; = & = = 4 = % = = & & & & & = & * & & = & # & & & & * & & = & # & = = = = = = = = = = & = = < = ; < = = < = < < * = = = 4 > = = = < 4 < < > < = < 4 4 4 4 4 4 < < 4 4 > 4 4 4 4 4 = > 2 4 < 4 4 f J ! D x I ! ] #./ =.{ { #.%.#.#.#.#.X.#.#.L j r 4 r 7 7 6 6 6 7 7 8 7 9 9 j o.2.;.;.;.;.;.;.;.;.;.;.I A J n E b.m.Y.b.r.:.:.;.:.@.@.@.@.:.>.;.;.:.@.;.>.;.>.%.:.:.0.0.y.y.&.;.1.0.v.u.i.u.u.u.u.i.p.u.p.p.p.u.u.u.p.u.v.n.v.v.u.v.n.v.v.u.u.u.u.y.p.V.P.I.L.W.W.W.#XL.L.W.W.W.W.#X+XJ.L.L.W.W.+XL.W.W.$X#XL.L.W.W.L.L.#XW.L.L.W.L.#XL.W.W.W.W.W.W.#X#X$X#X#XW.#XW.I.L.W.I.#XL.W.W.L.L.L.L.#XL.#X#X#XW.I.W.#XL.I.L.L.#X#X#X#X^.#XI.#X#X#XL.7XnXBXnXBXnXNXnXbXKXd.. , % % % % # & * & # * * * . $ O $ o $ o # . $ . ; . $ * = & & & = & = = = & . 9.qX#X#X6Xi.q.6X/.0.m.m.m.n.A.3XS.p.v.n.v.n.v.m.n.n.v.n.n.v.b.n.v.v.n.m.v.y.y.v.v.v.y.v.v.v.u.y.u.u.y.v.y.u.v.y.y.v.y.v.y.y.x.x.y.v.v.x.v.v.x.x.v.v.y.x.y.b.x.x.y.y.y.y.y.x.>.%.o.;.w.w.0.&.&.,.;.*.%.%.*.*.%.*.%.*.X.#.X.*.X.%.) B.OX| o.%.o.o.%.*.X.o.X.%.X.*.U N b e , 7 7 e p p r 8 7 7 7 8 6 7 7 7 > 1 7 t m E ) | P U E P f 8 6 e 6 7 4 4 6 7 4 8 4 7 4 4 4 7 6 4 = > > 4 4 7 4 4 = 4 = > 2 4 > > 2 2 > 4 4 > > 2 > 4 > 4 * > 4 2 2 2 2 4 4 4 > > > 4 > > > = = > > 4 = > > < = 4 > = = > = < = > = > = > > * & > * > 4 4 > 2 > 4 , , = , > 2 * = = = > > = > = > > & * > = > * > > * & * 4 4 & & % & & * & = * = = = * = * & & & = = * = & = = = $ & & & * = & & & & & & $ = & & # $ $ ",
"* = = & * = = & & ; = # & & * & & * & = % h UXUXPXUXm.o & & $ $ = & & # & & & & & & $ & & = & $ = & & = = = & = = & * = > * & # & & & & & & & = * * & % & & & % & & & & & & & & & = = & = = = & & $ & & = < = = = = ; 4 = = > * * 4 4 4 > = > > < < > = > > < < 4 4 4 4 < < 4 < 4 < < 4 4 > < > 4 > = 4 4 > 4 7 N T / =.E , W W I #.X.( ! { #.{ #.{ { ( [ E J r 2 8 9 7 9 4 4 6 4 8 e , P l.&.&.+. .;.&.&.;.;.&.;.o.E n c  .Y.n.m.0.:.:.>.;.;.:.>.:.:.;.:.;.:.+.;.@.&.:.&.;.>.@.:.0.w.>.:.*.;.>.u.p.u.u.p.i.i.u.i.p.p.u.p.u.p.u.u.u.u.u.n.u.u.u.u.u.u.u.v.u.u.u.u.i.S.I.#XL.W.L.W.W.#XL.W.W.#XW.W.W.+XQ.#XW.W.W.W.W.W.L.f.W.W.L.W.L.L.#XW.L.W.W.W.#XW.W.#XW.I.W.#X+XQ.#X#XW.W.W.#XL.L.W.W.L.W.W.W.W.#XI.L.#XL.W.#XQ.#X#X$X#X#XI.I.I.#XW.#X#XW.#X#X#X#X^.W.7XMXbXbXbXMXeX8X>XKXl . % % % % # # # & % * * = & & & 2 * , , 2 2 2 * * = = % & & & $ & & & & > . m ].P.1XqX].i.A.qX5Xn.n.n.u.n.p.n.p.n.n.n.u.n.n.n.n.v.v.n.v.n.n.n.v.v.m.v.v.b.b.b.v.v.y.y.v.v.v.u.b.b.u.u.v.u.y.v.y.v.y.w.v.b.v.y.w.b.y.v.y.y.v.v.x.v.y.y.y.x.v.x.q.y.q.x.y.w.;.;.o.o.r.y.w.w.;.*.%.*.%.*.%.%.%.%.*.] ] %.%.#.%.%.o.o.;...o.o.X.%.o.o.o.o...{ X.o.~ g e r r f a a r 7 e e 6 7 9 8 4 4 > 4 8 e 6 f c Q ;.>...o.%.o.N r 4 7 > 4 j f < < 4 6 6 4 6 4 4 4 6 4 > 4 > > > 4 4 > > * 6 8 > > > > > > > > > 4 > > > > 2 4 4 6 2 2 > 2 4 > 4 4 > > > > 4 < = = * 4 > > 4 > * > < < = > > = = = < < = = > > = > * * * > > > 4 2 2 > , * * > = * > , = > = = = * > > * * * * > > < > = = % & < > % & * = # * * = = > > > = & * = & * = = = = * & = = & $ & & & & & & $ & & $ & & & # # $ # ",
"& = = & = = ; $ * ; = % & & = & * & * = > # O.UXUXHXf # * & = & = & # # & & = & = = = $ # # $ = = = = = = = = = = * = = * & = & = & & # % # % & = * & & & & & & & & = = & & = & & = = = = = = = = = = & * = = = ; = < = ; = < > > & = * * > 4 > > * > > < > < < 4 4 4 > < 4 4 < < 4 4 > 4 = > 4 4 > 2 > 4 4 7 1 6 2 r U W 6 S T W #.] x > J #.#.#.{ #.{ } R c a f 8 7 6 8 7 8 7 7 7 9 7 Q N.;.o.;.;.:.;.;.;.;.,.*.~ E D N w.'.p.y.w.r.>.w.:.>.:.>.>.>.:.;.;.:.&.>.:.1.:.+.o.&.&.:.0.x.w.1.;.;.w.y.u.u.i.i.u.p.i.p.p.p.i.p.p.p.u.u.p.p.n.n.u.n.u.n.n.u.u.n.u.n.y.p.p.A.S.I.W.#XW.#X#XQ.#X#XW.#XW.W.+X+X#X$XQ.Q.#X#XL.L.J.W.W.#XQ.#XW.W.#X#XW.#XW.W.W.W.#X#X#X#X+X#X+X+XQ.W.W.Q.#X#X#X#XW.W.W.#XW.W.#X#X#X#X#X#X#X+X$X7X4X+X#X$X#X#XI.#X#X#X#X#X#X#X#X#X#X#X2X4X$X%X%X%X7X7X>XeX1X- o * * * # * # % & = % % * 2 * = * = * , 2 , , = * * & % & = & * & * = # 6 D.'.F.V.n.u.F.G.F.p.v.m.m.u.n.u.n.n.n.n.m.n.n.n.n.n.u.n.m.n.m.m.n.n.n.n.n.v.n.n.n.v.v.v.v.y.v.u.b.v.y.y.y.u.v.v.v.y.v.v.v.v.v.y.w.x.b.v.v.y.b.v.v.y.y.y.v.x.y.y.q.y.y.q.x.r.1.;.*.%.;.c.c.:.>.;.,.*.*.*.,.*.%.%.,.*.....,.%.%.*.*.%.%.o.%.%.%.o.*.o.%.,.1.<.*...o.%.) ~ ! x f f f p f r p 8 8 e 9 e r 4 4 4 6 r j 6 r F o.>.c.w.l.%.! m j g U o.I h l p 7 6 4 7 6 4 6 6 6 4 4 4 4 4 7 7 4 > * f j > > 2 4 > 4 > > 4 > 4 4 2 4 2 > 2 4 2 4 2 2 4 4 > > 4 4 > 4 2 > > > > > < 4 4 > = > < < > > > > > = * * & & = < > = = > = > , > > > , > > > > > > > > = > 4 < > * > = > * * * > * > & > > > * * & * = 2 * > * * * * * > & * & = = > = = * = = = = = = = & & & = & * & & & & & = # & & & $ # $ ",
"* & * & = & = & $ = # & = & & = = % & # * * . m Q 7 o = # # $ & $ $ $ # = & & & & = = $ # # & $ & = = $ & & = & & & = & = = & & $ & # & = & # # & & & & * & & & & & = = = & & = = & & = * = = = > = > = & 4 4 = = = * = < < = * * = * * > * * > * * * > > > < < 4 4 4 = > < < 4 4 > = = = = 4 < > > 2 > > 4 4 4 7 , > > r r e e T S r p 6 J *.{ { #.#.{ / W D e e 7 8 8 4 7 8 7 7 7 r 7 7 Y I v ) o.;.o.>.&.>...v M W S x R _ _ :.w.w.>.:.>.>.:.1.:.:.:.:.;.&.:.:.>.>.;.&.o.>.&.o.>.w.:.;.>.>.;.r.0.9.s.A.t.u.p.p.i.i.p.p.i.i.i.p.i.s.p.u.i.p.n.n.p.p.u.p.p.u.u.u.V.s.i.d.W.W.#X#X#X#XQ.#X#XQ.#X#XW.Q.#XQ.+X+XQ.Q.W.W.Q.#XW.Q.+X#XW.Q.W.#X$X+XQ.Q.W.#X#XQ.$X$XW.+XQ.+X+X+XQ.#XQ.Q.+X#XQ.#XQ.Q.Q.#XQ.#X#XQ.#X$X#X+X+X#XQ.+X#X+X$X#X#X#X#X#X#X#X#X#X#X#X#X#X1X#X1X2X#X4X$X%X>XQ.NXH.X # = % % % % & # % * = & = * % 2 = = = * 2 = = % & % * % % * * = 2 # = u.R.V.D.0.0.0.v.u.n.q.v.v.n.n.n.m.A.p.n.n.n.m.n.p.n.u.n.n.n.n.n.n.n.m.D.n.v.v.n.v.n.n.n.n.u.u.u.u.u.v.q.y.v.y.v.v.v.y.v.y.y.v.y.w.x.v.y.b.b.y.y.v.y.y.v.y.y.u.u.w.v.y.y.y.w.:.:.%.%.X.;.r.;.;.;.&.,.;.%.*.*.%.;.o.%.;.....%.X.%.o.%.*.;.*.*.o.*.%.o.o.,.T N | o.! ) o.2.M.,.M 6 9 e e f r e r 8 4 7 9 G E e > e 6 6 r e e ~ >.&.1.w.;.;...o.| ~ m Q ~ W f 4 4 6 4 4 4 4 4 4 4 4 > 2 6 7 4 4 > > 4 4 > > > > > > 2 4 > 4 > > 4 4 > 4 > > > 2 2 > > 2 > > > > 4 > > > > < > = > 4 > = = > = > > > * = = = * > = * & = = > = > > > > , * * > > * = * * > > * > > = > = * & * * * > * = > = # = < = > > * > * > * * , * * = = & * & % * = * = = & = * * = = = = & & = & & & & & & & # & & # & & # # $ ",
"< * * = < & = & & = & & = = < = = & & # = & > o . $ = & & $ & & & $ & & = & & & = = = = & $ = & = & = = = # = = ; = = & = = & o # $ * # & & & & & & & & = & & & & & & = = = * = = * = = = = > > = > & & * 7 7 < > = < < o O < = = = > 4 4 > > > > = > = < < < 4 4 4 4 < 4 = 4 4 4 < 4 t 6 = 4 4 4 4 4 4 4 4 1 4 6 4 7 4 4 f 8 > 8 4 < 9 > J #.X.} { { / R ] [ S e e 8 8 8 8 8 7 8 7 e 7 7 7 f U W T %.;.>.;.>.) M A S x S N S I &.x.r.w.0.>.>.w.0.>.:.>.0.:.:.:.:.+.@.;.>.:.>.:.>.;.o.o.;.>.1.>.r.0.0.P.D.q.y.u.p.p.s.p.p.p.p.p.s.p.s.s.A.S.A.p.p.n.A.p.A.p.p.p.A.V.A.s.K.#XL.L.#X#X$X#X+X+XQ.+X$X+X@X$X#XQ.+XQ.+XQ.@X+X+XQ.#X$XQ.+X$XQ.+XQ.Q.$X@X+X+X@X$X@X$X$X@X$X$X+X$X%X$X@X$X+X+X$X$XQ.#X+X#X+X$X+X$X#X#X$X$XW.#XQ.$X$X$X+X$X$X#X$X$X#X$X$X4X#X#X$X1X#X#X#X2X1X#X#X$X$X%X@XKXd.X # > & % % * % * * > = > = , * * 7 6 * 2 = = * * % % % * & > * o 9 u.R.A.A.F.u.y.u.v.D.R.n.m.n.m.A.n.n.n.m.A.n.n.m.n.n.n.A.A.n.A.A.A.A.D.n.n.n.n.n.n.n.n.n.n.n.n.'.Y.y.u.u.u.v.v.u.v.u.v.n.v.v.v.n.v.v.m.v.n.v.v.y.w.y.x.v.v.u.u.v.v.u.v.u.v.b.w.&.;.;.*.%.;.&.;.:.>.;.,.;.%.;.;.;.,.%.&.;.*.o.*.%.,.%.*.;.;.o.*.*.*.%.%.*.<.I e e e f x e x x 7 9 j h 4 f r e e 8 7 e r , f I k e r r e e v v ~ ;.>.c.c.1.>.o.*.) Q P N r 9 4 6 7 7 4 6 6 4 4 4 4 6 4 4 4 4 4 7 > 1 > > > 4 > > > 4 > > 4 4 > > > > 2 > 2 6 > 2 2 > 2 4 > 4 > > * > > > > 4 > > * * = > > > > > = > = > = = = > > > = * = 4 > > = > > > * , > > > > > = > * = > = < * & & = & > = > * * > > & * > > * > > > * > > > * * * = & * & & & = & * * * * = = * * = = > = = > & % & & * & & & & # & & & # # # ",
"* = = = < = = $ = # * & & = < & & $ = & # & = = 4 = & # & = # $ & # & & & & & $ & & = & & = & = = & $ & = = = = ; & # # & & # # & $ # % # & & # & & # & & & & & & & = & & & * & & & & & & * * = = & = * * < = > = = < = N l & < = & * * = 2 > = > = * > > > 4 < 4 < 4 4 4 < 4 4 < < 7 N j = 4 4 4 4 < 4 4 1 4 > > 6 6 4 9 9 > 4 = = f 9 4 ( %.{ #.X.X./ W ( ] E ..] r 4 8 7 7 7 7 4 4 7 r 4 8 x e e X.>.o.;.>.>.! J c S S x ] | o.r.:.:.w.:.:.0.w.:.0.:.:.0.0.@.@.:.>.:.>.:.+.>.1.:.;.o.;.;.;.>.1.@.0.Y.y.0.y.0.u.i.A.n.' 0.p.i.s.s.s.s.F.F.V.i.p.p.V.V.s.A.s.i.A.V.A.V.A.S.d.S.I.L.Q.$X$X+X$XQ.@X@X@X+XQ.Q.@X@XW.@X@XQ.Q.@X@X+XQ.W.+XQ.W.W.$X+X$X@X@X$X$X$X$X@X$X@X$X+X$X+X$X$X@X+X$XL.(.$X#XQ.+X+XQ.+X$X+X$X+X$X$X$X+X$X+X+X$X$X+X$X$X$X$X#X%X$X4X4X#X2X#X$X#X#X2X#X#XW.#X$X+XW.NXd.- . $ = * * * * % % > * * = * 2 7 6 2 * * * = % % = * = & o $ C n.'.p.A.V.D.F.n.D.n.{.5XG.n.n.n.n.A.n.n.n.n.n.n.p.A.p.n.n.V.D.D.V.A.D.A.n.n.n.n.n.n.n.n.n.n.n.A.oXA.u.u.u.v.y.u.v.v.n.n.u.n.n.m.v.n.u.u.m.n.u.u.y.u.q.v.v.u.u.u.u.v.u.u.u.u.v.>.o.&.%.%.*.;.&.;.;.&.>.;.%.,.%.%.;.%.;.;.o.X.,.,.;.%.;.;.o.*.%.o.;.%.o.;.o.%.,.*.T x r g h p 1 r e X.M.r.%.r 6 4 6 r 7 7 e > r v 6 , N E x x v c ) c.:.:.l.;.P x j j 6 4 , 4 7 8 1 4 6 4 4 4 4 6 4 4 4 4 > 6 > 4 4 6 4 7 > > > > > > * > > 2 2 > > 4 = 2 > 2 2 > > > 4 2 > > > * * = > > > > > = & = = > * > = = = = = = = = = = = > & * = * = = = > > > * * * > > > = = * = * = = = = = = * = = * = * * > > & % > > = > * * > * , , * = & * * = % > = & * % & = * * * * & & = = * > < # % & & # & = = = & $ # # # # # ",
"= = = # $ # & = = = = & = & & $ & = ; & = $ = = ; $ = $ = & = = = & & & = & & & & = ; = & & = = = & = = = & & $ & $ & # = & & & = $ & $ & & & & & & & $ = * & & * & = & & = = = = = = = = & = = = = < = < = > * > > 1 & U U & > > > = & * * > > 4 > > > < 4 4 4 4 4 4 < 4 4 4 < 4 < 4 9 7 > 4 4 7 4 4 > > 4 7 4 7 4 7 7 p r 9 4 4 9 T E W *.*.X.#.X.X.! J x v h F U r 6 8 9 9 7 4 7 9 7 9 9 r r f 8 Q r.>.l.;.m x J J S S F ] I P l.r.0.w.0.>.:.0.0.r.0.0.0.0.:.:.0.0.0.0.0.0.>.w.>.>.>.1.:.>.>.>.>.0.y.q.r.y.w.u.p.F.v.| :.n.i.s.s.s.s.s.s.s.p.A.p.D.A.V.s.V.V.V.V.S.A.V.s.A.S.P.L.L.W.$X+X$X@X;X@X@X@X@X@X$X@X@X@X@X@X+X@X@XW.@X@X$X@XQ.@X;X$X$X$X$X$X$X@X@X;X&X@X%X>X$X$X$X$X$X$X7Xe.B P.4XQ.$X$X+X$X+X$X>X$X$X%X$X$X$X$X$X$X$X$X%X$X%X$X%X$X%X%X$X4X4X$X$X#X2X#X$X#XW.#X$X$X$XQ.tXL.B X . . # * = * * & * = , = , 6 7 2 * * = * * * = # o < U q.XXA.p.D.G.V.D.n.V.F.D.F.G.n.n.D.A.n.A.A.A.A.A.n.A.A.V.A.D.n.V.n.n.V.D.n.A.A.n.m.m.n.n.n.n.n.m.n.V.A.n.u.n.v.n.u.v.n.u.n.v.v.n.n.n.v.u.u.v.v.v.u.n.n.n.u.n.n.n.p.n.u.n.u.p.n.n.v.y.>.1.%.;.;.;.;.;.;.,.;.;.;.;.;.;.;.;.;.;...X.X.*.o.o.o.o.;.,.%.;.o.%.*.;.;.;.o.;.,.4.W F I ~ M j 2 9 q m x 2 4 r 8 r r p r f h I E E E v 6 1 e c v Q l.c.! j 9 6 3 8 4 6 7 7 4 7 7 7 4 7 2 6 4 6 4 6 4 4 4 6 6 6 2 6 7 7 2 2 2 4 > > = > > 6 > 2 > > 4 6 2 2 4 2 = 2 6 4 > > = > > > * 4 > 4 > * > > = > = = = > > 4 > > = = > > = = & > = = = = > 1 > 4 4 * = * * , = * = * * > > = * < < = = * * > * = > * % & > > = > > * > > * , * > * * > * * * * = = & & = * * * * & * = = # = = # & * & * # * & # # & # & # # # ",
"= & % k o.F & & & = & & = & # & = & = = = $ & $ & = # $ & o & ; = $ & & & & & $ # = ; = # $ & & & & = = & $ & & = & # & & & * & & & # & & & & & & = & # & & = $ & & & & = & = = = = = = = = = & = = = < < < = = = = > < O $ < > = * = 2 > * * > > < > > > > 4 < 4 < 4 > < 4 4 4 4 4 > > > > 6 4 4 4 4 > 4 4 1 6 6 4 7 7 4 7 9 7 f r r f j x x M x g g r 8 > 7 4 4 6 7 8 9 7 7 7 7 6 7 6 4 6 6 4 6 6 ~ l.;.l.| t N S S c n S U x x :.y.0.:.0.:.:.0.0.w.q.0.0.0.+.:.0.0.0.0.0.0.:.:.@.>.:.:.w.w.;.:.>.>.:.w.w.w.r.0.v.m.u.@.>.q.i.s.i.s.s.s.s.A.V.s.s.i.A.s.s.A.s.V.V.V.A.A.s.S.A.A.H.L.J.L.Q.>X;X@X;XW.@X$X@X;X@X@XQ.@X@X@XQ.@X@X@X@X@X@X@X@X$X;X;X;X;X@X&X@X;X@X:X>Xa.f.$X@X$X+X$X$X$XwX' B 3X>XW.Q.;X@X$X$X$X>X;X$X%X$X+X$X>X$X%X$X$X%X$X%X%X+X$X+X%X$X%X%X$X$X$X$X#X#X#XW.W.#X+XQ.Q.$XtXf.^ B q O * * * % = * , , * 2 6 % * * = % * % # C :.n.{.P.s.V.D.n.n.A.n.n.D.n.A.V.n.n.n.n.A.n.n.A.A.F.A.n.A.A.p.F.A.V.V.p.A.n.n.n.n.n.V.n.n.n.n.n.n.n.n.n.A.n.n.n.n.n.v.v.u.u.n.u.v.u.u.n.n.n.n.v.v.x.n.u.p.n.n.p.n.u.p.p.p.u.u.u.n.p.D.v.r.w.>.;.;.&.&.;.;.&.&.;.>.&.;.;.&.;.;.o.;.o...%.*.%.,.%.;.%.*.%.o.o.;.o.%.;.;.o...) o.o.U e N U t v m g g F v e 7 6 e r r 7 9 1 7 9 j t e p x r v r 6 U ~ f > 6 r 3 4 8 8 4 6 > 4 7 4 7 8 6 4 < 4 4 4 4 2 * > 7 6 , > 2 > 4 4 > > > , * 2 2 > 4 2 > 4 > 2 4 4 = 2 = 2 6 2 * > = 4 > = > > > > > > * * > = > * = 4 < > = > = = > = = = * = < = & > < > > 1 > > * * * * & = = = = > > & & = < > = = * * > * * > * & & > > = * > * , , , * = * , * * % = & * & * & & * * & = = = = % # % & & # & & % & # & = & # # $ # o # ",
"= = = h m j & & & & = = ; = & = ; = = $ & = = $ ; = $ $ & $ & & $ $ = & = & = & & = ; $ $ & = & & $ $ & $ & ; = ; & & & & & = = = & & $ & & & & & # # # & & & $ & & = & = & = & & & & & & & * = < = < < < = = = > > > < 7 4 2 = 4 > = > > > > > < > > > 4 > > 4 4 4 4 4 4 4 4 4 4 < 4 4 4 4 4 4 7 7 4 4 7 4 7 7 7 7 6 6 7 1 4 7 9 7 4 4 6 > 6 4 6 4 4 < 4 6 6 6 9 8 r 9 e 7 7 9 e 7 9 4 4 4 7 U | o.w.c.c.l.c.) J c n n A b I Q Q +.0.0.w.0.0.0.r.0.0.0.O.0.r.:.0.0.0.q.0.0.0.0.:.:.>.>.w.0.w.>.1.:.1.w.r.w.w.r.r.y.y.0.0.0.0.q.i.s.s.s.A.s.A.d.S.s.s.s.s.A.A.A.S.s.A.A.A.S.S.S.S.S.H.H.L.W.>X>X;X@X@X@X;X$X@X;X;X@X@X@X$X@X@X@X;X@X@X@X;X&X;X;X;X;X;X;X;X@X;X;X,XbXf.f.>X;X;X>X>X>X>X>XJX^ B L.;X@X&X$X>X$X$X>X;X%X>X>X>X>X>X>X>X$X$X>X7X>X$X>X>X$X>X$X>X$X7X$X$X$X#X#X$X#X#X#X#X$X$XW.Q.>X8X7XW.l # * = % = = = = = , 2 = * * = * * # Q oX].A.A.s.V.A.A.V.D.n.n.n.m.n.A.n.n.n.A.n.A.A.D.n.V.n.n.A.D.p.S.G.A.p.A.A.D.A.A.A.V.A.D.n.V.A.n.n.A.A.D.A.D.A.A.A.n.A.m.u.u.n.n.n.m.n.n.n.n.n.m.n.n.n.n.n.n.p.V.V.n.p.V.n.u.y.n.v.n.A.m.0.;.;.&.;.>.;.;.;.>.;.;.:.>.:.:.;.:.>.;.;.;.;.*.%.%.;.;.;.;.;.;.;.;.;.;.;.;.;.;.o.1.1.1.o.1.X...;.E ) ;.I g h p 6 7 r 8 4 4 7 7 7 8 4 4 e t v G b x f 7 7 1 4 8 4 4 6 6 4 4 6 7 6 7 4 8 9 6 6 4 6 4 > 4 r 9 4 9 9 4 > 2 > 4 4 3 > > 2 > > 4 > 6 2 > 6 4 2 2 > > 4 > 2 4 4 > 2 > > > > 4 4 > * * = > > 4 4 > = > 4 7 > & & < > > = = = > = = < = = < < > * > > * > > > = * = > < > < > = & = = = = > * * * * = 4 < > = = > > , > * * > > * * * 2 * % * = * & & = % * * = & * = * % % # & & = & & & & % & = = & $ $ # # # # ",
"& * * # o # & & & # & & & & & $ & & $ $ = $ $ $ $ & = $ $ & & $ $ $ & $ & = & & & = = $ = $ & & $ & = & = & = = & & & & & & & = = & # & & & & = $ $ = # & # $ 6 6 & & & & = = = = * & & = & = < = ; = = = = > = = = > > 4 < > * > 2 = = > > * > > = > = > > > > < 7 9 7 4 4 4 4 4 4 4 > 4 4 < 4 4 4 7 4 4 7 6 4 4 > 6 4 4 < 2 1 4 7 7 7 9 7 9 7 7 8 6 6 7 4 > 6 9 8 9 7 7 9 9 7 9 7 1 r M f x ;.5.%...W o.Q ~ U N x n n n c E y.n.t.0.0.0.:.0.0.0.0.0.:.0.0.0.:.@.:.q.0.0.q.0.0.0.:.:.>.r.w.>.:.>.w.w.>.0.w.w.0.0.0.0.@.@.1.@.:.p.i.s.s.s.s.d.d.S.S.d.s.S.C.A.S.A.S.S.S.H.S.S.S.H.d.H.f.L.L.Q.,X:X@X@X@X;X;X;X@X;X;X&X&X;X@X&X@X&X&X;X@X;X;X;X;X&X&X;X&X;X;X&X;X:XbX:X7X8X:X;X>X>X>X>X;X%XJX' y e.$X@X@X$X;X>X+X$X>X>X;X>X>X>X>X;X>X>X7X7X$X>X;X>X>X$X>X$X$X$X%X$X#X$X#X#X+X$X#X#XQ.#X#X$XW.Q.f.8Xe.. & = & & * * = , = , = * % * , O 7  XA.s.A.V.A.A.i.n.A.n.u.u.u.n.n.n.n.n.n.n.V.A.A.A.A.V.n.D.n.D.V.V.F.V.V.A.V.A.G.F.n.A.n.A.A.V.n.A.A.A.D.D.V.n.n.V.V.n.A.m.u.p.u.n.A.n.A.n.n.n.n.n.n.n.n.n.n.n.p.n.n.n.p.n.n.0.0.b.u.n.n.q.:.:.;.1.&.;.;.;.;.;.>.>.:.&.>.:.+.;.>.&.+.;.o.;.o.;.&.;.;.&.>.:.;.;.;.;.;.;.;.;.*.o.&.&.*.o.,.| ~ ~ I v 9 4 , 7 7 8 7 9 7 r 9 9 r r 7 r e f 6 r j 7 > p 8 r 2 8 4 6 6 4 > 4 2 4 4 6 > 4 9 4 > 6 4 6 4 > 6 6 4 6 2 , , 6 > > > 3 2 2 , 4 2 > 2 2 = 2 = 2 2 = = 4 = 2 = > < 4 = > > > > > 4 > * * * * > < < > * = 4 4 * & & = > = * * * = = = = > * = > * * > * > * > > > * * > > > = * = = & * > = = * * & > = * < < * > * > * * = , & $ & > & = * * = * & * % & = & & * = * = & & * # # * & * & # & # # & & # # # # # # # ",
"= % & * = & = & & = = $ & & & # $ & & = = = & & = & = $ = $ & & & $ & $ & = = $ # $ = = = = = = & & = = < = = & & & = & & & = & & # # & & & & & & & = & & & # 4 ; & & = = & ; = < = < < = = = = < = = = = > > > = > 4 > 4 > = 2 > = > = > > = = > < 4 > > > < 4 4 7 7 4 4 4 4 4 4 4 4 4 4 4 6 4 4 4 4 4 7 7 7 6 > 4 7 4 4 < 4 4 7 7 7 6 7 7 9 7 4 6 4 4 6 4 6 6 9 7 r 8 e e r 7 9 r r x M 9 9 r f e s b ~ F g g n b M n n n F +.9.O.:.y.0.0.0.0.0.0.q.0.0.y.u.q.0.0.y.q.q.y.y.y.y.t.w.0.@.0.w.0.w.w.y.w.y.w.y.0.r.0.0.@.:.>.>.0.u.p.S.A.p.p.A.S.S.S.S.S.H.S.H.S.S.S.S.H.K.H.H.H.H.H.K.H.L.L.Q.>X,X:X,X@X@X>X:X&X;X;X:X&X@X&X:X&X&X&X&X&X;X:X;X@X@X&X;X@X;X:X;X:X,X:X,X>X;X;X>X>X%X%X>X$X%X4XLX0.k ^ 2X%X$X>X>X$X>X>X>X;X>X>X,X>X>X>X>X;X$X;XeX;X8X>X@X;X>X$X$X%X%X+X$X$X%X$X+X+X$X#X+X+X>XQ.Q.g.Q.Q.q & * = = * * = > , 2 = = & * , # Q oXA.A.A.D.i.n.n.n.u.u.u.n.n.A.n.n.A.A.n.n.A.G.A.S.S.D.A.F.S.V.A.A.A.A.A.S.V.V.S.V.A.D.V.A.V.A.V.A.A.A.n.n.n.n.V.A.A.D.A.A.n.n.n.n.n.n.n.u.n.A.n.n.n.A.n.n.V.A.n.n.n.A.p.V.n.0.:.x.u.F.m.0.w.x.r.r.1.>.;.>.;.;.;.&.>.>.>.>.;.;.&.:.;.:.;.o.;.;.;.;.;.;.;.;.;.>.;.;.:.>.>.1.I 7 7 r ;.| 9 7 7 k f 7 , 9 e e e r 7 7 9 r r 9 7 9 7 7 4 6 r f > r 9 8 1 6 2 8 7 7 4 6 4 6 2 4 7 7 4 6 7 4 6 6 4 6 4 4 > , , > 2 6 2 2 > 6 2 4 > > 2 > > 4 2 > = = = 2 2 = > 4 4 2 2 > 2 > > > > 4 > > > > > 4 * > * > * * * > * < > = = > = > = > = = * = = = = > > * * > * > > = = , > > * * * = * > = = = > = = = * * = * > = > > < = 2 > * > * < q # = > > = * # * & & % & = * % & * = = = * * & * & = = & % & & & & # # $ # $ # # # ",
"& * = $ & & & & = & = = & & = & $ $ = & $ & & & & = & $ $ = & $ = $ $ & & = = $ = $ & & & = = & & $ $ = = = & & & & & & & & & & & # & & & & & & & & & & = & & & & & = & & = = = = = = = = & = = = = = = < = = > > > > > = > 4 = > = > = * > > * = > < > > > > 4 4 < < < 4 4 4 4 4 4 4 4 4 4 4 4 4 4 4 4 4 6 7 > 4 > > 7 7 4 > 6 7 1 7 6 4 7 7 6 4 4 6 4 4 6 6 > > 4 9 9 r 7 8 9 e 7 9 7 = = 4 * 2 e a ] 2.%.W b D n c n b x b m m m Y @.0.0.0.0.w.0.q.0.0.u.u.0.q.q.q.y.y.q.y.y.q.y.y.q.P.i.0.w.w.0.w.y.y.q.w.0.0.0.y.0.:.:.w.0.0.n.S.p.q.q.n.S.S.C.S.H.S.H.K.H.H.S.H.H.H.L.L.H.H.H.H.H.f.L.@XQ.:X,X:X>X:X&X:X:X:X&X&X&X:X&X:X:X:X;X;X>X>X;X>X%X>X$X;X>X>X$X>X8X8X;X7X>X7X$X$X$X%X$X$X%X%X#X#XPXG.B Q A.4XQ.+X+X%X$X>X>X>X>X>X;X>X;X;X;X>X>X;X>X;X;XeX8X7X$X$X$X$X$X#X#X$X%X$XW.Q.+X%X+XQ.$XeX8X!.8XB . , * * * = * = > * # = & * * # q.G.s.S.V.p.p.p.p.p.p.n.p.u.n.n.A.A.V.A.A.A.A.A.S.F.A.F.A.V.A.S.A.A.V.S.V.A.A.A.V.S.s.A.A.i.i.A.V.V.V.V.n.V.V.A.V.V.A.A.V.p.V.D.V.p.V.A.p.n.n.n.n.A.n.V.V.V.n.V.A.u.y.v.p.n.y.:.w.>.y.D.v.0.:.>.>.r.w.:.:.;.>.>.;.>.:.:.w.;.+.:.;.:.;.&.;.;.;.;.>.;.+.;.;.;.;.:.>.>.:.;.>.>.~ M g e M I x N t e h j e e 7 8 7 7 7 7 7 7 9 r 7 7 r 7 7 9 7 7 8 9 9 7 h x 9 & o = 2 7 4 > 4 4 > 7 6 7 6 7 > 6 4 > 6 6 4 6 2 2 2 4 2 > 2 6 4 > 4 4 > > > > > > = 2 2 = = 2 = > 4 4 = 4 = > > > > > = > > > * > > = = > = > * * * > = > = = = = < < = * * > * = * = = > * * = * > = * > * * * * & * = = = > * * < 4 = & & * > = = & = > 4 > * > > . Y UX .  O $ # > > = 4 = * 4 = & # & # % & & & & & & & & * # # & & $ # & # & # # # # # ",
"* * = = = & = = = & = = = & = = & & = = = & = & & = & & $ = & = = & & & = = & = ; & = = & & & = * # & # = = = = = = & = = & & = = & & & & & & & = & & = = & = = & & = & = = = = = & = = = = > = = & = < < ; > > < > > > 4 > 2 > 2 > * > 2 > > > 4 > > > > > 4 > 4 > > < 4 4 4 4 4 4 7 4 4 4 4 4 4 4 4 4 7 4 6 7 4 4 7 9 9 6 6 4 7 7 7 7 7 8 7 7 8 4 8 4 4 4 < f ~ E 7 9 e 9 8 9 r 7 7 6 4 4 4 2 6 , e ! | ! ! N x x n x c n S b M m ~ w.w.0.0.y.y.q.q.q.y.q.0.0.0.w.y.q.y.y.y.y.u.y.u.A.PXS.0.y.r.0.0.0.w.0.0.y.y.y.y.y.0.w.y.0.y.u.n.q.0.0.u.A.S.S.S.S.K.H.K.H.H.H.K.H.J.J.H.L.L.J.J.L.W.L.+XW.$X;XeX>X>X$X>X$X>X$X$X$X;X>X%X$X$X#X$X#X$X#X#XL.#XI.I.L.L.L.L.L.#XL.L.I.^.H.K.L.^.L.W.#X#X#X^.L.rXqXt.Q e.#X$XW.$X$X$XeXNX8X;X>X8X>X>X>XeX;X>X>X8X7XeX>XQ.$X>X@X>X$X#X+X+XL.+X@X$XW.@XQ.>XJXe.f.8XNX7.# 2 * * * = * , = $ i $ = = * < G.G.V.S.V.i.p.A.p.n.A.A.V.F.V.V.S.A.A.S.S.S.A.S.P.P.A.V.A.S.S.A.A.S.S.P.S.S.S.A.S.S.D.S.d.(.S.s.V.A.A.V.A.S.A.S.A.A.A.S.A.A.A.S.A.F.S.S.A.F.V.V.S.S.V.V.A.F.V.A.F.u.q.y.p.F.v.>.r.>.>.y.w.w.1.1.:.:.:.:.1.w.>.1.>.>.>.w.w.>.:.:. .+.:.:.:.>.:.:.;.:.:.>.:.1.;.;.>.>.:.>.>.>.1.l.,.J e e r j e r r f 9 6 7 9 7 7 e 9 7 r r r e e 7 7 F %.I 4 e 7 > h | m h l.N.1.8 > 4 6 4 4 4 6 > > 6 6 6 7 4 6 2 4 2 6 4 2 > 2 2 6 4 4 2 > 2 4 > 4 > 4 > 2 2 4 = 4 2 4 > 2 > 4 4 > < > > < > > = > > > > > > * > > > < > > = > > > > > = = * = = > = = = = = = = > = > > = * * > > = > = * * > = > = = = > = < = = * = * > * > % > 4 > , > 4 O C UXUXC h h 1 6 > > = > > 4 = # & * % & # % % & & & & & & & & & # & # & & & $ # # # # ",
"= & = < = & & & & & = & & & = & & $ & = = = & & & & & $ * $ = & & = & $ & & = & = = = & & $ = & & & & & = & & & & = = = & & & = & = & & & & & & & & = & & = = & = & & = = = = & = = = & = = = ; = & < = < < > = > < > = > > * > > > > > 4 = = = 4 < > * > > > > > > 4 1 < 4 4 4 4 4 4 6 7 4 4 4 4 4 4 4 4 4 6 4 7 8 r 7 7 4 6 4 4 8 7 4 6 6 6 > 8 4 > 7 h 9 t ~ c.U 7 8 8 9 r 7 7 7 8 6 6 N ~ U G x N S M E ! I S j c x n n b N m Q t.0.0.0.y.q.y.y.y.q.q.q.q.q.0.0.q.y.u.y.y.q.y.u.y.q.q.9.q.w.w.0.0.0.0.0.y.0.q.u.y.0.0.0.y.y.t.q.q.0.r.w.0.p.S.d.S.A.A.H.H.H.H.H.H.L.L.J.J.J.L.L.W.f.L.L.f.f.f.f.+XL.H.K.L.f.L.K.L.f.f.L.f.f.H.f.K.K.K.K.K.H.H.L.K.H.H.H.K.H.K.H.I.K.I.L.H.L.L.L.L.L.L.L.#XJ.L.W.rXP.d.#XQ.Q.W.W.%Xf.7.2XeX&X>X>XeX>X>X,X8X>X7X$X$X$X7X$X+X%X@X%X$XW.+X+X+XW.W.g.;X7XtX^   ^ MX>XL.; % * * % * * , O q O.  < 2 * & u.G.s.s.s.A.s.i.V.A.i.V.V.A.A.A.V.A.S.A.A.S.A.S.H.S.A.S.S.G.A.A.A.S.H.S.K.S.A.F.A.A.S.s.d.IXKXs.V.A.C.S.A.A.S.C.S.S.A.A.A.S.A.V.A.S.S.S.A.A.A.A.V.A.A.S.A.A.S.F.V.y.r.x.y.b.w.:.;.1.>.>.>.w.:.;.1.>.:.w.:.>.:.w.:.:.w.w.;.0.:.:.v.0.+.>.>.:.>.>.&.>.:.&.:.:.:.:.:.:.:.>.:.>.:.;.1.2.! E ! I S S g 7 7 9 4 7 9 9 6 9 9 r r 7 4 8 7 4 7 j f e 8 8 > > 4 * 7 +.:.I > 4 2 4 > 4 4 > 2 7 > 4 4 4 6 4 > 2 6 2 > 2 > 2 2 > 4 2 > > , > 4 > > > > 6 > > > 4 2 = 2 > * = > > = = * > > * * < < = = > * > * * > = > > * = = * = > * * & = & * = = = = = = = > = > = * = > = > > * > > * = * = = * * * = * & = & & * = * * & & = 4 * * 2 > 5 JXUX:.7 t = & # = # & & & & = & & & * % & & & # & & # # & & & & # # & & $ & $ # # # ",
"= = < = & & = & & = = & & = = = = & = & $ $ $ $ = & = & $ $ = & = = & & & & = = = = & = & = = = = = & = = = = & & = = = = & & & * & = & * & = & = = = & & = = = = & > = = = = = = = ; = < ; ; = = = < ; < = = = > 4 < < 4 < > * > 4 6 4 > = > = < > > > 2 < 4 4 > 4 6 4 4 4 4 4 7 4 6 4 4 4 4 4 4 4 4 4 4 4 7 4 8 9 9 7 4 7 9 6 7 8 7 6 8 4 6 4 7 9 x I %.G k k 9 > 8 8 r 8 e 8 7 8 9 7 8 f U ~ %.( ) ! T T ] W H n n b S N A J T _ t.q.y.q.y.q.y.y.y.q.q.q.y.0.0.y.y.y.u.u.y.y.u.q.y.q.q.y.u.q.y.y.0.y.y.y.y.q.q.u.u.q.y.0.q.0.y.y.w.0.t.w.0.n.S.C.A.A.A.H.H.J.L.H.f.L.J.L.W.L.L.L.f.f.f.f.L.f.L.L.L.L.K.K.L.H.L.L.L.f.J.W.H.f.I.L.L.+X#X#X#XW.#X#X#X#XI.L.#XL.L.^.#XL.#X#XW.#X#XW.#XW.W.W.#X#X#Xf.L.#X$XW.#X$XQ.+X7Xe.. B 4XtX>X;X>X>X8X>X7X$X+XL.W.W.%X$X9X>X$X$X%X@X+X@X@Xf.W.>X+X^ i < o ^ KX;XKXY . , * % = * 2 # 5 '   7 < 2 # ^ ].S.C.A.S.V.V.A.S.H.P.C.A.A.A.A.S.S.P.S.S.K.S.S.S.H.P.H.H.H.P.H.S.A.S.S.S.S.K.S.F.S.S.f.4X1Xd.S.S.S.H.S.S.S.S.H.P.S.S.S.K.S.S.A.s.d.A.S.P.H.P.S.S.F.P.A.V.V.P.D.y.r.x.0.w.:.:.>.r.>.r.w.r.>.:.w.>.r.r.w.w.r.w.w.w.w.w.:.w.0.:.HXF.O.w.>.>.w.>.w.>.:.1.x.w.:.w.w.>.w.r.w.w.:.l.r.o.E I U M e 7 r p r e 7 9 9 9 9 r 7 7 7 9 8 8 7 7 > > 4 9 s 8 4 4 > 6 , O o = 2 8 4 6 4 7 9 6 4 8 7 7 6 4 7 6 2 6 > 7 4 6 4 4 > 2 > 2 4 4 , > , > > > > 4 4 6 4 4 = 6 = > > 4 = 4 = * > 4 = = > < 4 > * > > < > > > < * = > > = > > < > * = < > = = = = = > = * > * = * * * > * > > > > > = > = > = > * > = = & = & = < > * > * = = 7 > > > 4 % u.UX^   > = > * & & * & * & = & & * & * * & & & * & % # & # = & # # & & & & & $ & # ",
"= & = = & & = & & & = & & $ = = & & & $ & $ & $ $ = & & & = $ = & & & $ = & = & & & = & * & = = = & = & & & = $ & & & = & & & & & & & & & = & = & & & # & $ & & = = & = = & = = = & = < ; ; = = = = = > = = = > > = > > > < > * = < 4 > * * = = = = = > > > 4 4 4 1 4 4 4 > < 4 1 4 4 1 4 < 4 4 4 4 6 4 7 4 4 4 4 6 4 4 7 4 4 6 4 4 8 2 6 6 M I N A #.) ..E ~ ~ h 4 e 8 6 8 7 8 9 7 7 7 8 4 8 f x b ~ #.W v F N x n N b b S H S I P Y _ t.q.q.q.q.q.q.q.y.q.q.y.m.n.q.q.q.q.y.y.q.y.y.y.u.y.y.y.y.q.y.0.q.y.q.y.q.u.u.y.0.0.0.0.y.0.y.0.:.r.0.u.A.S.S.p.p.A.I.L.J.J.J.f.L.f.L.W.W.L.W.W.W.W.+X#X+XQ.#XQ.#X+X#X+X+X+X+XQ.+X+X+X+XQ.$X+XW.@X@X@X@X@XW.+XQ.+XQ.W.+X+XW.W.#XQ.W.#XQ.W.+X#XQ.$X#XW.#X+X#X#XW.+XQ.#XQ.+XQ.%XK.- . q ' rXwX$X$X>X$X$X$X+X#XW.J.L.W.L.7X7XQ.@X@X+XW.W.$X2X^ : O w c > e.eXQ.eXe.. % * * * * , % : ).o > % 6 . ^ E.d.S.A.C.C.A.s.C.P.H.C.C.A.H.S.S.K.S.H.K.H.K.S.H.H.K.H.K.K.H.H.A.A.S.S.H.S.S.H.H.S.H.d.d.d.S.S.S.S.S.H.H.d.S.H.H.K.H.H.H.K.K.S.S.S.S.H.H.H.P.K.K.S.A.A.t.i.G.n.0.w.x.w.w.>.r.>.>.>.w.>.>.r.w.;.>.>.w.r.y.w.r.w.w.0.:.>.w.0.:.0.:.:.>.:.0.:.>.w.>.:.r.c.w.w.w.w.r.w.w.w.w.r.>.&.5.] t 1 7 6 e 4 9 4 9 9 7 6 e 7 7 9 9 1 7 7 6 2 6 6 r 9 p 2 2 6 6 6 6 6 6 7 7 2 2 2 7 4 6 7 4 , 1 6 4 2 6 2 6 2 > 4 2 4 4 4 2 > 2 > 2 4 4 2 > > > > > > = 4 6 6 > = 2 4 4 > > 4 > > 4 4 4 * * = < > > * * > > > = = * > > = > < > > = = > * < 4 < = = = = * = = & & 4 & * * * > > > , * * > < > * = = * = = > * % % > 4 = & > * & > > > > & 4 # C UX^ . 2 < > & = & & * = & % & % # & & & # & & & # % # # & & & & # & & & $ & & # $ ",
"= & & & = & = = = = & & & & = = = & = = ; = = & = & = $ = = = = & $ = & = & = = & = ; = ; = = = & = = = ; & & = = & = = & & = & & # * = & # % & & & = = = $ = = = = = = = = = = = = = = = = = < < = < < < = > > < = < < > = > > = = = = 2 > < & h | 9 , 4 4 4 4 4 4 4 4 > 2 4 4 4 4 6 4 7 4 4 4 6 4 4 7 8 4 4 4 7 4 4 4 8 6 8 8 9 e S k , 4 E { I z G M z f v j 7 6 8 7 e 8 8 8 8 8 8 8 8 8 r 8 e e j x p r g g n x c n n n b b N N P +.y.y.y.y.y.q.q.y.u.y.y.y.u.y.0.q.y.y.u.y.y.y.q.q.y.y.y.u.u.q.u.y.u.y.u.y.u.q.y.0.:.:.0.y.y.y.u.y.0.y.w.u.F.S.p.u.u.A.(.#X#XL.L.L.L.L.L.W.L.L.W.W.+XW.Q.Q.@XQ.@XQ.@X@XQ.@X$XQ.@X@X;X@X@X@X@XQ.@X@X$X@XW.W.@XQ.Q.@X$X+X+X@X@X+X+XQ.+X+X+X+X$X+XQ.+X#X+X$X+X$X$X$X+X+X$X+X+X$X+X$XqXi o o . i 7.rX4X+X$X>X$X+X$X$XW.#XJ.f.a.$X%X$X@X@XW.7XI.l o , e d w 1 6X%X$X$XwX^ # , * = * & > : l . = = > # O.3Xd.H.H.d.K.K.d.s.s.C.A.K.H.K.H.H.K.K.K.K.f.H.K.L.K.L.L.I.K.H.S.S.H.K.H.K.H.H.K.K.S.f.H.H.S.H.S.H.H.H.S.H.H.H.d.H.K.L.K.H.H.H.K.P.H.K.H.K.K.P.H.K.A.F.D.u.u.D.v.r.l.x.y.x.y.r.r.w.y.x.x.y.>.w.r.y.w.r.w.w.w.y.y.w.0.0.0.y.0.w.0.w.w.r.w.w.>.w.x.c.w.w.>.w.w.x.r.y.r.r.r.y.c.| e g v S W T z M a f r r 9 9 7 r 7 7 j E j r 4 8 8 6 6 8 r p 8 8 2 2 6 4 4 8 4 6 4 4 4 4 7 9 4 > 2 6 2 6 6 6 6 6 2 4 4 4 6 4 > 2 4 > 2 4 2 7 4 > 2 2 2 4 2 4 > < > * = 2 * > > > > > = > > * * > * > 4 4 > > > > = * & * * = * = = = * = = > * = > * = < = = * = = & = 9 = * * > * > > * * = = 4 > > > = = = = < = > = = * * * = > * 4 > & * > 4 * > UX| . 4 & & = > * * * * & & # # # & & & & & & & # & & & # & & & & & & & & & & # * ",
"* & * & = & & = = & & $ = & & & & & & = = & & & & & & $ # $ & # & = = & & = = & * & & = ; = = & & & & = ; = = $ = = = & = & = & & & & & & # & & & & & = = = 4 < $ o = & = = & * = & = & = = < = = < < = = = > = > > < = = = > = = = 4 = 2 > > = f | h , 4 > 2 > > 4 4 1 4 > 2 > 2 1 > 7 7 7 7 4 4 4 7 4 7 7 7 4 1 7 7 4 2 6 j N I N E { x S / x s 4 > > 6 , , , 7 8 8 6 8 7 8 7 6 8 8 6 7 8 8 8 p 8 7 4 7 r p v S b D b N b c b G I +.@._ u.y.q.y.q.y.q.y.y.u.q.u.u.u.y.u.y.q.u.y.u.u.y.q.u.u.q.y.y.q.y.q.y.u.u.q.y.y.0.w.q.y.q.q.u.y.q.y.0.y.q.A.V.p.q.u.u.H.#XW.J.L.d.H.L.J.f.W.J.L.L.W.@XQ.W.Q.@X@X$X@XQ.@XQ.@X@X@X!.@X&X@XQ.@X@X@X@X@X@XQ.W.@X@X@XQ.@X@X@XQ.@X@X@X@X+XQ.Q.Q.@X@X$XQ.+X@X@X@X$X@X$X$X+X+X$X$X@X$XQ.9XC . 3 * .   C 4X7X+X$X#X$XQ.Q.#XL.#XW.a.W.%X$XW.W.tXd.5 o 3 % w w O ^ 7XQ.;X$X9X^ # * * * # * # q o & = = * o ^ ].d.C.S.L.H.L.I.K.S.G.P.K.L.H.K.I.H.L.L.L.#XL.H.L.I.L.L.L.L.L.K.I.K.H.K.K.K.L.H.H.H.H.K.K.H.H.H.H.K.K.H.H.H.H.H.H.f.K.H.H.H.K.H.H.K.K.f.K.H.S.S.S.i.V.A.v.y.y.y.x.r.w.r.x.y.w.>.r.m.q.0.y.0.r.y.y.x.w.0.w.r.w.w.w.0.r.0.0.y.y.y.x.w.0.w.w.x.x.x.r.>.w.>.x.w.w.r.w.r.y.y.w.x.l.! J v c S b r e x x r 7 6 r 7 7 9 9 7 ) 5.W g r 4 r r 7 6 7 8 4 6 7 2 3 > 6 > > 4 7 1 > 4 4 4 6 > 4 > 2 2 6 > 4 4 4 > 4 4 4 > 2 > 6 > 2 4 4 6 2 > 4 4 > 4 > > 2 > 4 = = > > * > = 2 * * = > = > * = < 4 4 > = = = < = > > = = > = = = = = = = = * > = = = = * = & = = = & = & * * = > > = * = = > > > > = * = * > > = * % * * & * > * * % * % & >   U.|   1 & * & * = & % & & & & & * & & & & & # # # & & & & # & & $ & & & & & # $ # ",
"= = = & & & = & = = = = = = = & & & = & $ # # & = & = $ # $ = $ $ & = & & = = & * & & & & * & = = & = = o $ = = = = = = = & & & = = = & & & = & & & = # & & # # k 6 # = = = = * = = < = = = > > < > & & < < 4 > = > < = 4 < < = = < < > > > 4 > = * > 2 2 > 4 > 2 2 4 4 6 4 4 4 > 4 7 4 9 7 7 6 4 6 7 7 4 8 9 7 7 7 9 6 6 4 8 e j p r g M I W z 6 6 7 4 6 4 6 6 7 8 8 8 7 8 e 8 8 8 8 6 7 6 8 8 r e r r e r z a S T T J H S S G A N y.n.q.F.u.q.y.q.y.y.u.y.u.u.u.u.v.u.u.u.u.u.u.u.u.u.u.u.u.y.u.u.u.y.v.u.u.u.u.y.u.y.u.y.u.y.u.u.v.q.t.u.v.y.n.p.F.n.m.u.P.#XQ.W.L.s.p.K.L.L.W.W.W.L.W.W.Q.@X@X@X@XQ.Q.@X&X@X@X@X&X@X@X@X&X&X&X&X:X&X&X@X@X@X;X!.@X@X@X@X$X@X$X@X$X$X@XQ.@X@X@X@X@X@X$X@X$X$X$X$X$X;X>X$X>X>X$X$X@XyX9.o > # 3 % . q d.wXQ.$X$X$X$X%X#X$X%X+X$X$X%X@XyXe.; * 3 . k c O + 1X>XQ.;X7X2Xt # , * & & 4 . m q o & # 2 $ l I.H.K.K.I.L.W.#X(.K.L.I.L.L.I.L.L.L.I.L.2XIX#XJ.I.I.I.I.I.I.I.L.L.L.L.L.J.L.L.J.L.L.L.L.L.L.L.J.L.L.H.L.L.H.L.L.H.H.L.L.J.L.L.H.H.L.L.L.K.S.P.P.A.p.n.y.y.w.w.r.x.r.x.r.x.w.y.w.0.y.n.q.v.v.x.0.w.w.0.y.w.y.y.0.w.q.y.w.0.y.y.0.q.w.w.y.w.y.y.0.w.w.r.x.y.r.y.y.r.y.x.w.y.x.c.b.2.F W F , 6 r e e f j r e 7 8 9 e 6 x ~ *.{ F e e > 7 8 r 7 7 8 9 7 r 8 6 6 4 4 4 4 6 4 6 4 6 4 2 6 6 4 ; h 4 > 4 4 6 4 2 4 4 2 4 4 7 4 6 2 2 2 4 4 4 4 > > 4 4 4 4 4 2 < > 4 4 > = > = > > > = > = > * * > > > > > > = 1 < > > > = < = = < = = 4 ; < = = = = = & & 4 & * = > * > > > * * = > > > = > > > * * = & & & * > * = = * & * * = & & > . U ~ . > = = & * & & & & & = & & & = & & & & # # # & & % & $ & = & & & & & & $ $ # ",
"= & * = & & & & = & = = & = & & & & & & $ # & & & = < = # $ = # o o & & & & & & & & & & & & = & & * = $ Y k % ; ; ; > = & * & * = * & & & & & = & & & & = & = # 4 < $ = = & = * & < 4 = = & * > > = & & = > > > < = = 4 < 4 < = = = = > 4 < > > < > 2 2 > > 2 > 2 > > 4 4 4 6 4 6 4 4 4 2 4 6 4 7 4 7 7 8 4 7 4 8 7 4 8 8 6 3 , , > 6 = 2 , 2 4 2 6 8 > 2 6 6 4 6 6 8 8 7 8 9 e e 8 7 6 6 6 8 8 6 e s 7 a e e z D D H J S x S J I U +.@.u.n.u.n.v.u.y.q.u.u.u.u.u.u.u.u.q.u.u.u.u.u.u.u.u.y.y.u.u.n.y.q.u.v.u.u.u.q.q.u.u.q.u.u.u.y.q.q.y.y.v.u.i.A.P.A.u.n.A.C.L.L.#XA.0.v.I.L.L.L.W.L.W.W.W.@X@XQ.@XQ.Q.@X@X&X&XQ.@X@X@X@X&X&X@X&X;X&X&X&X;X@X@X&X&X@X@X@X@X@X@X;X;X@XQ.@X$X@X@X@X@X$X@X$X;X>X;X;X;X;X>X>X>X>X>X;X$X$XP.; o = O , , . X ^ wX#XQ.$X%XQ.%XQ.+X$X$XQ.@XyX9.= 2 3 . m v., O 9.7XQ.>X;X$XJXC # , % & & > O 5 - # & # = & - s.H.a.I.H.W.#XL.L.L.I.K.L.J.L.L.L.L.L.H.#X7Xf.L.I.L.W.W.W.L.L.L.L.L.L.L.L.J.L.L.L.L.L.L.L.L.L.L.L.L.L.J.L.J.J.J.L.J.J.L.L.J.L.L.L.f.H.L.A.i.D.D.y.y.x.0.r.w.y.y.w.w.y.y.w.w.y.w.0.0.F.m.y.0.r.y.y.w.x.w.y.0.y.y.y.q.w.y.y.q.q.q.0.y.y.0.w.w.w.w.r.y.x.w.w.y.y.w.y.w.w.y.x.w.w.y.;.~ 2.Q 4 r c e g >.OXQ 1 7 7 4 8 e 4 7 v M J F v j h 7 7 7 8 6 6 8 8 7 4 2 6 2 2 2 4 7 6 > > > 6 2 6 & Y UXn.= 4 4 2 4 4 2 2 > > 4 6 6 4 > 6 > 2 4 4 > 4 > > 4 > 2 2 * > 2 > = 4 > * = > = > = = > > * > = > > > = = * > < > = > = = = > = & & = 4 = = = = = 4 o h I & 4 * = > > > = * * > = = * & & * * * * = = & = & * * & * = = > * % * # & * $ < % = & * & # # & & & & & & # & & & & # % # # # # # # # & & & = = & $ $ & $ # & ",
"= = * = & & = & = # & & = & = & & & & & $ & = & & & = = < 4 & . f v o & = & & & & & & & = & = = = > 1 4 OX! o > O o , > = = = & & # % & & & & = = & & & = & = 2 & $ = = = = = & > < = & & = > * < < = > 4 = < > = > 4 = = = = > > = > < 4 > 4 > 2 2 2 > 6 > > 4 4 > 2 > 2 2 > 4 6 4 2 2 2 4 8 6 7 7 7 7 r e r 8 8 7 8 7 6 r b n j 6 4 7 8 > 4 > 8 6 4 4 6 4 4 6 8 7 8 8 e 8 8 6 7 6 6 6 8 6 8 6 r r r f x z z z S A D b b n A A T G F P y.A.D.x. .y.b.u.u.u.u.u.u.u.u.u.u.u.u.u.p.u.u.p.p.u.u.u.u.q.q.q.u.u.u.u.u.u.u.u.u.p.u.u.t.q.q.q.u.u.u.p.A.I.S.p.u.A.V.s.K.K.I.V.w.y.G.L.#XL.L.H.H.L.#XW.$X@X@X@X$X@X$X@X&X@X@X&X&X@X&X&X:X;X:X&X&X&X:X:X:X:X:X:X:X&X:X&X:X&X@X&X&X&X;X@X&X@X:X:X;X@X@X;X;X:X>X>X>X>X>X7X8X8X8X>XKXC   * & * % , >   ^ rX#X$X4X$X>X$X$X$X$X+XyX9.$ 3 3 . Y GXh O r 5X;X&X>X>X;XPXY o , * = % = = $ # & * # # = - ' W.J.L.I.L.L.L.L.I.W.L.W.L.W.L.W.L.#XwX4XW.W.W.#XW.Q.W.W.W.W.W.#XL.L.J.L.L.W.L.W.L.L.W.+XW.W.L.J.L.L.L.W.L.J.L.W.L.J.L.L.J.L.L.L.f.L.K.p.q.n.v.w.r.x.y.y.y.v.y.b.q.y.y.y.y.v.y.x.y.y.0.y.y.x.y.y.y.y.y.y.y.y.q.y.y.y.q.y.q.0.w.y.w.q.y.y.y.y.y.x.r.y.x.x.x.x.y.x.x.x.x.y.r.w.x.b.w.Q m g ! ( ! U 1.`.Q , 8 7 6 8 7 8 7 7 > h x E ! F 8 6 7 8 6 4 4 4 > 7 4 > 2 6 4 7 2 4 4 4 4 6 4 7 = .XUXUXr 3 6 3 6 4 2 2 2 6 4 4 2 4 2 4 2 2 2 > 4 4 > 2 > 4 > 2 4 4 > > > 4 > * = > < 4 > > > > > > > > > > > * = > * > > > > > = = = = & = = > = > = < 4 4 > # > 6 = > > < > > = * * > = * & = = > = & * > > < = * * = * = * > = * & * * * & # & = & * % % & & & = & & & & & * & & & # & & # & & & # & & = & & $ & & = & # * ",
"& = & & & = = & & & & & & = & & & & & # & & & & & $ & # = 4 & # ; 5 $ = = & & & & & & & & & * * = * = $ 7 1 * o Y 0.q > > % & & & # & & & & = = & # & # & = = = = = = & = = * % > > % * > = * = = = 4 < > = = = = = = = & & = = = > > > = < 6 > 2 > > 2 2 2 2 > 4 4 > > > > 4 2 2 2 2 > 6 6 4 6 6 6 7 9 4 $ 4 9 7 4 7 6 f F J T J j s w r a f r f r a 7 4 4 6 4 6 7 4 7 e 7 7 6 7 8 8 7 6 6 4 4 8 8 r f z v a r n H D A A b n b n A G U >.b.U.E n ) c.v.u.u.u.u.u.u.u.u.u.i.i.p.u.p.p.i.p.p.u.i.u.q.u.q.q.u.u.u.u.u.i.u.p.i.p.u.u.u.v.u.t.u.n.t.A.I.i.p.n.n.D.A.s.A.V.n.n.v.i.K.#XJ.S.s.S.S.K.L.W.$X$XW.$X;X;X@X@X!.@X@X&X@X!.&X:X:X&X&X&X&X&X:X,X&X=X:X,X,X:X:X;X&X:X&X:X&X&X=X&X&X&X:X:X@X&X;X:X;X;X>X>X,X8X,X,XeX8X>XtXP.. . $ O # O 2 = . 9.PX#X$X$X$X$X>XW.%XJXO.$ , 3 . ^ JXl O w , e.8X&X;X>X&XtXB o , * & % * & & $ * # * # = $ q K.H.H.L.L.L.L.#XL.L.W.#X#X#XL.L.J.$XeX+X#X$XW.W.#XQ.W.#XW.W.W.W.L.L.J.W.L.L.L.W.W.W.W.W.W.W.f.W.J.L.W.W.L.L.f.J.J.W.f.L.L.L.H.L.L.K.i.y.y.v.y.y.x.y.x.x.w.q.b.v.b.b.y.v.u.y.y.y.v.y.y.x.x.x.w.y.x.q.y.w.y.q.q.q.q.y.q.q.y.y.q.y.q.y.y.y.v.x.w.w.w.y.x.b.y.y.x.r.x.c.r.w.y.x.0.0.B.x.Q F ! ] ! g 7 7 7 6 4 7 7 4 4 8 6 7 8 9 1 4 7 7 7 9 6 7 k j > 4 4 2 2 6 6 4 4 4 4 4 4 2 2 > 4 7 = ^ UXoX> 3 2 4 > 4 6 6 4 7 4 > > 4 > 2 2 2 > 4 > 2 4 > > > = 2 4 2 * > > > > > & = 4 > < = * > = > > > > > > > * * > > > > = = = = = < > = & = = = > < = = ; < > = * = = > > = * = & * & = & = = & * * & & = * * * = * = & * & = = & = # & $ & & & = $ # & & # & & & & & & # # & & # % # # & $ # & $ # # # # # # & $ $ = # # ",
"= & * & * * = & & & & # & = $ # & & & & & & = = & $ & $ & = = & & # = & * & & & & & & & = & & & & & & & # % * . O.UX~ . < = = & & & = & & & = = = = = & = = = & & = = & = ; = * < < & = > = = = = = < > = = * = < = 4 < & = < = > 4 4 = > > 4 4 4 > 4 > > 4 4 > 4 4 4 > > 2 6 4 6 2 4 4 7 6 6 6 6 6 e 4 h 1.r 4 9 8 8 7 r S J x F J J D D F S x a e f 7 4 9 x r 4 6 8 7 e 7 6 7 9 8 9 8 7 9 x x r e a e a s j c D D H D D S S n A A L J U _ y.E J ! | q.p.u.u.u.p.i.u.i.p.i.p.p.n.p.u.p.p.i.p.p.u.p.n.u.u.u.u.i.p.i.i.i.s.i.p.p.i.p.n.p.p.p.n.A.I.I.s.n.F.A.S.A.V.s.V.V.F.A.A.K.#XL.H.d.K.A.K.K.L.J.W.#X#XQ.Q.Q.$X;X:X@X@X;X;X@X:X:X&X&X,X&X:X:X=X:X,X:X:X&X&X=X:X,X,X:X:X*X:X&X*X*X:X:X&X*X,X:X,X:X,X:X,X,XeX,X,XeXeXeXrXoXQ . $ O 7 4 & = & - e.JXKXeX%X$X>XtX9X^ $ * 2 # = ^ q # w 3 = e.bX;X;X,X:XPXY o , * & = = & & * * # # * & = ; ' W.L.W.W.W.W.Q.W.W.W.Q.W.J.W.W.f.L.L.W.+X$X+X@X@XQ.Q.Q.Q.+XW.+XW.W.W.+XW.W.W.+XW.@XW.W.W.W.Q.W.Q.+XW.W.W.+XL.W.L.L.f.L.^.K.i.A.A.A.u.y.v.b.y.y.y.x.u.v.y.y.y.b.y.v.y.v.u.v.y.y.y.y.y.v.q.y.x.y.y.x.y.y.y.u.oX5Xq.y.y.y.y.u.u.u.u.v.y.x.q.0.w.w.y.v.y.y.y.b.y.l m c.m.m.m.m.N.N.>.~ x z a z a 6 4 4 6 8 8 8 4 7 7 9 4 4 8 9 7 8 4 7 7 r 7 9 I U 7 4 7 4 7 x r 4 4 4 4 7 4 4 4 4 6 4 4 & t 5 , 4 3 4 4 4 4 4 > > > 2 > 4 2 2 > 2 2 4 > 4 > > > , 4 2 = * > 4 = > 4 > = = = 4 = > > > = = > > = = > > > > = = = > > > = > = > > > = = = > < < = = = < = = = = = = = = < < = = = = = & = = * = & * & & & * * > = * * = = & * & & & & = & & = = # = & & & & & = = = $ & & & & $ & # & & # & & & & & & & $ & & $ & $ * ",
"# & * & & % & & & % & & & $ # # # & & $ & & = & & # & & $ & & & & & = & & & & & & & & = & # # & = $ & & & * & & $ l 5 O = & = & = & & & & & & = & = = = = & & & = & & = & = = = 4 & * = * = > = = = = = = = > = = < > & = * = < 4 > = = < = = 8 7 4 > 4 4 > 2 2 4 4 2 > 2 > 4 6 4 > 2 4 4 6 6 2 6 4 6 4 6 Q 7 4 6 4 6 6 4 6 a b S x z a r e 8 6 6 4 7 6 4 7 f e 4 6 7 7 6 6 8 7 8 7 7 6 7 7 v ! S r z j j s b D D D D D n S D A D n n J o. .:.W ! X.~ w.p.i.p.i.u.p.p.i.i.i.p.p.i.p.p.i.p.i.i.u.p.i.p.p.p.i.i.p.i.i.p.i.s.s.i.i.p.i.i.s.i.u.p.S./.d.s.A.A.A.d.S.K.S.K.S.S.P.H.H.W.$X#Xd.d.H.L.H.S.d.I.W.W.J.L.J.L.$X;X&X;X$X$XW.+X@X&X&X:X=X&X*X:X*X:X:X&X&X*X&X:X,XaXvX,X,X,X*X*X-X-X-XaX-X,X,X,XaX,X:X,X,X,X,XaX,XeXNX^ & 7 = # O 8 x = % > $ - Y ' 9.4XyXs.' l . = = & % % . % 3 > , q Q.;X&X,X;X:XtXB # , * * * * & = & # * * $ $ = = 5 d.#XJ.W.#XW.W.W.W.Q.W.g.Q.W.+X$XQ.Q.$XQ.W.Q.Q.W.$XQ.Q.Q.Q.@XQ.W.+XQ.W.W.+XQ.W.W.W.@X@XW.Q.W.@XW.W.Q.@XW.L.H.L.L.S.d.d.F.p.q.u.u.u.y.v.y.x.y.w.x.b.q.u.y.y.y.y.y.q.y.v.y.y.u.q.y.v.y.y.u.y.v.y.y.y.q.y.q.u.G.F.u.u.u.u.q.u.u.y.u.q.u.u.q.y.y.v.y.y.y.u.y.u.b.~ 9 k U  .~ ! Q ~ x r r a w e 7 e 6 8 6 7 7 4 8 7 6 7 7 8 4 6 9 9 7 e 7 7 7 7 9 9 7 7 > 4 4 7 4 > 4 6 4 4 6 7 < 4 > 4 4 4 , > 2 2 > 2 4 > > > > 4 > 4 * > 4 2 > 4 > 2 4 > * 2 * , 4 > & = * 2 > > > < * = = > * * = = * * * * * = = = = > * = = * = = = > = = = > = = > = = = = = = * = * = = & = & = = = 4 4 = & & < < & & & & & & = = * = = * & & * & * $ # & & $ $ & $ ; & # $ & & # & & & & & & & & & & & # # # # % # & = = = & & & & $ $ # $ & ",
"& & & = = & & & = % & & & & & # $ # & & = = = & & & & & = & & * * & * & * & & & & & & % & # & & = & & & & & & & = o & = = & = = ; = = & & & = & = & = & & & & = 4 = = & & & = = 4 = & > > = > * = = > > < = 4 = = > 4 ; > = 4 < < = = > 4 = > 7 7 4 4 4 6 4 4 4 4 > 2 2 4 > 4 2 4 4 4 6 4 6 6 4 6 2 6 6 2 # 2 6 6 2 6 6 6 6 6 2 6 6 3 3 6 4 6 7 8 7 7 7 8 2 4 4 6 6 8 6 7 6 7 8 8 8 7 8 7 4 6 m S c F H D A D H J D D A S S D S H S A J <. .] F I R *.r.u.p.p.p.p.n.m.n.p.s.s.p.p.p.p.p.V.p.i.i.s.s.s.s.s.p.i.p.p.p.V.s.s.s.s.s.s.s.s.s.s.p.V.s.P.d.d.S.S.d.S.L.I.K.L.L.K.I.K.H.$X>X%XK.K.S.K.S.S.S.L.W.#XL.#XH.L.L.+X>X7X+X#XL.L.W.:X,X;X@X&X,X,X&X,X,X:X,X<X*X,X:XvXvXaX,XaXaXaX-XaXgXgXgXgXgXgXaX,XaXaX,XaXaXvXvXbXKXC . = & = & o = & = = = ; O . . q l - . * * = # = & # = 2 * 2 # 7.eX;X&X,X:XbX4Xq * , * = * * * = = & $ = * = & ; ; B H.W.#X#XW.W.+XQ.Q.Q.Q.%X;X>XQ.W.@X;X@X;X&X:X@XQ.@X$XQ.@X@XQ.Q.@XQ.Q.@X@XW.W.@X@X@X@X@X@X@X@XW.Q.W.+XH.d.i.s.i.s.p.p.u.u.u.u.y.u.u.y.y.b.y.0.v.n.v.v.v.v.q.y.y.y.v.v.u.v.y.v.v.v.u.v.v.v.v.v.q.y.y.y.u.v.q.y.u.u.v.v.u.v.u.n.u.u.n.v.u.v.v.n.v.v.u.n.v.b.b.m.:.U 9 6 = 9 > 6 e e a a r r r r 4 7 7 7 7 9 r r 7 4 7 9 7 9 r 9 7 7 8 e 7 7 4 7 7 9 6 7 1 4 4 7 4 6 4 6 4 < 4 4 4 6 2 4 6 4 2 2 2 3 > 4 2 2 4 6 7 6 2 > 2 > 2 4 > > 4 > > = > 6 8 2 = 4 > 2 < 4 > > > 4 < > * = = < = > * = = 4 = 2 = > > > = > * = > < = > = > = > ; < = = = = = = = = * = = = = 4 = = < ; = = & k 7 & * * & * = * = = & = * = * & & = & & & & & & $ & < = # $ $ & & = $ $ # $ & = & & # & $ & # & # # # = $ & # & & = $ & $ $ & ",
"& $ & & & & = & & & & # & = = & & & = ; < & $ $ & & & & & % & % & & & * & & & & & & & # & & * & & & & & & & & & & = = & * & = & = = & & = & & = $ & & $ = & = & = < & & = & & * * * * * * = = * = = < = * > = 4 4 = ; 4 = > < * & & > = = > > > = = > > 4 4 6 1 4 > 4 > 2 2 4 4 4 4 4 4 4 4 6 4 4 4 6 2 6 6 6 2 2 6 3 4 7 4 8 8 6 7 8 6 7 7 8 7 8 7 7 6 7 6 6 6 6 4 7 7 6 4 7 4 7 8 7 4 8 7 4 r r r J L D D D A D D A A D A S D S S H S F N E E J F | Q q.V.s.i.A.u. .n.V.i.s.s.s.i.s.s.s.s.s.i.i.s.s.i.s.s.i.i.p.p.n.A.s.d.d.s.d.d.s.d.s.s.s.d.C.d.d.s.S.d.K.J.J.L.W.L.L.K.K.L.L.>X+Xf.S.d.H.S.K.d.S.K.I.H.K.L.K.f.L.W.^.H.H.(.L.f.$X,X@XL.+X$X>X:X;X:X,X:X,X,X:X,X,X,X,XaXvXaXaXaXaXVXmXhXnXgXgXaXgXaXaXaXaXaXaXaXaXBX2Xq O = & $ % O = # & = ; = 4 = # o & & 2 = $ # $ # = & * > . Y tX!.&X:X&X:XbXJ.- % * * * & * & & = * $ = & & $ = : - 7.2XW.Q.+X+X+XQ.W.@XQ.Q.;XQ.g.g.W.Q.@X,X:X&X!.@XQ.@X@X@Xg.@Xg.g.g.@X@XQ.g.Q.W.@XW.W.@X@XW.W.+XW.f.d.s.i.i.u.u.u.u.u.y.u.y.u.u.u.u.u.y.u.y.q.q.v.n.v.u.u.v.v.y.v.y.u.u.v.u.y.v.y.v.u.u.v.u.y.y.y.u.q.u.p.n.n.v.v.u.v.v.u.u.n.u.p.u.n.u.u.n.v.v.v.v.u.v.b.v.b.O.Q Q h 4 7 r g a a e r r p e e 8 4 7 7 2 4 9 7 7 7 4 7 7 7 7 7 4 6 7 7 8 9 7 9 7 4 4 4 8 9 7 7 1 4 6 7 < 4 4 4 > < > 4 4 4 > 2 2 > > 2 2 4 > , 4 4 > 2 > 4 > > 4 > 7 6 > 2 > 7 7 2 > * 4 4 = > = > = 4 4 = * < = = 4 = & = = 4 4 1 = > * > 4 < = > = > > = = = < < = = = = = = = = = & = = = & = = = = & 4 = $ # h = & < & & = & * * * = & * < = * & & & & $ & & & # & < & # # # & & & & # # $ # & * & # # & & & # # & # # $ # $ & # # $ = & # $ ",
"& & = & & & < > > = & & & # $ $ $ $ & $ & $ = = = = & * * & * * * * & & = & = & & & * & = & = & & & & & & & & & & = = = & & ; & = & & = = & = = = & & = = & = = < > = = = = * * 4 > > = > = = = > = > < 4 4 4 > = * = & 4 < > * * = < = > = = > > > 4 > 4 4 4 2 > 4 4 4 4 4 4 4 4 4 6 4 7 7 6 4 4 4 6 2 4 4 6 2 4 6 6 6 6 6 7 4 6 7 8 6 6 6 8 4 7 8 e 7 7 7 7 7 8 6 7 8 7 8 8 7 8 7 6 7 8 8 r 8 e e b F T D J J J D n S H S J H H S H F U F R | ] J E Q q.s.A.s.F.+.U u.S.s.s.s.s.s.s.s.s.A.A.i.s.s.s.s.s.s.s.i.A. .Q D.S.d.f.d.H.H.H.H.d.d.d.S.H.H.L.d.H.L.#XW.#X+XW.W.#XW.#XL.#XeX$Xa.d.L.L.f.K.H.K.K.K.H.S.H.K.f.K.H.K.S.A.P.S.f.>X>X+XL.#X#X%X$X$X>XeX:X,X,X:X,XaX,X,XvXvXaXaXaXnXnXgXgXnXgXgXgXgXgXsXaXgXaXaXgXgXaXPX#X0 . > & & & = & = & & * < = = > = & & & ; * $ # & & 4 . B 4X;X=X:X,X:X:XnX#X5 * * * * & = = & = = & = & ; = ; : - B I.Q.+X+X+XW.W.Q.$XW.Q.W.g.g.@XQ.Q.Q.,XbX;X&X&XQ.@X&X&XQ.Q.g.Q.@X:X&X&X,XnX:XW.W.W.g.+XQ.+XH.d.s.p.p.n.u.u.u.u.u.t.u.u.u.u.u.u.u.u.n.u.n.u.u.v.v.v.v.u.v.n.v.v.v.n.n.n.u.y.y.y.v.v.v.v.u.u.u.v.u.p.].S.p.n.u.n.n.n.n.n.u.u.n.n.A.n.u.v.n.n.n.n.n.v.n.n.n.D._ B m.w.+.Q p a p f r r a g s e r r 8 e 6 r 6 9 7 9 7 7 7 9 6 7 9 9 7 7 8 7 7 9 8 7 7 7 7 7 7 9 6 7 4 4 4 6 > 4 4 6 4 4 4 4 2 4 > 4 2 2 4 4 > > > > 6 2 > 6 2 > 2 6 > > 4 4 * , 2 6 > 4 6 4 > = > < = * & = > 4 = < = = = < 4 = O < 4 > > 4 = < < = > < < < = > > < ; = = ; = = = = = & = = & = < < = = = 4 = = % = # & v 9 % = = = & * * = & & = > & = & = & & = & $ & < & # & $ = & & $ $ $ & # & & = & = # & & # # & $ $ & # & & # # $ & $ # * ",
"& & & & & & . . o % = $ # $ $ $ & $ $ $ = $ = $ $ = & & * * * = > * & % & = * * & # = = & * * * & & & & & & & & & & = = = & = & $ $ = & & = = ; = & = = & = $ = = & = = * & = * * = * * * = = = * = > > 4 4 > = = & * > = < = = 4 = = > > = 4 > 2 > > 2 > 4 4 > 4 2 4 4 4 4 4 4 4 4 4 6 6 7 6 2 6 2 2 4 6 2 2 6 6 2 4 6 6 6 6 e 7 4 6 6 6 4 7 6 6 e 7 7 6 7 e 6 6 7 7 4 8 7 7 e 7 7 e 6 6 6 8 8 e 8 e g z j D J J D H D S H F H S A D J ! W ) ] Q E  .0.A.s.s.s.A.| E 0.V.s.s.s.s.s.s.s.S.C.C.i.s.s.s.s.s.s.s.s.A.~ I +.P.d.d.H.H.H.L.L.K.d.d.d.K.J.L.f.L.W.+X#X#XW.W.W.#X#X#XL.L.#XL.a.L.PXNXL.H.L.L.H.H.d.K.H.H.L.I.H.s.A.P.C.S.d.L.$XL.P.(.L.^.L.$X+X>X,X:X&X:X:X,X,XaX,XaXaXvXaXaXaX-X,XaXgXmXhXgXhXgXsXsXsXsXgXgXaXaXBX$Xq . % = & $ & & & = = = ; ; & = = = * = $ * & = 6   B 4X@X@X&X,X&X,X&XbX+X; % * * = * & & ; = = $ * = ; ; & & : - C #X$XW.Q.Q.$XW.W.Q.@XQ.@XQ.Q.Q.Q.Q.f.a.&X&X&X&X&X@X@X!.Q.@X>XQ.g.Q.BXIXIX<Xf.f.f.f.f.f.H.s.s.i.V.u.u.u.u.u.u.u.u.t.u.u.t.u.p.u.u.A.V.u.n.u.u.u.u.u.p.u.u.v.u.n.n.n.u.u.v.v.m.v.v.n.v.v.n.v.u.t.A.JX}.p.v.n.n.n.n.n.n.u.n.i.n.G.n.i.u.u.n.n.n.n.m.n.n.n.D.D.m.U.U.m.Q g r f g a g r a a g e e 6 r r p f f 7 7 4 7 7 7 6 7 6 8 7 7 4 9 8 6 9 9 7 7 4 4 7 7 7 6 > 6 < 4 6 6 7 7 4 4 > 4 2 > 4 4 > 4 > > 4 2 > 2 > > 2 4 6 4 , > > > * > = 2 * > 4 9 7 * = < = = > = & = & = 4 4 & * = < $ h Q 5 o 4 = > > = = > < < = = = = = = < < = & = = & = = & * = & & < ; & = * = = = = = & # 4 4 & = * * * & = & % & & & & & # & & = & & $ $ < & # & & & & $ # & $ $ $ # # * & & # # # & # % & & # # # & $ $ # # # $ # ",
"= & & = < # l D.Y & < & & $ & & = = = ; ; ; = < 5 = & & * & % & & & * & = & & # # # = = * & = = = & & & * & & & = & * = = & = & & & = & = & = = & & = = 4 = = & * * = = = = * & & % * > = = = = < < > * = > > 4 4 4 6 = < > > > 4 > > = > 4 > 2 4 > 2 4 4 > 4 4 7 4 4 4 4 4 4 4 6 4 6 4 7 4 6 6 4 4 2 6 6 4 3 4 6 6 6 6 7 6 6 4 7 7 8 7 8 7 6 8 9 7 7 7 9 7 9 e 8 7 7 8 e 7 6 7 8 7 e e e e 8 8 e 8 r 8 7 6 a j x z b b A S D D F S H D I U I I Q W ;.@.9.s.d.A.D. .) >.p.s.s.s.s.d.d.s.H.H.S.p.S.A.s.d.s.s.i.A.n.E [ ~ p.f.f.K.L.H.L.J.H.L.H.f.L.J.f.L.#XH.f.a.J.L.#X#X#XL.L.f.L.f.L.d.4XUXAXW.I.I.I.K.H.H.L.L.W.#X2XH.s.A./.I.#XK.L.K.^.P.(.K.K.L.#XW.%X:X:X:X<X:X,X:XvX,X,XvXgXaXaX,X,X,XgXaXgXhXxXlXVXhXhXgXgXgXgXgXgXiXmXeXC . $ $ < * & = 4 = = = = = = ; 4 & & = ; 4 & . Y 1X@X&X:X:X,X,X,X,XBXf.- , * * = & * * = $ = & ; & = & & = ; ; - B d.>XQ.g.g.g.g.g.g.g.@Xg.Q.@X@X&Xa.8.>X:X;X&X;X@X&X@X$XL.9.8.a.f.eXBXBX@Xf.f.f.d.d.d.s.p.n.n.V.i.u.u.p.i.u.u.u.u.p.u.n.p.A.u.u.p.V.n.V.V.p.n.p.p.n.u.n.n.n.v.n.n.u.n.D.n.n.n.n.n.n.n.n.n.n.u.u.A.p.p.n.n.n.p.m.n.u.u.u.u.i.p.p.i.p.p.n.p.n.p.n.n.n.A.V.D.G.m.U.Y 1 f f f f e e a z a f r r r g r e r r t f 7 7 1 7 7 9 7 9 8 9 9 9 9 9 8 9 7 7 6 8 7 7 4 4 7 8 4 7 7 7 < > 2 > 4 6 4 4 > 4 4 4 4 4 4 4 > 4 > 6 6 4 2 2 4 4 = 4 > 2 2 2 * 2 4 7 4 < < < > = > > > 4 * * > = = 4 < $ B JXUX].h = 1 4 > > = 4 > = & = = = = = = = * & & = = = = = = = = = < = * < = > & 2 = 4 & * # $ & = & * * = & * & = = & # & & & & & & & $ & < & $ & & & & & $ & & & & & # & & # # & & = # % & & $ & # & & $ # # # $ # ",
"& & & & = . O.UX0.& = $ & $ $ & $ & = & $ = . h >.5 # & % & & % & & & * = = = % & # # * & # % * & & & & * & * & & & * & & & = $ & & & & & & & & = & & > < = & & & & * & = * * & = * * & * = = * > > * = 4 = 1 > 4 4 > * * * > * > 4 > * > > > > > 4 4 4 4 > 4 > 4 7 4 4 6 4 4 4 4 4 4 2 2 4 4 4 6 4 6 4 4 2 4 2 6 6 6 4 3 4 6 6 7 9 e 7 4 6 7 4 7 7 e 7 7 7 7 9 8 7 7 7 7 8 8 4 6 8 7 e e 8 8 6 6 e r 9 8 8 r e s f g b S A J D J H F J J G D A I J T I F 9.s.t.+.! ( ~ u.p.i.s.s.s.A.A.S.d.P.0.Q i.S.d.d.A._ @.U.J / W O.K.f.H.L.H.f.f.L.f.J.L.J.L.W.J.L.L.f.a.L.H.L.#XJ.f.L.#X%XW.f.d.f.NX;Xf.I.L.L.K.L.K.J.#X%XW.#XH.i.s.G.#X#XI.H.H.K.K.H.K.I.K.L.#X$X@X$X>X,X<X,X,X:X,XvX,XaX,XaXaX,X,XaXaXgXgXhXVXlXxXVXgXhXgXgXgXgXsXuXgXBX9.i - $ & > = = = = & < = = = = & & & 4 . : 7.9XQ.@X&X:X;X;X,X,X:XbXJ.- % * * * * = & : q $ ; ; & & & ; * & ; : . i 7.$XwX7X>XeX>X,X>X@Xg.@Xg.!.&X&XQ.;X&X&X;X;X;X@X&X>X7.^ f.@Xf.f.f.W.f.f.d.d.f.d.s.A.p.p.p.p.i.i.i.u.u.u.u.i.u.i.p.A.A.p.u.u.u.p.n.p.V.D.p.V.V.p.n.p.v.n.u.u.u.n.n.p.n.p.V.m.n.u.p.n.u.n.p.p.p.p.p.n.p.n.n.p.p.p.u.n.p.p.i.V.n.n.p.p.p.n.D.D.n.A.n.D.V.D.F. X0.U | | k h Q Q N v x N m :.U 2 7 p 4 4 h ..;.~ v 9 7 7 4 4 > 8 7 8 7 9 6 & = 7 6 6 7 4 4 6 4 7 8 4 4 4 < 4 > 4 4 4 4 > > 4 4 4 4 4 > > 2 , 2 4 7 > > 2 > 2 2 4 4 2 * > 2 > > = * = > < > < = > > > = & = 4 = = > $ G.UXUXUX+.% 1 > * > = = > = = = = * = = = = = & & = = = & & = < = = = = & = = & = = * $ = = = = & & & & & & & & = = = # & & & # $ & & & # & < & $ & & & # $ # # $ & $ # # $ $ & % # % & = & o # & = & & # # # $ # # & ",
"& & = & & & $ q ; $ = $ & & & & & & = & & = & = m 4 % * * & * & = = * * = > = = = & & & & # & % & & * & = = & & & & = & & = = = = & = = = * * & = = = = = = & & = & * & > = , * 2 * * = = > > > * * > * > > 4 > > * * * > > 4 = > > > > > > 4 4 2 > 4 4 4 6 6 > > 4 7 6 6 4 4 4 4 4 4 > 2 2 6 4 6 4 7 6 4 6 4 6 6 4 6 6 6 6 7 6 6 4 7 6 r r r 7 7 e e e 7 8 8 7 7 8 9 6 8 6 7 6 6 8 e 6 6 7 8 8 e e r e 8 8 p p f f x b G H J J H H J I T S H L E T R W E t.S.e.+.W ] | B.q.9.S.d.S.t.S.H.H.A.~ Q 9.K.d.d.S.Q U &.I / W  .I.L.J.L.L.J.J.L.L.L.L.L.W.+XW.W.#XL.L.L.H.I.L.J.H.L.+X>X>X$Xf.J.Q.W.J.W.L.L.L.#XL.W.#X@X$X#XH.A.V.K.H.L.L.K.K.^.I.K.I.#XL.I.$X$X+X+X$X7XeX,X,X,X,XbXaXaXvXnXnXbX,XaXgXgX,XaXsXhXlXVXhXlXhXhXgXgXgXgXaXgXVXeXf.C $ > * = = = = 4 ; 4 = & = < = . i K.$XQ.;X>X>X,X,X,X,XbX,XnXNXi * , & * = 4 # Y _.- $ ; = ; & ; = ; = = ; ; - i B C C ^ ^ 7.e.W.8X8X;X!.g.&X&X&X;X;XQ.&X&X&X&X$Xa.f.$X@XQ.g.f.f.f.f.a.a.a.d.d.S.s.s.s.i.p.p.i.i.p.p.p.A.p.p.i.p.p.i.p.n.p.p.p.A.V.p.i.p.V.V.p.V.V.n.p.i.n.A.p.n.V.A.A.A.n.p.p.V.p.A.p.n.A.A.n.A.n.V.V.V.p.A.n.A.A.A.A.V.V.A.p.p.n.m.y.0.m.F.n.D.D.F.F.Y.Y.m.m.U.^ _ OXY.P t r o. ._ ~ r e r 8 r 7 I &.,.>.I 7 9 h j f 9 4 p 8 7 6 U m > 7 7 7 7 6 7 4 4 4 > 4 7 6 7 4 7 4 7 4 > > 4 > 4 4 4 4 6 7 4 , 4 > > > 4 2 2 7 = = 6 2 2 4 > > > * = * > 4 > = 4 4 < = = = 4 = > 4 & l n.oX_ & > < > > > = 4 = = < < = = = = = = = = = = = = = * & = & = = = = = & = 4 = & & & = = = = * = = & * = & # & = * & = & & & = & & # & < & & & & & & = $ # & = & # # & & = & & % * 4 = # # o # & & # # $ $ $ # & ",
"& # % & & & % # % & # & & $ & & & $ & & = $ & & # & & % % % * & & > % & * = > > = = = & % % = & & % % & & = & % & & * * & & = = & = ; = = & = = = * & = = & = & & & > > # % > * * , * = > = > * = * * * = > > 1 = * > , = > > > * > 2 > > > > 4 > = 4 > 4 4 4 2 4 4 6 4 4 4 4 4 4 4 2 > 4 4 2 2 2 7 6 4 6 4 6 6 6 4 6 8 8 7 6 4 4 4 e e r p r 7 8 7 r 7 8 6 7 4 7 7 8 e e 6 4 6 8 4 6 7 8 6 6 8 6 8 e 8 r 8 6 p f r p a b J J H J H J J J D J T J I ( R U q.H.K.b.! R ~ 1.O.O.d.d.A.U t.P.H.i.Q v.s.H.d.d.p._ Q ~ L W L O.(.a.L.(.A.H.L.J.W.W.L.W.W.W.Q.W.J.#XL.J.#XL.J.L.f.H.W.J.;X;XQ.$X+X#XW.L.L.#XQ.W.W.W.W.+X+XW.K.P.P.H.L.L.H.#XI.J.I.#XH.I.#X#X#XQ.L.+XQ.$X@X;X@X:X,X,XvXvXaXnXnXaX:XaXaXaX,X-X:X,XaXgXmXVXhXhXsXgXgXgXaXgXuXuXBXwX: # = = & = = = 4 = & = & = . l L.W.Q.$X;X>X;X>X,XeX,X,XbX,XnXY O > = > * > & l Y $ = = * = = & ; ; = = = = $ # . . . . . . . : B 7.W.eX8X,X&X@XQ.@X@X@XQ.@X@X@X@X$XQ.W.Q.@Xg.W.W.f.f.f.a.f.d.s.s.s.i.s.i.p.p.s.i.p.p.p.p.p.i.i.i.s.p.p.p.p.p.p.V.i.u.n.p.V.t.i.A.n.i.n.n.V.V.A.n.V.A.n.V.A.p.p.V.i.V.A.i.A.V.i.V.V.p.V.p.p.i.i.n.V.p.p.i.p.s.p.n.n.P r I :.U.Y.Y.Y.m.m.A.n.O.U.y.^ u.q.C m x  .+.0. .f 7 7 9 8 9 6 h U ;.| h m | ~ I l f 8 7 8 4 m k > 7 6 4 7 6 4 4 7 6 > > 4 4 4 6 > 4 4 > 4 > > 4 4 > 2 4 7 4 = * > > 2 > > 2 > $ N M > 2 > = > < 4 4 < = > * > > < 4 > * < = = > = > < % = > & > < = > * > = > = = > > > = * = = = = = = = = = * * = & * & = > = & & = 4 = # = $ % & & = = & & = = $ # # = & = & & = = & $ & & # & < & & & $ & & = & & = = $ # & & # & = = % # = = & # o # $ & # $ # # $ # # ",
"= & & & & $ & & & # & & & = ; = = = & = = & = = = & * & * * * & * * % * = * = > > = = * * % * = = & # & = & = * * = * = & & = = * & & & $ # * = = & & = = = = = = = * $ m f = > > , , > > > = = 1 > = & > > > > > > 4 , > 4 > = > > 4 > 4 > 4 2 > 2 4 6 7 4 4 4 7 4 6 4 4 4 4 4 6 4 4 6 8 7 6 > 2 2 4 6 6 4 6 6 8 6 6 4 6 7 8 8 f p p 8 7 7 7 e r 8 7 8 8 7 6 8 r 6 2 = 1 6 8 7 e 6 8 8 9 7 8 7 8 r 7 e r 8 r a f a r w j H L J J J J J L L J J J J W R T Q d.d. .H L J U +.9.S.s.A.G @.I.K.i.O.m.i.H.f.f.u.| | W L / L o.}.a.2XS.Q P.#XJ.+XW.W.+XQ.Q.W.L.L.#XL.J.L.J.L.#Xf.L.L.W.W.Q.W.+XQ.+X#XW.Q.%X@X@X$X+XW.$XW.Q.L.#X#XL.#X#XW.#X$XQ.#X%XW.#X#XW.+X+X+X%XW.@X@X$X@X>X&X:X:X,X:X,X,X:X:XbXaXaX,X-X,XvX-XaXaXgXgXgXgXhXgXsXgXgXsXaXiXeXq # = = = ; ; > < = = 4 = = o C W.g.$X>X>X>X,X,X:X;X,XbXvX,XAX' # 2 > > , = = $ . = = = = = & ; ; ; = = = * = & * = * = * * * # . . - C 7.J.%XtXtXtX8XNX8XwX9X9X7X7X9X9X4X%X$X$X$X4XW.L.L.(.I.I.F.F.A.F.s.s.i.i.i.V.A.V.i.i.A.A.s.A.p.V.s.V.p.s.p.p.p.A.p.V.s.V.A.A.p.A.s.A.S.S.A.A.A.A.A.A.s.A.V.V.V.S.A.A.A.V.A.V.V.A.s.i.p.p.u.p.p.p.p.n.p.s.p.p.O.Q g F y.Q Y v.'.Y.D.D.v. XD.O.O.n.v.b.o.! l m t 7 r r 7 r 8 r 6 f l E U ..5.I 7 U G 7 8 9 2 # * 8 8 8 7 8 7 6 7 7 6 > 4 6 2 4 > > > 4 4 4 > 4 4 4 4 4 > > & & > 4 > 4 2 2 4 & 0.UXLX4 4 4 = 4 > < 4 4 < < = > > 4 < > = < < = < 4 = > > 4 = 4 2 > = > > 4 > > = > = > = = = = = = = = = = = = = > = = & & & = = = = = = = = = & = & & & & & = = = = = = ; = = = > = & # # & = $ = < $ & & & # # # # & # & $ & & & & * & & % & # & = $ & ; & & # $ $ $ $ # * ",
"& & = $ & # & $ $ $ & # = ; = ; & $ = & & = = & & # % & & & # * > * * & * * = * * = * * = = & & = & * & * * * * * * * * = & = & & & = & & & = & & & = & & = & & < # q D.UXY.$ > = * * * > > = = > < * * = > > * > > , > 7 4 * , 2 > > 4 4 > > > 4 > > 7 7 2 2 4 6 6 4 6 4 4 4 4 4 4 4 7 7 7 4 4 4 2 6 4 6 6 4 6 6 6 4 4 6 4 4 9 p 8 6 7 e 7 r 7 e 7 7 r p 7 e 8 7 9 t E m 4 e 6 6 8 8 7 7 7 7 6 8 7 8 8 8 8 e r r g b b A H J J J J J J J J J J T E T W W Q s.P.| H W J T | 9.S.s.u.F | P.I.9.^ 0._ P.d.d.9.U ~ H J W L W | 9.].t.I q.L.+XJ.W.+XW.Q.W.W.W.L.J.L.f.J.#XJ.L.L.J.J.+XJ.W.W.J.#X+XW.+XQ.Q.>X>XW.$XQ.W.+X$XQ.W.W.$XW.+X+XQ.Q.+X$X$X+XW.+X%XQ.$X%XQ.$XwXtX>X;X&X:X&X&X=X,XaX,XaX,X,XaXaX,XgXaX,XaX,X:X*X!.aXgXgXsXgXsXiXgXuXgXa.$ % * & ; ; < 4 = = = * > < = $ 7.$XQ.>X;X>X,X,X:X,X8X,X,XvXBXB # , * * * = = > = = = = = = & & ; & $ - $ = $ & & $ $ $ # # # * = & o . . $ q B Y Y C Y C C B B B B B B B l i l i i q q q l l B C Y ^ O.u.D.V.F.V.s.s.i.i.S.V.A.s.s.s.s.s.V.s.s.s.A.s.s.s.A.A.S.i.V.s.s.S.S.C.S.S.S.V.S.V.V.A.A.V.A.s.V.F.S.s.A.p.s.V.s.s.A.p.p.u.i.A.V.p.i.i.s.u.u.n.m.~ m F , < Y U.O.^ D.D.q._  .Q ~ P E v g 7 9 9 r e 9 8 8 7 7 7 9 4 f t j N m j I m 7 6 8 8 8 8 8 6 6 8 7 6 6 4 7 4 7 4 4 6 4 2 2 2 4 4 4 4 4 4 4 4 4 > * * 4 > > > = > > > # G.UXUX7 , 2 = > 1 4 > > > < > = = < = = = < ; < = < = = = 4 4 = = = * = > < < 4 = & = = & = = = = = = = = = = * & = < = & * & * * = = = & = = & & = & & $ & = = & & & = & = = = & = * & # & & $ # $ ; $ $ & & # # & $ # & & $ & # % & & & # & & & & # & * = & # & & $ $ # # # ",
"& & & & & $ $ $ $ $ = $ & = & $ & = ; = = & = $ $ & & & & & * % > = = * * = = * * = > * = = = & * * * * = & & % * * = = * & = * * & 4 = & = = & = = ; = = = = = & : HXUXUXHX= > > > > = > = 4 > < = > * = = > > > , 4 > 4 4 2 > 4 > 2 4 1 4 > 2 6 4 6 4 4 4 6 6 6 6 7 7 6 6 6 4 6 4 7 4 4 4 4 7 6 6 7 4 6 6 4 7 6 6 4 6 7 6 6 4 4 6 6 8 r e r e 6 8 f f p r r e r e f N.T.r 6 8 e 6 6 6 6 7 9 8 6 2 6 6 6 e p e s b J J J J J J L J J J I J T T T J J J T I q.oX| H T W ! o.O.9.A.w.I ~ G.{.@.~ *.Q D.e.a.u.W W L L J W W H  .' C ~ ^ P.#XW.Q.W.+XW.W.W.#XW.L.f.f.W.$XQ.W.W.W.W.+XQ.+XL.W.Q.+X+X$XW.+X%X7X>X>XQ.Q.@X$X@X+XW.+XQ.$X@X@XQ.@XeX>X+X+X$X>X$X%X$X;XeX#Xe.7X,X;X:X:X&X:X:XaXaXgX,XaXaXgXaXgXaXsXgXaX-X*X:X,XaXnXgXgXsXgXgXaXDX9.O 2 & & = 4 4 < = 4 = > = = = & B %X;X>X,X8X8X,XeXnX8XnXnXmXBXl * 2 % * > = * > = < & = = = & & & & - & = = = & * $ $ * * * # # # % * = % % o .     . . . . . . . . . . . o o o o o o o . o . . . . . $ ; i B 9.R.5XP.A.s.S.s.S.d.d.A.S.S.S.S.S.A.S.C.s.d.P.S.s.s.C.A.A.S.H.S.K.K.d.d.S.S.S.A.S.S.s.A.A.A.A.s.V.A.D.p.s.V.G.V.G.V.s.V.A.V.A.s.i.p.p.u.p.y. .E a G k k h t m l m r j f p 7 r e r p r r p 7 p p 8 p p 7 r 8 8 4 7 > 7 9 7 4 9 p r 6 p 6 8 6 6 8 7 7 7 6 6 7 7 6 6 4 6 2 4 4 4 4 4 4 4 4 4 4 6 2 2 > 4 2 2 2 4 2 4 4 > 5 9.q.= 7 4 2 > > > < 4 > 1 < = = = = = = 4 ; 4 ; = ; 4 = < = < = > = = & = 4 4 = & & * = > = < = < > = = = = * & = = = = * * = = = & & & = = = = = = = & = = = & & & = & & & * = = & & & = $ = # $ < & & & & & & & & & & & $ & % % & * & * & & & & & * & & # & $ & $ $ $ $ # ",
"# & & & $ $ $ # $ $ & # # & = # & $ = ; $ $ $ $ & & & # $ # & % % * * * = = * = * * = * * = = = * = & = * & % % * * * = * & * = = * = = & = & = = = = & & & & ; o Q UXIXUXY % 4 * * = * * > > > * * = * * = > * > > > , > > 4 > > > 2 , 2 > 4 4 > 4 7 4 > 2 6 4 6 6 6 6 7 4 6 4 6 4 4 4 4 4 6 4 7 6 7 7 6 2 4 4 6 4 7 4 4 6 8 6 6 7 r 8 7 e e 8 e e r e 7 8 r 7 r p 7 1 r 6 7 6 6 6 6 6 8 6 6 6 9 f f e s r e e r S J D J J J H J J L I J I I T J H J J E E E ~ E T E J E | ! Q :._ J E ~ +.| I E I ' S.d.9.E J L T R J W E ! | 0.XXy.0.i.#XW.W.W.W.W.W.W.+XW.f.f.+XQ.@X@XW.+XQ.W.Q.Q.Q.+XW.W.+XQ.$X$XW.+X+XQ.Q.$XW.Q.@X$X4X+X@XQ.Q.%XQ.W.>X@XW.>XQ.$X$X;X@X@XeXf.9.7X,X:X&X,X&X&X;X,XaX*XaXgXaX,X,XaXgXgXaXgX:X*XbXaX&X:XnXgXsXgXsX-XmX7.o , & = $ 4 4 4 = = 4 = * * = = ; J.>X;X8X,X,XbX8X,XbXnXbX,X,XC # , * = = * = = & & = ; $ = & & $ ; & & & = * * $ = $ $ * * # $ # % # # % * , o l h o % % % # % % * * * % * & * * * * * & * & * % & & & o # . # h ^ ^ i.].}.P.d.d.f.S.H.H.H.d.S.d.C.A.S.d.S.S.d.s.S.V.S.S.K.K.K.S.H.6XL.d.S.S.d.C.A.s.A.s.s.s.S.V.S.V.s.s.s.F.V.s.p.p.A.A.S.i.i.i.i.i.n.n._.c.P x r 3 6 r f r f j j a f f a f f r 8 7 8 r 9 r j v M f 7 7 7 9 r 7 9 8 8 7 p 9 8 7 8 8 2 6 8 4 7 8 8 4 7 4 6 6 4 4 4 2 4 4 4 4 4 4 4 4 4 4 4 4 4 > = 4 4 > 4 = = = > = & $ > 4 > * 2 > > > < < < = = = < = = = = 4 ; = = < ; = = = < * = ; * % * = < = = & * = * > > = > > = = = & & & & = = & = = * * & & & = & * = = = & & & & = & $ = & & = & & * = & & = & & = & $ & = $ & $ # # # $ & & # & $ % & & % % # $ & & & & & # & & # & & # $ & $ # $ ",
"& # = $ & # & = = $ $ $ = = & & = # = & # & & & = & # & = & & % = = * = * * * * = * > = = = = = * * * * = & % * = & * > > * = = > = < > & * > = > & & & = * = < O U UXUX^ . 1 = > * > = > < > = * * > = * * = > > > > * > > 4 > 4 > 2 4 4 > 6 4 4 4 4 4 4 6 4 6 6 6 6 6 6 4 7 7 7 4 4 2 4 4 7 6 7 7 7 7 6 6 7 6 6 6 6 7 8 7 7 8 8 8 r 8 r 8 e r r 8 8 7 7 e r r r r a e 7 7 8 8 6 7 7 7 e 7 8 6 r S I H G x g s n F J D J J J J H J I I T I T J J J J T W E W T W W W T T I E ] @. .U W T E | W T E ! i.K.s.| T T J T T W W W J E ~ E T ~ d.W.W.+XW.@XQ.Q.+X@X+XQ.W.Q.@XQ.W.@XQ.@X@XQ.@X+XQ.+X@XQ.@X$XQ.Q.f.W.Q.$XW.@X$X4Xs.J.$X@XQ.;X@X$XQ.Q.$X>X>X$X;X>X;X>X;X8XeX8X,X,X,X,X:X:X:X,X*XvXaXaX,X-X:X,XgXgXgXnXgXgXgXbX:Xg.-XgXsXgXhXuXmX9.O > * = & 4 4 4 = = 4 2 = = = 2 & e.bX>XeXbX,XbXvXnXbXbXgX-XAXe.# , = = = 4 = = & & = = = = ; & & & & ; & $ $ * * * * * # # $ & # * # # # * % 4 UXUX4 O % # # # # # # & % % % * & % & = $ # & & # % * & # = & * # . . & h ' F.].K.f.d.d.d.d.H.H.d.d.S.H.S.H.S.H.K.P.H.P.H.K.K.K.H.f.IXrXd.G.S.A.A.S.A.S.A.s.s.S.A.A.V.s.s.A.S.A.s.s.A.S.C.S.S.A.p.A.p.m.u.0.O.+. .o.| ~ j f x z k g j z f p p r p j M j r p r f x x r 7 8 8 9 9 8 8 8 p 8 8 7 p p 7 6 6 6 8 8 8 6 6 8 7 4 6 7 7 4 4 4 4 4 4 4 4 4 4 4 4 4 4 4 4 4 4 4 4 = & = 4 & 2 = 4 4 1 > 4 > > > 4 > < > > = = < < < 4 = > = 4 = 4 = 4 4 4 = < 4 6 < > = = * > > < < 4 * > = = = = = = = = & = & = & = * = * * * * * = = = & = = = = = = = & & = = = = & = & = & & & = = & & & & $ = $ $ & $ = & & # & & & $ & & & % # & & $ * & & & & & & # & $ & $ = $ # * ",
"# # & = $ $ & $ & & = & = & & & & & $ & = & & $ & & & = = = # % & & & * * & * & * * * * = = = > * = * * * & * = * * * * * * = * * * < > = = > > & * = = = & & = > = Q Y ; < > & = > * * > < = * > = * * = * > > > 1 * = > > > 2 > > 4 4 6 4 < < 4 < 4 4 7 4 4 4 6 6 6 6 6 7 7 7 4 4 4 4 7 4 4 6 4 6 7 4 7 6 4 8 7 4 6 6 7 4 4 1 7 7 7 8 r 8 8 9 e 9 8 8 r 8 e r r 7 r r r e 7 6 8 6 6 e 7 8 8 6 6 r g c b S H S H D D J D J J H J H J I I T J I T T E J T W W W W E T T T T E E O.c.~ T W W *.W H E J Q n.u._ ( ] W W W ( W T T T J W ! ~ A.+Xf.W.Q.W.@X@XW.@X@XW.W.Q.W.W.@XW.Q.$X@X@Xg.Q.@XQ.+X@XW.@X$X@XW.+XW.W.@XQ.>XH.^ d.7X@X!.@X$X$XW.Q.%X>X$X>X$X>X:X>X;X>X,X,X:X,X,X:X:X,X&X:X,XvX-X:X,XaX:X&X,XaXgXgXsXaXaXgXgXaXg.-XgXsXgX-XbX7.. > = & = & = & = 4 = = = < & 2 $ 7.MX:X,X,XbXaXbXvXvXnX,XaXDXe.. , % * = = & & & = & & = ; $ = $ & = & $ # $ & $ $ # $ # $ $ $ $ # # & * * . ' UXUXC . % # # # # # # & & & % % & & & & * & $ & & * # # & & * * * > > * o . ; Y 9.P.I.H.d.f.d.d.f.d.d.H.H.H.S.H.K.K.^.I.K.H.S.K.H.d.2X#XH.H.S.H.A.C.S.A.C.S.d.s.S.S.s.S.A.s.A.V.s.S.s.A.H.H.d.S.S.).G.n._ &.&.x.m.T.w.>.I g h j f j f f h h p r f N G x r r 8 8 r 9 7 7 9 9 7 7 9 9 9 9 8 7 7 7 8 7 4 7 2 6 6 7 6 7 6 6 8 6 6 6 4 2 6 4 4 4 4 4 4 4 4 2 4 4 2 > 4 < 4 > & = = * * = = 6 < > = > * > = * > > > < = = = > < < < ; 4 = = ; 4 4 = 4 < < 4 4 = & = 4 = 2 * = = = > = = = = & & * & & = = = * & & = * * * & * = = & * & & & = = = = = & & & = & = & & & & & & & & & & $ & $ $ f 5 $ = = & & # # # & & & # & & # % # # # # & & & & # # & & # & $ $ # # # ",
"& & = # $ $ $ # & & = $ # = = $ = = & & = $ = & & & & $ & $ % & * % * & = = * * > = * * & * = & = = * = * * = * > > * & = * = * * * > 4 = = > > = = > = = = > = > & # o > > = * = = > * < 1 = > 1 < > > * = > > > > > * > > > 2 2 4 = $ & 4 4 4 6 4 6 4 7 6 7 6 6 4 6 4 4 6 6 4 4 4 7 6 7 7 7 6 6 6 7 7 9 7 7 p p 4 9 6 4 9 m f 6 8 r 8 e r p 8 r s r r p r r r r r r 7 e r e e e 7 8 7 8 e 8 8 e 6 e 6 a n L L J J J J J D D J J H J T T J I L T T T T W W W W T W W I I W W T |  .W I E T ~ W T T T T ~ ~ ~ ! ( ! ] W W W T W W W X.Q _ S.+XW.W.@X@X@X@XQ.@XQ.@XW.@XW.W.@X@XQ.Q.W.Q.@X+X+X@XW.Q.@X;X@X@X@X$XW.@X@X&X@X$XL.Q.$X@X&X;X@X$X@X$X$X>X>X<X>X>X;X:X,X,X:X,X,X:X:X:X:X,X*XaX,X:X:XaX,XaX-X,X:XaXgXaX:X-XnXgXgXVX&Xj.aXgXhXaXnXY % > * 2 = = & & & < = = = ; = 2 < 9.MX:X:X:X,XbXgXnXaXaXnXbXAXa.$ , * = % & & & = = & & = = = & - ; = * # $ & & * = = $ & = & = & & * = & , O O.UXUXm o * * # # * * # & & & % % & = & & & & & o o # $ # & $ % * * * * * * , & # $ l ^ V.(.f.d.d.d.d.f.K.K.K.K.L.H.K.H.H.H.K.L.^.K.L.d.f.H.P.K.K.H.K.K.H.K.I.H.H.K.H.S.K.S.d.S.A.A.S.A.S.S.K.S.F.p.9.^ | o.>.~ ~ U N 7 f f a z k j x f a f f a f r r r e r p 8 9 8 7 9 7 9 r 9 r p p 8 7 9 9 8 7 4 6 8 8 4 8 6 8 6 8 6 7 7 6 7 7 4 4 4 6 6 4 4 4 4 4 4 4 > > > > * 4 7 4 > 6 4 4 * 2 = = * 4 > * = 4 4 4 > < < 4 < = = 4 < < = 4 ; & $ = < 4 > < = = & & & * = 4 = = = 4 = > = = = < = & = = = = = = = = = = & = = = * = = = = = = & & & & = & & & = & = = & = = & = = = & = = & & = & & 4 = & & & $ # & # & # & & & & % & & % # # & # & & & # # & & & & $ $ # # $ ",
"= # & & & # & $ # $ $ $ # & $ & $ $ & & $ = & = & $ & $ & # & % & & & & = < = & = * * & * & & = = = * = * = = > > = = % * = = * = * & = > < 4 * * * * = > = > * * = > , > * * = = = , * > > > * = < < > > * * > > = > * , > 2 , 2 6 < X.U $ 7 4 1 4 4 4 4 7 7 7 4 4 4 4 6 7 7 4 4 4 7 6 6 7 7 6 6 4 4 7 7 7 9 e 6 4 4 8 8 7 F ~ v 6 e r r e r e e 6 p r e r r e r e e e e e r e 7 e 7 e e 6 7 8 8 r e e e e A T J D H D H H J F H J J I T J I J J T L E E T E T W E E T W T T E E T T T E T T W E J E T ! W ! E W W W W E T W E W W Q +.A.K.f.g.W.W.@XW.W.Q.W.W.W.Q.+XW.#XW.@XQ.@XW.W.W.Q.@XQ.W.@XQ.@X@X$XQ.@X$X@X!.&X&X;X>X;X&X;X&X&XQ.$X@X;X@X$X,X,X,X;X>X,X,X,X,X,X:X:X:X,X:X:X:X,X:X:X*XaX-X-XaXaX-X-XsXaX-XgXaXsXgXaXgX&Xg.gXhXh.eXt % 2 * = = = & = * * = 2 * = 2 2 4 d.,X&XaX,X:XaXaXaXaXgXgX-XBXW.$ , * * = = * = & = = & $ = $ & & = & $ $ = $ $ & = $ = $ $ = = $ $ & $ & > * & ' ^ # * # # * # # % & & & & # & & & & & $ & # f f # # $ o ; 7 # * * % > * , , , * & O q O.I.#X1XI.K.H.K.H.L.K.K.K.J.H.H.f.L.#XL.#XI.H.H.K.K.H.K.L.L.H.L.H.L.L.H.S.H.S.S.H.H.d.S.S.S.H.K.S.d.d.S.i.O.Q +.U.U.x.l.P g h h r j f g j h g f a a a p p 9 8 f r 9 9 9 8 p 7 9 4 9 r p 9 9 8 9 8 8 7 4 4 8 4 4 7 6 4 8 6 6 7 4 4 4 4 4 4 4 2 4 6 4 4 4 4 4 4 4 > > > 4 = * 4 4 > 4 6 4 & * = > = > > > * 4 4 4 < < < > 4 * = 4 < = = = < = & = = = > = = = = = & = * & > = = = > * * = = > = & = = * & = = = = & & = = = = = * = = = = = = & & & = = = & $ & & & = & = = & & = = = & = & & = & $ $ $ & $ & # & # # # & $ # & & % & & * = * # # & & # $ # # = $ # & # # & ",
"& & & & & $ = * $ # # $ & $ & = & $ = $ = $ = & & & = = = & = & & & & & . . * = > = = = = = = = > = & * = & > > > = = * > * * * = * * * > = = * = > > > > * & * 2 * = = > * > = > > > > 4 = = * = * = * > > > > > > 4 4 > 4 4 > 4 7 4 j f 4 7 4 4 4 4 4 6 7 7 4 6 4 4 4 7 9 9 7 7 6 7 7 7 7 7 7 7 6 6 7 7 j W m f f f 7 e 4 g ~ U r 8 p a r a f p e p e a p p r p r e r r e r e 8 8 7 e e 8 8 r r 7 e r e 8 a g c j b S S F I J J J T T T T E L T T E E W T T W W E E E W T W W W E E E W T W W W E T E { ] ! ! W E E W W W ! W ! W W | O.9.f.W.+XW.W.f.W.+X@XW.@X%XH.d.#XQ.+XL.L.+X@XW.@X@XW.@X;X@X@X&X;X@X&X:X;X&X&X;X:X&X;X=X:X&X&X&X>X>X;X&X>X;X:X:X,X,X,X,XvXvX,X,X:X,XaX,X,X*X&X*XvX,X,X,X,X,XaXaXaXsXsXaXgXaXgXgXgXgXaX!.&XuXgXa.2 , > = * = & = = * = * = = = 4 4 q %XbX*XaXaX,XgXaXaXaXnXgXbXnXIXl & , * = = = = & = = = & & & ; = = $ & & = * = $ $ # & = = $ $ $ & $ = & = & # . . * = & * & * # & & & & $ & & & & & = & & # f 9 & > > . +._ . > = * > * * * 2 = > = < $ l Y ^ Y d.4XK.L.I.I.L.I.W.I.I.H.L.#X#XL.L.H.H.H.K.L.K.H.L.L.I.L.K.f.H.H.L.H.K.H.H.H.K.K.H.K.L.H.H.H.K.P./.u.:.v.u.m.U.c.o.E M E >.N f k j j j f f g k f k I T j 9 9 9 8 8 9 9 8 9 9 p 8 9 9 9 8 7 8 8 6 8 6 7 7 7 6 9 4 4 5 6 f I v > > 4 4 7 4 4 4 4 > 4 7 4 4 4 6 7 > 4 > 4 4 4 > = * = = > = > > 4 = > = * * 4 > 4 4 > * > < 4 = 6 ; ; ; 4 = > = = = < > 4 = = & > * 4 > = = = = > = = = & = > = = = = = = = = = > = > = * * = = = > > = = = = = < = = & = & = = ; = $ # & = = = = & & = & & & # & & # & & $ # # & $ # & & & & & & & # # & # * & & # & = $ $ = $ # # ",
"# # & # & $ $ = $ # $ # * $ # # & & $ & $ = $ # & & # = = & # & & # = o 9 1.< & = = = & = > < = = * = & = = = = = = > = * = = & * > = * * * = * > > * * * * = * * * * * > = * * = > > = = < < * = * * > > > > > > < 4 < 4 1 4 2 > < 4 = > 7 4 4 4 4 4 4 4 7 4 4 4 4 7 4 7 9 7 7 7 4 6 7 7 6 7 7 7 7 9 4 7 7 M ..] S S f j a g N x f a 6 6 7 g f f f e f f 6 p r r r r e e e 7 e 7 7 e e e 8 7 8 e 8 e 7 e e 7 e e e f j g f N G J S J T R T E R I J T E E T W T T T T T T W W W W T W T T W W E W E T W X.| W E ! W ! W ! W W W W E ! / ! | a.H.d.d.L.f.L.L.Q.W.W.#X9.O.H.@X$Xd.q.#X%XQ.Q.Q.@XQ.@X&X@XQ.&X&X&X&X@X@X&X&X:X;X:X&X&X:X&X;X:X;X:X;X:X:X:X:X,X:X,XaX,XaXaX,XaX,X,XaXaX:X*XaXaX-X,XuXaX-X,XaXaXuXaXaXaXgXgXuXsX-XgXgX-Xg.nXY % > % = = & = & & = = # * & = # X ^ bX-XaX*XaXaXaXgXgX,XaXmXnXhXAXB o , = % & & & = = & = $ & = = = $ $ = & $ & & $ * & $ * $ * & * & $ & & & & & = > & * & & # & & & & & $ & $ & & & & & $ & * # # * = = # ^ Q o , = * & * = & * & = = = = & . # . : 9.3XK.L.L.W.J.W.#XI.f.f.L.#XL.L.L.I.J.L.J.L.H.H.L.L.L.H.H.K.L.H.L.L.H.K.H.H.K.I.K.K.K.K.d.S.A.A.q. .+.b.:.w.>.E W I I | m f f x h g f k f j f m E v 9 9 8 8 f 9 6 7 9 9 7 8 7 7 7 9 7 7 4 6 6 4 6 6 > 6 7 = O.).q < 5 t f 4 2 4 2 7 7 7 7 7 6 6 4 4 > 4 4 4 4 4 = > > 4 = > > > * > > < > > > > > 4 > * > 1 < > & > = = < 4 4 4 & = > > * & = > = = > = & * * > < & = = & = ; > = = * = = > = = & * = = * > = & & * & * = > = * * = = = = = = = & & = = = & = = & & & & = & & = $ & $ & # # # & & & & # # & # # & & & # # % # & # # & # & # # & & # # $ $ # # ",
"% % # # $ $ & $ $ $ $ $ # # $ $ = = = & & = & & & $ & & $ # $ & & & = $ 7 B $ = = = = * * & = = > = & # $ = = > * = < = * = = * * > < * * = = = > > > > * > 4 = > = > = = = > = > = * * * = 4 4 4 > > > > > > > < > 4 1 7 4 > > 4 4 4 7 7 4 4 7 4 4 7 4 7 7 4 7 4 7 7 4 8 9 8 7 7 7 7 7 7 7 9 7 8 6 7 7 9 4 > j s 2 p r v z b b x F G a x p r , p f I W F f p e e e r r r r r 8 e e r e e r 8 7 8 r e 9 r 9 r e e r h p r 8 r r a r b T W T ! W E T W E W W W W W W ! W W E E W T W ! W W W W W ! W ! W ! W W ( ! ( W ! ] ! ( ! ! ! ] ( ! _ P.i. .e.%X+X2Xs.H.$X+XP.0.o.u.4X1X9.+.n.I.$X@X@X&X@X&X&X&X@X;X&X&X&X!.&X,X:X:X:X:X&X&X:X*XvX,X,XbX,X,X,X,X,XvX,X,X,XaXvXaXvXgXvXbXaXaX-XgXaXaXaXsXaXaXaXaXaXaXaXgXsXsXaXaXsXgXaXnXnXgXgX@X9 , 2 & = = & < & = * = = = = o l ^.,XaXaXaXaXgXaXaXgXgXaXaXaXaX-XgX7.; , , & * & * = = & & & = & = & = & & & & & & & = & = * & & = & = & $ = = $ & & = & & = = $ & & & & & & = $ = = & & & & = & = * > & 2 * o & > = > * * * > = = = = & = = 4 = = < & X e.1XL.W.W.W.Q.J.L.H.J.L.L.W.#XW.W.#X#XW.I.L.L.H.L.L.L.L.I.L.L.L.L.I.P.S.I.L.I.L.L.K.L.K.K.A.F.y.w.w.b.w.r.F w b N w e f j x x j v h h t m m v r 9 9 r 8 j ! U f r 6 9 7 9 9 9 7 9 8 9 6 7 4 < < 6 4 4 8 m LX).= 4 = * > 4 6 6 4 4 4 4 > 7 7 7 4 4 4 6 4 4 > 2 4 2 > 4 > 4 > 4 > > > < > > > > > 4 > 4 1 4 4 > > 4 > = & < 4 = < > = 4 = * = 4 = = < 4 = = = 4 = = > > = = > > * = = = = * * = * = = = & & & * * * * = = > = * & = = = = = = = = = = = & = = = = = & = & = & & $ & & & # # # & & & & # # = & & & & & & & = & & & & # & # # # $ # # # # o # # ",
"# # # & & $ $ $ & # # $ # # $ # . . # & & # & & & # # & & $ & # & $ $ < $ . = = & & & & & * & & = = # m h o > & = = > > & % * * * > > > > & > = * > > > > = * > 2 = * * < = = * * = > = = = = 4 > 4 > > > > > > < < * < 4 < > 4 4 < 4 4 4 4 7 < 6 4 4 4 4 4 7 6 7 4 4 7 7 9 7 6 4 6 7 6 6 7 7 9 8 4 7 7 7 9 f r r p r g s a z z N z H I T G f 6 4 , I ] ( F g j M z r 6 9 e r e r 8 e r r 7 9 4 8 7 9 9 7 8 e 9 r 9 9 r f p 9 7 a b J T E E E W W E E W ! E E W ! ! W W W W W E ! W W W E E W W W W ! W E E W ! ( W ! ! / ( / ! ] / ( ( ~ A.HX+.] 0.Q.$X5X+.@.P./.q.;.,.+.A.p. .:.;.9.L.;XQ.@X@X@X&X;X&X&X&X;X&X&X&X:X:X:X:X:X:X:X&X,X,XaXaXvXvX:X:X<X,XaXvXaX,XaXaXvXaXaXgXgXaX-X,XgXaXaXaXsXaXaXaXaXaXsXaXuXsXaXuXgXaXaXgX*XgXaXDX7.O 6 % = # & = & = * # = = & * . d.mX-XaXaXaXaXuXaXgXaXaXaXuX:XaXsXmXg.- % * = & % & & & & = & & & $ # & & & & & & = $ $ = & $ = $ $ = & = = & = & = $ & $ & & & = & $ & $ & $ & & & = & $ & & & & = * * * & * > > > * = > = & * = < & = = > & = & = & = $ - K.Q.J.W.W.W.J.L.W.#XW.#X#X#XW.Q.Q.Q.#X$XW.L.J.J.H.L.L.J.L.#XL.L.1Xp.O.G.(.K.L.L.K.H.K./.q. .:.c.>.o.w.m.| I ] W I N v S x r g G G F E &.b.>.N r r 9 7 r R X.) E g r 7 r 7 9 7 8 8 7 7 5 7 f 7 6 7 8 9 ~ x.l = 4 6 8 4 6 1 4 7 7 4 4 > 2 4 4 4 4 2 2 4 2 * > 4 > * 4 > > > 4 2 > > > < > = > = = > > > = > 4 > 4 6 > & = = > = = = = = = & = ; < = = 4 4 = > * & > = & = & = * * * = = * & & * * = * & & & = > * * = * = * & & * & * = = = = = = & = = = & & & = = & & & & & $ = & & # # # # & & # # # & & $ = & # # & $ & & # & & = & & & & # & # # # # # ",
"& # # = & # $ $ $ $ # $ # & $ X Y O.- $ = & & & = $ & $ $ & = & & $ & = = = = & = = = & = = = = < = & 9 7 & < = = & = > = & > = < > > = > = < = > > > > < = < > 4 > * * 4 < = * * = > > > = > = > > > > > > > < 4 > 4 = 1 4 < 4 4 4 4 4 7 4 4 4 7 7 4 4 6 6 7 7 7 7 7 6 9 9 7 7 6 7 7 7 8 6 7 9 7 9 9 7 r 9 p r s r g G z s b g s w s r r x S a e g E U J g a x E R I x c e r e r r e r r e e r e 7 8 7 e 9 7 9 p 9 8 9 r e f z S I W T E W W E W T E W ! W W W ! T I I W ! ! W ~ ( ! W W W ! W W ! ! W W W ! ! ( ( { ] ( ! ! ( { ( { { ;.oXR.| X.+.I.4Xq.X.%.y.m.&.*.,. .u.@.| r.&.@.9.J.@X&X&X&X;X>X;X;X:X;X:X,X:X:X,X,X:X:X,X,X-X,X,XgXaXaX,X,X,XvXaXvXgX,X,XaXaXgXvXvXaXaXaXaXaXaXsXgXaXaXgXsXaXaXaXgXaXaXgXaXsXgXsXuXaXgXgXaXPXB , 6 & = * * = = = & * = * < * ; #X:X-XbXaXbXaXaXaXaXsXaX-XuXaXgXgX-XbXi & * & % * & & & & = & & $ $ $ & & & $ $ & = = = & = & $ & = $ = = = = = $ = & & = = $ & $ $ & & & & & & & & & & & = & * & * & * > > * * & > * > * = = = = = # & = < & * & = $ = 4   B 6XW.+XW.W.W.$X+X$X+X$XQ.Q.+X+X@X$X+X$X+XL.W.W.L.#XL.L.W.#XL.I.P. .U u./.K.I.I.K.K.S.@.Q E X.M.1.1.w.m.o.U ..o.M.W A X.E ~ E N F Q c.N.@.~ v r e p 9 9 e F W ) ~ ! m 1 r G j 7 6 9 h 9 m ~ I h 9 f e 4 > 6 9 7 4 6 6 8 4 7 7 4 7 7 7 7 > 4 6 6 4 4 6 2 > 4 4 2 > = > 4 4 4 > > > < 4 < > 4 > 4 4 > * = > 4 4 4 7 < = 4 < 4 < > < < < 4 & = = = = 4 = < = = = = * 4 < < = = = = & & = = * & # = & * = < < > * * * * = > * * & = = = = > = = & & = & & = = = & = = = = = & & = = = & # % # & # # # # $ = $ $ & & & & $ & # & & & & # # & # & & & & $ # # # ",
"% # & = $ # $ $ $ $ $ # # & o l UXUXy.. = & # & & & # # & $ $ & # = & $ = $ & & & = & = = & = = = = = # & > 4 = & * = * > = * = > < = & = > = = 4 > > = * = > = , = = * = 4 & * > = > = > > = > > = > = > > > < < = = = = = 4 > 4 4 4 4 4 4 4 4 7 7 4 > 6 4 6 7 7 7 7 4 9 9 7 7 7 6 7 9 7 8 9 7 9 7 9 9 9 e 7 7 r 4 x ..F e g a e s a f F S E R E I I M v g z r z F W W R N c e r r r e e e r r g M x e 8 8 r 7 8 r p a x x x G T I T E W T E E E E W R W W W ! ! ! ( W W E W W W ) ~ E W W W ! W ! ! W W ! ( ! ! ] { X.( ! ] / ] { #.{ ) ~ ) X.#.) A.}. .X...0.o.) X.) +..X:.) &.+.o. .J.&X@X!.:X,XQ.Q.>X&X,X:X:X,X,X,X,X:X,X,X,X,X-XaXaXgXaX,XvX,X,XvXgXaXaX-XvXaXaXaXgXaXaXaXsXaXaXaXsXuXuXsXaXaXsXuXuXaXaXaXgXaXsXgXgX-XaXuXVXa.< > * = $ < & & & % = * * = < * = a.aXaXaXaXaXaX-X-XaXsXaX-XgXaXaXbX,XDXC . , % * & * & & & & & & # & & $ & & $ & $ & & & & & $ & = $ $ $ = $ = = $ $ * = $ & = $ & = $ & & & & & & $ & & & & = = & % * > = < = & $ & * = & > = = & = & = & & = = # & = $ ; $ . s.4Xg.@XQ.+X$XQ.@X@X@X$X$XQ.@X$X;X@XQ.W.+XQ.W.W.W.W.#XL.L.L.#Xp.~ ) v.P.I.K.I.H.K.A.Y N I F ) >.c.o.o.W ] ~ _ l.U F T F N.| t ~ o.~ Q h r e p p e 9 9 7 9 7 h x E E S I I f 9 r U N 7 9 f 9 9 7 8 4 6 6 8 6 8 4 4 7 7 7 4 4 7 4 8 4 4 6 6 4 6 4 6 > 4 2 > 4 4 * > > 4 4 > , > > 4 > 4 > > 4 < < > = < > > > 4 > > * > 4 > 4 4 > 4 4 = = = & * * = < = = < = = & = < < > > = = & & & * = = = > = > * = = * * * * * & * * = = = = * & = & * & & & & & & & & = = & & = = & & & = = & # % % % # # # & # & $ $ # & & & # # # # # & # # # # % # & $ $ $ # # # ",
"% & = & $ $ $ $ & $ & # # = & $ 9.JXY . = & = & & & & # & $ = $ & $ & & & = & & = $ $ $ & = ; = = = = = > = < = = & = = 4 = > = < * = = = = < = < > = = < = 4 = * < 4 * = & = = < < ; 4 > > < = < < < = > < < < > = = = = < 4 4 4 4 4 4 4 4 7 4 6 4 4 4 6 6 6 6 7 7 7 7 9 9 7 7 8 7 7 9 r 9 9 9 7 9 9 r 9 7 9 9 r 8 r F h 8 a z z e a T ] I I b J N F S F G J c c T T b c N S c a r r r r r a e r x S c g p f f j x N N G H H H I T E E W W W W W W W W ! W ! W W ! ( ! ! W ! W W ( ( ! ! ! ! ! ! W / ( ! / ( ( ] ( ( ( ( ] } ] ] X.#.{ { ] X.X.*...v.u. .%.:.F.;.| *.( +.n. .| %.%.o.+.^.=X&X&X:X>Xe.f.eX:X,X,X,X:X,X,X,XaXaX,XgXsXaXaXaXgXgXvXbXvXaXgXaXgXgXaXaXaXgXaXaXaXgXaXaXaXgXaXaXaXsXuXaXsXgXuXuXiXhXuXgXsXgXgXhXuXuXmXeXl * 2 * & = * & & & % = * = * = > = d.gXaXaXgXgXaX-XaXgXaXaXaXgXgXbXbXgXVX9.$ > * * % & = = & & = & & = & = = = & & $ & & = $ & $ = = = $ & $ $ = ; = = * = = = & = & = & & & & & = & = & = & = = = = * = 4 = & & * Q k O > = = * = = > & = & = 4 ; & & = # 5 f   ^ rXW.$X$X;X%X$X$X@X@X$X$X$X$X@X@X@X@X@X$X$X+X$X$X+XW.+XW.L.(.u.&.X.m.R.1XK.I.K.(.F.Q N U N U X.:.o.%.! ) &.>.o.) X.| U w. .E ~ U g t f f p p p r r p 9 r 9 r 1 9 r v N t r f v E h 9 9 9 7 6 8 9 6 7 7 8 4 7 8 6 > 4 4 4 7 7 7 8 7 7 7 7 4 6 7 7 4 6 4 6 4 1 4 6 > 4 > > > > > 4 4 4 4 4 > 4 4 > 4 4 < 4 2 > > 4 > > = > > > = > > = * < = 4 < < < < 4 4 > = = = * = = = & * = * & > = & & & & * & = = = * * = = * > 4 = = > > = & % * = = = = < = = # $ & & = = & = & & $ = = & # & & & & & & & $ & $ & & & & & % # # & # & & = & & # & $ & $ & # # # ",
"& # & $ $ # $ $ $ & & $ & # & # . & . & & $ = $ $ $ & # $ & & & # $ & $ $ $ = & & = = & = & = = = & = = = * = = = & = < = < > * * * = = = * = = = < < * = = * = > & > < = = = = = < < < < = = = = > < 4 4 < < ; < < 4 < < < < 4 4 4 4 4 4 4 4 4 4 4 7 4 4 4 6 4 6 4 7 7 9 r 7 7 7 7 7 7 9 9 9 9 9 9 9 9 9 8 9 9 9 r 9 7 8 r r a s e g v x a c v g w z J J A J J I W U g g e M J z e r r e e e a e e x S x r g v M x N J H D J J R T E T E W ! W W E W W W W W W ! W W ! ! ~ ! ! ! ! ( ! W ! ( W ! ! ! ! ( ! / ( ] ] ( ! ] ( { { ] { { { X.{ #.X.X.X...| X.( ;.u. .( X.] | | | X.%.| o. .q.s.f.&X;XH.9.s.9X,X&X:X,X,X,X,X,X,XaXaXaXgXgXuXaXaXaXvXaXgXgXaXgXsXsXaXuXuXaXuXaXuXuXuXsXuXaXaXgX-XuXaXgXuXaXuXsXuXiXiXuXgXgXiXgXhXVX%Xl . , * % & & & = # & & # = # = * * ; K.aX*XaXaXaXaXaX,XaXaXsXaXaXaXgXnXaXsXW.- & * & & & & = = & & = & & & & = & & & & & & & & = $ & < ; & $ $ = $ = = = $ = = = & & & & = & $ & & & = & = & = = & = = = = = & = & & t ; * > * & & = = = & & = = = & * & & o h | . 5 1X$XQ.>X$X$X;X$X@X@X@X$X;X$XQ.Q.@X$X@X$X$X$X$X$X+X+XW.#XK.9._ o.] ;.+.A.K.(.S.H.'.b.E b N G A E E ! A A ]  .U E ~ X.) ~ U I x f f f f f p r e f 9 e f r p r f r 6 7 7 9 7 p 7 r 9 7 p f 9 p 7 4 8 7 4 4 7 7 4 4 4 6 4 8 4 6 7 4 7 7 4 4 6 6 4 6 7 4 > 4 4 4 4 4 4 > > 4 > > > > 4 4 4 > > > > 4 < 1 4 4 > 4 > > > > * > * * = < = > & = < < ; = = 4 > > < = * = * = * = = > & * & & = & & = & = * = * & * = = = > 6 4 = * * = * & = = = > = = > < = $ $ $ = & & & & & & $ & = & % # & & # & $ & & & # & & & & & & & # % # # & & = $ # # # $ # # # # # ",
"& # # $ $ $ $ $ = # $ $ $ $ & $ & & = & * & & & = = & # = = = & & & & & & & = = = = = = ; = = = = = = = = > > = > = > = 4 < > * * * < = < = < = = N f & > > * * = > > > 4 ; < = = = 4 < < = = = < = > < < = > < 4 < < 4 4 4 4 4 4 4 4 6 6 4 4 4 4 7 9 7 7 6 6 6 7 7 7 7 9 r 7 7 9 7 7 8 9 9 r 9 9 9 9 9 9 9 9 9 9 9 r 9 r r e e r e a r 6 8 x ~ R g t F W J R E W S c z n b E E F g r r p r r r a r x S S g z z b z v S T J J T E T W W W E R E ! ! W W / W E W ! ! / ! ( ! ! ! ~ ( ] ! W W ! ! ~ ( ] ( ] / / ] X...X.{ X.{ { X...{ #.#.#.{ { X.=.*.X.( X.X.] ~ ] ..{ { { { X.X.*.o.,.;.>.+.e.>XwXd.q.p.#X,X=X,X@XW.;X,XvX,XvXgXgXsXaXaXgXaXgXgXsXsXgXaXaXaXaXgXDXVXmXmXAXmXVXVXmXnXgXhXhXuXiXuXgXaXaX-XiX-XuXiXgXnXhXhXAX,X7.5 # = * * & * & = = * = = & * # = & # 5 7XgX,XgXaXaXaXgXgXaXaXgXgXgXbXbXgXgXnXnX^ ; * * * & & & & & & & & = & & & & & = = = $ = = = & = ; = & & = = = = = = = = = = = & = = = & = = & = = & & & = = = = & & & & = ; = & O & = = = = & = & = < = & = & # & = = # q 0.. = H.,X&X>X;X;X;X;X;X$X@X;X;X>X@X@X@X;X@X$X$X%X@X@X$X%XQ.#XL.t._ o.%.X.~ q.S.(.H.P.G.r.E S N F b J x x N R ~ ~ m m z v k x g j h f f f r p f f f f f p t 9 7 f 9 r r r 9 r 9 r 9 9 9 9 7 9 r f 8 7 6 7 6 4 7 9 6 > 7 8 4 7 7 7 6 7 7 8 7 8 6 8 6 8 < 4 6 6 2 6 > 4 4 > > 4 < 4 > < = = * = = 4 < 6 4 4 > > 4 4 > > 4 4 > 2 > > > 4 4 4 = < = * # * = 4 < > * = > = = > * = = > = = = = * * = < = > > > * * * = = > > = = = * > = * > > * * * = > = = = & = = ; = = & = & = & & & & & & & & & & & & & & $ & & = & & & & & & & & # & # # # # $ & $ # # # $ ",
"# # % # = $ # = & # # $ = $ # $ = & = & & & $ & = ; = $ & = & & & & & & & & & = = & = & = = = & * = = = > = = & > = = = = < * & = = = = = = < = = 9 = * = & * & = > = * > < > > = = ; < > = < = = = = = = = < < < < < < < 4 4 4 4 4 6 4 4 6 7 4 7 7 7 7 8 6 7 6 6 7 6 7 r r 6 7 7 7 7 7 9 9 9 9 8 9 9 9 9 9 9 9 9 9 r 8 8 r 4 z { J e e a e e W ..! W W W ! W D F N S b E E I I W N r e p r r e p r e x S S n c N S z a J I F I T T E E E T R E W W E W ! W W W W ! ( ! W W ( ! ! ( ( W ! W ! W ~ ! ~ ) / / ] ) { X.*...] ..{ ( { X.X.{ X.X.X.#.%.X.{ { { { { ( { ] ( X.#.{ #.X.X.%.;.1.1.o.q.$X$Xs.u.u.S.eX&X=XL.d.I.$X,XaXaXaXaXuXaXaXsXsXuXaXgXgXnXBXnXnXnXa.7.7.7.^ ' 7.7.7.8.a.g.*X&X&XDXmXmXnXhXgXhXhXhXgX-X&X<XQ.^ q o # 2 * # * = & & * & & & = * # * # = # q 7X-XsXaXgXnXgXgXaXmXgXaXaXgXgXgXaXnXsXsX=Xq % * # & & & # & $ & & & & & # $ & = = & * = = & & = & $ $ = & & = = $ = = & = = = = & = & & & & & & & & $ = & = = = & = & ; = & = = = > = = & = = & $ 4 4 & * & & = & # = # 5 '.t O d.,X&X;X:X:X;X;X;X;X;X$X@X;X@X;XQ.@X$X;X@X@X@X$X+X+XW.W.9X'.@.X.) o.y.oXP.d.H./.:.U N G z z x g x N S E F v k k f j f h h j j j r p f f r p f r p r r f r r 9 9 f p 7 9 9 7 9 r 7 8 4 6 7 7 8 6 4 8 6 6 6 4 6 8 4 4 6 2 6 7 7 7 6 7 7 8 7 2 f %.h > 4 4 > > 4 > > 4 4 1 > 1 > > = > > 4 > = > < 4 < > < > 4 > 4 > 7 4 > * 4 * > 4 > > = 4 = = > = = < = = < = = = > * & * * > > = = & = & * = > & = = * & * > > * & * > = * * = & = = * % * = = & = = $ & & = = $ = = $ & $ # & # & # & & & & = & & $ & & & & & # & & & & # & & $ & # $ # $ $ # # # $ ",
"& & $ = $ $ & ; $ # & # = $ & # $ & = $ & & = & & $ # # & & = = = & & & = $ & = ; = = = = = = = = = ; = > = = = = > = = > = > = = = = > < = < = = $ = = > * > = 2 * 4 > < < < < > = < = < < 4 < > < < = = = 4 < < 4 < < 4 < < > 4 6 6 6 6 6 6 7 7 7 7 7 7 7 7 7 7 7 7 7 r 9 6 8 8 7 7 8 9 9 9 8 8 9 9 9 9 9 9 9 9 9 r 9 r r 4 j %.M 3 e s r r g g M W S S E ! R R I E R ! R ! ! ( J z a p r r r r r a r g x N S T T F j N J J J T W W E E W W W ! ! ! ! ! ~ ! W ( ( ( W W ! ( ! ! ( ) ! ~ ] ] ~ ~ ~ ~ ~ ( ( ] ] { %.>.:.>._ X.{ X.X.*.#.#.#.%.*.*.X.{ { #.{ X.{ X.{ X.X.X.#.*.#.%.*.,.*.%.;.y.4X#Xu.m.y.D.4X:X>XL.s.F.S.>X,XaXaXsXuXgXaXuXuXgXnXAXtXa.C i i B - . . . . . . . . o # - : : y 7.7.7.^ 7.a.f.a.f.f.V q q - . # 2 * * * = * & & = % = = = * * * = * = # l NXaXgXaXnXaXgXnXnXnXnXgXgXnXgXgXnXmXnXnXmXB O > * * = & $ & & = $ & & $ $ & = = & & & = & = & & & $ & = & = = = = = = = = = = 4 & = & = & = & & * & & = = = = = = = = < = = = = = = = = = = & = = 4 4 & = * & = & * = $ q LX7.$ P.eX&X:X:X:X:X:X&X>X:X&X;X:X&X:X@X$X>X>X$X@X$X%X$X$X#X#Xi. .| ;.X.X.&.n./.].V.t.| ~ J N j x b v f M E U N z j f g k f f k k f j h h f h f j r f 9 r f h f t r r r r r 9 r e r r 9 9 7 7 4 7 6 7 8 7 7 8 4 7 6 7 6 8 6 7 7 7 8 7 6 8 7 9 8 7 6 p < 7 7 > 2 4 > 4 > 4 4 4 < 4 4 < > 4 4 4 < > = 4 4 > > 4 > > 4 7 1 6 1 6 > 4 < 4 > 4 = > > < > < = > > > = < < < < > = * * > = = = * = > * * * * = > = = * = > > & * = > * * > = * * * * * * = & = * & = & & = & = = = = $ = & * # # & & & & & & # & & = & & & $ & & & & & & & & $ & $ & $ & & $ # $ $ ",
"& & = $ & $ $ = $ # $ # # = $ $ & $ $ & & $ & $ $ $ = & & & * & = = = & = = $ & = = = = = = = = = * = = = = = = > = = = = = = = = * > = < = = ; < = = = 4 1 > = = > > 4 < = > = < = > > > 4 4 4 4 > 4 = = = < 4 < < < < < < < > 4 4 6 4 4 4 6 4 4 6 6 6 6 6 7 7 7 6 7 7 9 7 6 9 9 7 7 9 9 9 9 9 9 7 9 r 9 9 9 9 9 9 e r 9 r 8 6 4 2 8 e e e j f e g E b 3 g T W ! D J ( ( W ( ! R b x g e r p e e r p r r e j M J T W S N W W I E E W T R ( { ( ! W ( ] ) ! ( ! ! ( ! ! ! ! / ! ~ ( ~ ( ( ( ] ) Q x.r.W ( ] ] ] #...@.n.D.:.o.| ....%.X.*.X.%.*.*.{ X.{ { X.*.X.....o.| X.X.X.%.*.o.%.#.*.*.0./.D.0.r.y.p.C.%X%Xd.p.q.p.d.W.,X-X-X-XuX-XaXbX#X^ B i = o * # # = = > > , , , 2 = , , * % # # o . o . # . # . o # # # # % = * = % * % & * & & * = & = & # = * * * = . l NXaX-XaX*XnXaXgXnXVXgXgXgXnXgXnXnXgXnXsXlX8.X = = & & $ & & $ & & & $ & & & & & $ & & & = & & & # & & & = = = & & = & = = = = = = & = > o o * * % = & = = = & = & * * = = = & = & & = = = * & & ; = & & & = & # & & & # q rXH.- e.eX@X,X;X:X:X>X>X;X&X:X;X;X:X@X;X7XL.f.$X$XQ.$X+X#X#X^.9.O...*.{ X.~ _ G./.0._ :.) M v M ! U M p t m M j j a k p p f j f h g h h h r r h j r r r r r f f 9 9 r 9 9 9 r 8 r 9 9 9 7 8 9 8 6 7 9 7 7 4 6 6 8 6 6 6 6 8 8 4 7 6 8 7 9 7 7 7 8 8 > 1 4 4 4 > > > > 4 4 > 4 4 4 < 4 4 4 < < 4 > = < < 4 > > 2 4 > 4 t l 5 < < > 4 4 > * < < > > * = > > = > > = > < 1 > * > * * * = * = * * > = & = = > * * * = * * & = = , * * * * * * % * = & & = & * & & & = & = & & & = = > & & & & & & & & # # # & & & # % # & $ # & & & & # $ & # # O $ & $ $ # # $ ",
"# # $ = = $ = $ = & $ # $ & & & = & & = = & $ & = = = = = = = = = = = = = = $ $ ; & = = = = = = = * > > & = < = = = = < < = > = > > 4 < < = < < 4 = = = O & > = > 4 > = > < < > 4 > = 6 4 < 7 7 7 4 4 6 4 = 4 4 < < 4 4 4 < 6 4 4 4 6 6 4 4 6 6 6 6 6 6 6 6 7 7 8 8 7 7 9 7 6 7 9 7 9 9 9 9 9 9 9 9 r r r r 9 9 9 r r r r 8 r 8 e e r e s r r r J *.5.U r z G F F x S A T I F S A N S S g e p r f r r r r r r r j M F S U W W ! ] E R E ] ( ] ) ] ( ~ ( ( ) ] ( ( ( ( ( ) ! ( ( ) ! ( ( ] ! ] ] ~  .&.~ ] { X.{ X.o.:.U.XXx.;.>.b.v.y.&.,.*.,.;.%.*.*.X.X.X...o.,.o.o.o.;.%.;.%.*.X.X.*.,.,.>.>.0.:.y.t.p.u.1X4Xi.u.q.A.A.d.>X*X-X*X*X<XyX7.5 . # # = = ; = = & = = = * = & * = = * = > , * * = > * * # % % # # * = = * = # % = = & & = * * = * & # & & = & # ; 5 % Y >Xg.aXaXaXnXgXnXgXgXaXgXnXgXnXVXgXmXmXnXnXbX^ o & & & = $ = & $ & & & = & = & & & & & & & & & & = = = = & = = & = = = = = ; = = ; = = $ k l > = * = = = = = = = = < = < = = * = = = = = = = = * & = = & = = & & & * ; # l JXrX0 ^ NX&X>X:X>X>X#X>X>X;X:X;X;X:X:X;XW.9.t.4X>XQ.>X$X$XL.(.A.r.X.{ ( X.X...:.@._ _ :.%.<.! I E x p h v f j j v b N j g f v j v F S c k G Q x t f r r f r r 9 9 9 r r r 9 r r r r 9 r 9 9 r 8 8 7 7 9 r 8 6 6 6 7 r 9 8 6 6 7 8 7 8 8 8 7 8 6 8 8 8 4 7 4 8 4 6 2 4 4 4 2 4 4 4 > < 4 4 4 4 > 4 > 4 < 4 4 > 4 6 4 m {.LXG.q < 7 > * = < < 4 > < > > = = = > = < = < > > > > = = & = * > = > > = * * * < = > = > > * * > = > * = * , * * * * = * & = = = & & * = & & = = & & . $ = = & * & & & # # # & = # & & $ % # & & & & & & & & # # # # # & $ $ $ $ $ ",
"# # $ = = = $ # & & $ # $ # & # & $ $ & & $ & $ & & & & = = = & & & = = = & $ $ & = & & = = & > = * = ; = & > > = = < = < > = * * < < 4 = = 4 = = < < $ l 5 # = < = > = > = > > 4 4 6 9 6 > 7 9 9 9 9 4 4 2 4 < 6 < < 4 4 < 4 4 4 4 4 4 4 4 6 6 6 4 6 4 6 6 6 7 7 7 7 7 9 7 6 7 7 9 7 7 9 9 9 9 9 9 9 r r r 9 9 r r r e 9 8 9 r p r r 8 r r a r f N I x x c z c c M S A F F N x G x x ( F 7 r p p r p r r p r r f r f j N I S x I b z N ( ..) ~ ) ~ ! ( ( ~ ( ( ] ( ( ( ( ] ( ! ( ( ) ( ( ] ] ( ) ~ ) ] { { { X.X.o.;.w.>.+.;.>.Y.P.n.:.&.1.0.@.:. .o.o.o.....o.;.o. .+.:.;.;.o.%.X.o.o.*.;.>.:.1.w.r.0.u.p.K.K.i.p.A.i.A.d.L.:X=X&XeX9.l # * & < & = & $ & = = & & = = & = = * * * = * * & * * * * % * & # & * * # * # # & & & & & & # & & & * # & & & * = = = ; # O.nXaX,XgXnXaXnXgXuX-XbXPXIXBXaXgXnXgXnXnXuXhXnXB . > & # = & $ & # & & & & & & & & & & & & & $ & = = = & & & & = = = = ; & = = = & = = $ OXx.# > = * * = * > = > = = < = & = & = = = & & = = = & & = & = & & & & # $ ; . l rXrX^ 9.tX&X&X&XeXJ.' d.>X;X;X;X:XQ.@X>XS.y.v.1X7X$X@X+X#Xe.9.t._ %.( { =.) o.r.>. .>.;.l.X.G x f p f a j f x v N x x F m x h x m U I k x ~ ~ g t r f e r r 9 9 9 9 9 r r 9 e r r 9 r 9 r 9 7 7 7 4 4 9 r 8 2 4 6 4 8 9 8 4 7 6 7 8 7 4 7 6 7 6 6 7 8 3 > 4 6 8 6 4 4 > 4 4 > 4 4 > 4 > < 4 4 > 4 < < 4 4 > 4 > 4 4 0.UXUXUX^ = 7 < > * > * > 4 4 > = = > > = > = > = * = = > > = & % & = = = = = & = & = > * = > = > & * = > & = * * = * * & * = % & = & = = & & & = & & = $ C q # = & & & $ % & & = & & $ & # & # $ $ & & $ & & & & # $ # # # # $ $ # $ $ ",
"# $ & $ & # # # # # & & = = = & & = = & & = ; = = & & & & & $ & = & = = = = & & = & & & = = ; = > & = 4 = & = = 4 = < = = = = = > * < < < > < > > 4 4 <  .~ = 4 4 4 4 > 4 > 4 7 7 8 r f 7 2 8 8 p p p 8 6 4 7 4 7 4 4 4 6 4 4 4 4 4 4 4 4 6 6 6 7 6 6 6 7 7 7 6 7 7 8 7 9 7 7 7 7 7 9 9 9 9 9 9 9 9 9 9 r 9 9 9 r r r e 9 r r 9 r r p r r p p r r 4 9 f x x x f N x W W D x F F T M D ] W e r p f f f f f p f p r r f r f R ~ P x t g z I ~ ..] ] ( ( ] ] ) ) ( ( ] { ] ] ( ) ( ( ( ] ) ] ] ) ) X.] ] ] X.{ X.X.*.*.;.+.&.o.;.o.q.q.y.0.y.y.n.V.G.u.y.+.+.+.o.o.:.;.>.;.:.;.:.@.:.w.y.:.>.1.1.w.r.u.m.y.p.K.P.s.s.A.S.s.d.f.K.f.wXf.B $ & & < * $ * = & & $ = 9 5 * = = & = = & * = = & * * * & * = & & * & = # # # # # = # # * % & & & = = & * & & & * & * ; # & . e.IXgXaXnXgXnXnXgXuX-XIXUXUXbXaXaXgXmXgXgXgXhXnX7.$ > % & = & * & & & & & & & & & & = = = & & $ = & & & & & & & = = = = = = = = ; = = = & t : $ = * = = = = * = < > & & > * = = > = & & = = = = = = = & = = & & & & * ; o B JX@X%XwX>X:X:X=XtXi.O.n.7X;X;X;X:X&X;X^.A.m.v.u.$X>X@X+X4XS.t.@...X.{ { #.X.X.;.o.| %.~ ~ I U N S v G N S G N x x v J J N j x f h f h f h a j f f f f r r r r r p 9 r r r 9 9 r r 9 p 9 9 7 9 7 9 7 8 4 9 7 6 6 8 6 6 6 6 8 9 7 7 8 7 9 x r 4 6 8 7 8 6 6 6 4 > 2 4 4 6 4 4 4 1 4 4 4 < 4 4 4 4 4 4 4 4 4 4 6 4 4 4 ' HXPXLXl 4 7 7 4 2 4 > > > > > > < > = < = < > * * > = 1 4 > & < v < & > * = * = = = & & & > > = * = = > & * * * % * * * = & # & % = & & & & * = & = * $ 1.U . = & * & & # & & = & & $ & & # = 4 = & $ & # & & & $ & & & $ $ $ $ $ $ $ ",
"& # $ = $ $ = & & & = & $ = & = = = = & $ & & = & $ & = = & = & = & $ & = & ; = & = = & = = = = & & = 4 < & & = = = & = = = = = = > = = = = = = < = 4 < $ = 4 4 < = 4 2 > 4 8 8 r 8 9 f 6 > r 9 8 p r 8 6 > 9 r 4 r 7 = < 4 = 4 4 < 6 4 4 4 6 7 7 6 6 6 7 6 7 7 8 7 8 9 r 6 7 7 8 7 7 9 9 9 9 9 9 9 9 9 r 9 r 9 9 r p r r 9 r r r r r r p r 9 9 r 8 p r r W ] j a g I W c c D c v S W W b r f e r f f f p p p r e r p 9 f t N I x a z g a b ! ] ) ( ) ( ] ] ( ( ( ] X.] )  .| ) ] ( ( ] ) ) X._ ] ] X.] ..X.X...o.;.>.&.;.o.X.;.0.u.u.0.w.q.A.#X2X3XP.9.0.+.:. .+.:.0.+.+.+.w.p.A.i.V.D.y.:.w.b.m.u.n.p.V.F.A.i.s.s.s.d.S.d.d.2Xe.5 # < 2 & & * = * & & = $ $ 5 4 = & & = & & * = = > * * % * * * % & % # & & = # # = = & & = & = # & = & * % * & & # * * * $ $ &   9.DX!.aX*XaXgXuXsXuX-XnXAXAX,XuXgX*XaXsXaXsXuXsXf.5 O * & # & % & & & % % % & & & & & = & & = = $ = & $ = & = & & = = & = = = = = = = = = & = = & & * * = * * = = * # & = * & = > & = & & $ = = = & & = = = & & & * * = . C KXg.$X>X;X&X:X>Xd.O.w.y.H.%X;XQ.@X&X%Xp.0.x.0.p.L.L.>X%X1X/.0.| *.( X.{ ) X.X.) ] ) ( { ) ( X.~ ! T T J F b v f r v U x f f x f j f j h g N ] N e r r r r 9 r r r p r 9 e j h 9 8 9 r 8 r 7 9 4 7 7 7 8 8 7 8 6 6 7 7 6 8 6 8 9 7 7 7 v E j 4 6 8 4 3 6 6 > 2 > 2 4 6 4 4 4 4 > < 4 4 4 4 > 4 6 4 4 4 4 4 4 < < 4 4 9 B ^ C < 7 7 > 4 6 1 4 > = = = > > = > > < > = > = * > < < > = < v < & = & & * = = = & * & & * = * = = * & * % * % * = & * * & & & & & & # & & & & & & & & & & & & & & % # & & & = = # & & # = 4 = # # # $ $ $ & = $ $ $ $ $ $ $ $ $ $ ",
"= $ & & $ & = = = = & & & & = = = & & $ = # & $ & = = = & = = = = = & = = = = = = = ; ; < = ; = = = = 4 4 = = = ; = * = < = > = > = = = < = > > 4 < < ; 4 < < < 4 > 4 4 4 9 p r p 8 r p 7 4 r r r 8 r 9 7 j v f p j f > < 6 4 < 4 4 6 4 6 4 6 4 4 4 7 7 7 6 7 7 7 7 7 j h 7 7 7 7 9 9 9 9 9 9 9 9 9 9 9 r r r 9 r r f r p r r r r r r r p r r r r r 9 p F 4.c.v r z J F r S T c x h I ) x r f p f p f f f p f p p r r f f 7 9 4 r f v g z f g N ) ..X.{ X...) ] ] ] X.|  .G.n.~ ..] ..X.] | %.+.&.| _ &.*.o.:. .@.:.y.y.r.&.%.>.;.n.m.y.w.u.A.S.L.K.H.K.i.0.0.@.@.w.0.+.+.&.y.s.s.S./.P.n.y.x.D.F.A.A.A.F.A.V.s.A.H.d.H.L.f.^.i.; = 2 = = & & = = & = * = & $ & & & = = = & = = & # # & * * = * & * = = & = = # & & = & = & = < < & & # & & & & & & & * * & $ ; : * 9.bX&XaX,XaXaXsXsX-X-X!.:X-XgXgXmXaXgXaXaXgXsXgXmX9.$ * & # = & = & = & & & * & & & & & & & = = $ & & & = = = = = ; = & = = = = = = = = = = < & & & * & * = = * > = & = > * = * = = < = & 4 f 6 = = = & = = = & & = ; 4 . ' JX@X$X>XwX>X;X%X9. .,.| t.rX;X@X@X+XL.q.:.w.x.XX(.d.$X+Xq.0.r.;.*.{ X.{ { #.X.X.#.{ X.X.X.] ] ! W E F J I N G N G F m k g j v j j j N x k m I j f f f f t h t 7 r r f r e k x r p 9 9 g U m g r e 4 8 8 8 7 8 7 7 7 8 8 9 8 8 9 8 9 8 f x r 7 8 8 6 6 6 6 4 4 4 2 > 6 4 7 7 4 4 4 4 4 4 4 > > > 4 4 6 4 4 < > 4 7 4 6 6 4 4 7 7 7 4 4 4 4 > > > 4 = 4 = > < < < < = < < = < < = < > = > = = = * = = = = = = > & = & * & = & * & * % * * * & & & = = = & = & * = = & & = = & & & & & & & * & % & & & & = = $ & & & $ = $ & & $ $ & # & = $ $ $ $ $ $ $ $ $ $ ",
"$ & $ $ = & $ & = & & & & # & & # $ $ & & & = & = = = & * & = = & = = = = = = = = = = < = < = = > = = = < = = = = = = = = < = = > = = = = < = = < = = < < ; 4 < > < 4 = 7 e p r 8 7 9 e 7 2 7 f p 6 p e U OX1.9 r j r 4 r 9 6 > 4 4 4 4 4 4 6 4 4 4 7 7 7 7 7 7 8 8 7 7 9 7 9 7 9 9 9 9 9 9 9 9 9 9 9 9 r r r 9 r r r r r r r r 9 r 9 r r r r 7 9 r 7 r I E N f g ! *.! J N E J r e e E E e r f f r r r f r r r r e e r f f 9 r r e p x v x S I ) | ..o...) ) ( X.( | o. .s.PX@._ o.+._ *.) | y.O. .:. .+.u.y.q.p.p.V.p.v.:.;.o.&.0.u.n.y.0.s.s.s.i.H.d.A.i.q.0.0.0.:.:.>.&.0.t.A.C.P.P.n.u.n.A.A.K.P.s.S.S.P.A.d.d.H.K.f.f.qXi # < = * = & & & & & & & = & = = = & & = * & * = o C @.5 = * & & = & = = 4 = & # & & & * & % & > = & # & & & * * & & & * $ # * $ = # 9.nX,X:XaX:X,XaX-X:X,X-XaXaXgX-X,XvX-XaXaXuXgXuXsXQ.: O * & = 4 = & & & & = & & $ & & & & $ & = $ $ = = & = = = = ; = & = & = = = = = = = = = * & * * = * * * = = & = = & * = * > = > = = 4 6 & & & = $ = = = = ; = = 4 o 9.wXW.%X>X>X+X@XyXp.%.#.] :.I.@X$X7X2XP.u.c.4.>.1.:.p.#XL.S.:.1.X.{ X.{ { #.{ X.X.{ *.X.( ..( ( ! ( E I T W I I F U v j f x g g k t x x x j r f f f f f r m  .! F k 6 r r f r r 7 e e r g S g g v g e 7 6 7 8 6 7 7 4 9 9 8 7 7 7 8 7 9 7 9 7 8 7 8 7 6 > 4 7 7 2 2 4 4 7 7 4 6 4 4 4 4 4 4 4 4 > > 4 4 4 > = 4 4 > 4 7 4 8 6 6 4 4 4 4 4 > > 4 < = > < 4 4 > < > = = > = > > > = > = > > > = * = > & & & * & = = > = * & & & & & > = > & % % * & * & & = * % & & & = = & & & & & & & & & = & & & & & & & & $ & & & $ $ $ & $ = & & $ # = $ # $ $ $ $ $ # # $ ",
"o & & & = = = & & = = & = $ & $ # $ = & & = & & & & = = ; = = = = = = = = = = = = = = = = = = = < ; = = = = 4 = = = < = = < < > 4 < 4 ; 4 4 < = = > < = = < 4 < 4 < 4 6 f j p 7 r 8 e r 9 4 7 p f r j p 4 Q | p f j f r v h h 9 7 4 6 6 6 6 7 6 6 7 7 7 7 7 8 8 7 7 7 6 9 9 9 9 9 9 r 9 r 9 r 9 r r 9 9 r 9 r r r r r 9 r r p r r r r 8 r r r r r 9 r 8 9 e e r p E X.~ E x T I N f f j N t f f f t f p e r p r f r r j x f h h t 4 r e x R *.*.%.o.o.....] X...X.....,._ p.UXp. .x.x.+. .| +.F.u.t.F.t.i.i.i.d.^.S.s.S.D.v.y.&.+.+.0.v.q.q.u.A.S.s.K.d.S.d.p.q.q.q.0.0.w.0.u.V.].P.P.S.S.D.A.A.P.H.S.K.K.L.(.K.K.H.f.L.L.4X^ . 2 = > & * & = & & = ; = = = = = = & = = & = 2 < . Q y.; * > * * 2 & # # = & & & * & = & * & * * = & & * = * & & & & = * $ $ * * & * P.nXaXaXaX,X,X-X-X*X*X:XaX-X:X:X:X&X&XaXgXaXgXsXuXBX^ O , > > & & & & & = ; = & & & & & = & $ = & & = = = = = = = = = = = = = = = = = = = = = = = & * * * & * = = = > = = * = = = = > = 4 = & & 4 = = = ; = = = ; = ; 4 - K.7X+X>X>X>X>X7XK.O.%.4.X.0.(.%XQ.L.s.0.1.l.%.%.%.;.v.3XqXHXw.%.#.X.X.X.X.%.#.=.{ { ........] { ] ! E ! [ E v v r v z x v M j z x F ~ R U U x g g j f h t v %._ P ~ E F e r t G N x r f e 7 8 e f p 8 8 6 7 6 8 8 7 7 9 9 r 9 9 9 r 7 7 8 9 7 9 8 8 9 r 9 8 7 9 6 6 6 7 7 7 6 6 4 4 4 7 4 4 4 4 4 4 > 6 4 < 4 7 4 6 4 7 4 7 4 6 6 2 4 6 2 2 > 4 < 7 < > * > < 4 > > = < > < < > > > > < > > = > * * & > = < = = = = = = # & = = & . . # * * = * = & & = & & # & & * * & & & & & & & & * & & & & & & & = & & & & & & & & $ & $ = & & $ & = $ $ = $ $ $ $ $ # $ ",
"= = & $ & = & $ & & = & & = = & & & & & & = & # = & = = = = = & = & = = = = = = = = = ; = = = = = < = = = = = = 4 ; = = = = > > = 4 < > < 4 > * = = = = = = = < 4 < > 4 r j 9 7 7 4 p p 7 6 7 4 r r 7 r 8 4 r f v x v g h x x j h 7 6 4 6 7 7 7 8 7 7 8 7 7 7 7 7 7 7 7 7 7 7 9 9 9 r p r r r 9 9 9 9 9 r r 9 r r r r r r r r p r e r e r 9 r r 9 9 r 9 r r g r r 6 9 9 p r r g G I E M x r f r f f r p k U I r r r r k v r 7 k R G M g x m | :.&.o.&...) | o._ | o.o.o. .q.A.|  .>.r.+.@.+.0.n.9.t.'.S.S.#X2Xd.d.d.K.s.s.D.v.0.y.0.u.q.y.0.9.n.A.p.s.K.S.d.i.i.u.0.q.0.0.u.F.A.A.S.S.C.P.A.P.S.S.H.I.K.L.H.K.L.L.H.L.f.+XP.$ # 2 & & = & & & = = = = & & & = & = = & & > = = > = & & $ = & * % & & & & = = & & * & * = = & & * & # = & & = = & * & & * * * # & . 5 rX:X:XaX,X,X&X:X,X:X&X&X:X,X,X!.&X&X:X&X,XaX,XaX-XDXf.# * * & & = & & # & ; & $ & & & & = & = = & & = = = = = = = & = = = = = = = = = = = = = = & = = * * * * = = * & = = = * * = = = * > < = = 4 ; 4 ; = = = = & = ; $ : 1X%X+X>X+X>X7XL.9.&.%.*.;.m.}.Q.f.d.9.w.,.,.1.<.=.5.>.v.D.v.;.%.X.#.{ X.X.{ #...X.{ { X...) ] X.( T F E ~ T x j M v x N z b N N z ! 5.-.~ U x g z g r f h e l ..N U *.~ S F b ! ~ ! g e r r e r 6 8 7 8 6 8 6 6 7 8 7 7 9 9 9 9 9 9 9 9 4 7 9 8 7 7 9 f p r 4 6 7 6 4 7 4 4 6 4 4 4 4 6 4 < < 4 4 4 1 4 4 4 4 4 7 7 4 4 6 > 6 6 > 4 2 2 2 4 > > < 4 4 = = > = > > > = * = = = < = > > > > > = = > = = > < = = > & = & & & # & & $ Y  .7 o > & % % * & & * & & & & # & & $ & $ & & & & & & & & & & & & & $ = $ $ = & $ & $ $ & $ & = $ $ $ $ # $ $ $ # $ o o $ ",
"& = = = = & & = = & = = = = & = = & & & & & & & = & = & & & = = = = = = = = = = = = = = = = < = < < = = < = = = = = 4 = = = 4 = = * > < 4 > > = = = 4 = 4 ; < 4 4 < 6 = < 4 7 p 7 4 r p r 4 7 4 6 2 e 8 r r p r j x N j z j x j x h 9 4 6 6 6 8 7 8 7 7 7 7 7 8 9 7 9 9 9 7 9 9 9 9 9 9 9 9 r r p r f f f r r r p r r r r r p r p r r r p r r r r 8 e r p r r r f f x M f p p e f g F E N p f f g f p p m | o.I x r r k m f e v ;.;.o.%.| Q ~  .;.:.>. . . . .o.o...o.;.>.@._  .;.+.:.@.r.r.w.@.@.:.y.q.e./.6X#XH.s.d.d.S.p.i.A.G.s.S.p.n.q.q.t.9.@.9.s./.S.s.s.A.i.A.u.t.s.s.9.9.9.A.P.P.P./.K.K.L.^.L.#XW.#X#X$X#X#X+X4X9.$ 2 & = = & & & = = = & & $ = = = & = = = = 4 = > = > = = = 4 = = 4 > = > = = & = = * * = = > * & = & = = * * = = = = & & * = * $ ; # Y NX,XaXgXaX:X&X&X,X*X,X&X&XnXIXvX&X,X,X:XvXaX*XaXaXbXd.$ 2 , * = = * = & = = = = = = = = = = = = = & = = & = = & & = = = < = = = = = = = = = = & & = > > , = * * & * = * = = * > > = > = > = ; = = < = & & > 4 = & = ; & i rX%X>X7X$X$X@Xe.O.1.-.#.*.:.9.L.@X7XF.b.<.,.<.,.,.<.>.>.%.;.,.,.%.*.#.X...*.X.*.X.X...X...X.{ { ) ! T W R E U I v S ~ { R H x z b S ! W c z j x x z f g f j f h j j f k j N h r r j e r r p 7 8 e r 7 8 9 9 7 9 8 r 8 9 7 7 9 9 r r 9 9 r t 7 9 9 9 4 9 7 7 8 7 7 7 7 7 7 7 4 6 6 7 7 7 6 4 4 6 4 7 6 1 > 4 4 6 7 7 4 4 7 7 4 6 7 7 6 6 4 4 < 4 > 4 4 < 4 4 < 4 4 < = > = > = > < < > > > > = > < > & = & & & * = 4 = = # & = . B UXUXLX6 # = * * > = = & & & = & & & & & & & & & & & & & & & & & = & $ = = $ $ = = $ $ = & $ & & = $ $ $ $ $ $ $ $ $ & # $ & ",
"& # = = = & = & = & & & $ & = & & * & & & & & & = = & & = & & = = = = = = = = = = = = = ; ; < < < = > = = 4 < & = = = = > > > > * = > = > < > = > > = = = = 4 < = < 4 4 4 > 6 7 4 > 4 r 8 4 7 8 r 8 e 4 8 r r r e j v x f e x h j v r 4 4 6 6 6 7 7 7 6 7 8 8 8 9 7 9 h h 9 9 9 r 9 9 9 9 9 r r p f f f r r r r r r r r r r p r r r p r r r p e r r p e r r r r p p v N x r p p f e r f g g j f f f h f h j U o.o.I m k k j f r ~ >.&.o.>.>.&.+.;.+.:.:.:. .+.r.:. .+.o.+.:.>.:.w.+.+.;.:.:.:.o.1.t.0.0.y.@.q.p.i.i.s.i.s.C.K.C.d.K.K.s.A.A.S.i.p.@. .t.s.s.K.G.S.s.S.A.H.K./.S.S.i.A.P.K.K.I.^.#XL.L.W.$X#X#XW.W.$XQ.f.9XQ o 6 & # & # & & & & & & & = & & & = = & = = & = = % > = > & * * > < = & * & & * = = * = > = & & = * = = & = = & = = * = = # * & & $ $ e.,X*XaXaX,X*X:X!.&X&X:X&Xg.vXUXmX&X;X:X,X,X,XvX-X*XvX7Xq & * < & & * = = & $ = = = = = = = = = = & & = = = & & & & & = = & < 4 < = = = = = = = & & & & * * % & % = * & & * % * * = > > = = = = = < = & & < = = = = * ; o C rX$X$X$X>X;Xg.wXs.o.X.%.X.%.+.S.a.S.q.&.;.<.%.,.*.%.1.1.%.*.*.%.*.*.%...X.,.o...X.X...{ ....] ) ) X.] ] ( X.W E F T ] ( E I N N g M x x j g z x f j j f f j f f f h t k f p f j h r r p 8 e r r 9 7 9 e 8 8 9 9 9 7 9 9 7 9 8 9 9 r r 7 I F 7 r 9 7 8 4 4 9 7 7 4 7 7 7 7 6 6 6 7 7 7 6 4 6 4 < 4 4 4 4 > 6 4 1 4 4 4 7 4 6 2 2 7 7 7 6 > 1 4 4 4 > > 4 > > 4 > > > > > = = > < = > > > = > > < = = * = & = & & * = < = # & & % - ^ LXHX7 # * & * & * & & * & & & & & & & & & & & & & & & & & = $ & & = $ = = = = $ $ & $ & $ $ $ $ $ $ o $ $ # # ; ; # ; . & ",
"= & & $ & = ; & = = ; & # & = & = & & & & & = & = = & & = & ; = & & = = = = ; = = = = = < = & = 4 < < = < 4 = & = 4 4 = > 4 < > > = 4 > 4 4 4 = 4 4 4 > = 4 6 4 4 4 4 4 6 6 6 4 7 4 2 > 8 8 9 7 s p r 6 r 8 p r e r g p p r p r r f 9 4 6 6 7 6 8 7 7 6 7 7 9 7 9 9 9 f f 9 9 r r r p 9 9 9 r r p 9 9 9 r r p r r r f r p p f p p p f p p p f r r r p p p p f r p r r r p p p p a f f p f f j f f f j f h e f m ..>.o.U U P N g I  .;.:.;.+.:.:.>.:.>. .o.o.@.+.+.o.>. .;.+.0.0.y.>.>.>.>.+.:.:.1.y.q.0.0.0.0.0.9.s.H.s.s.S.K.H.I.H.d.d.S.H.K.S.F.q.0.G.s.9.V.P.6XL.C.H.^.#X$X#X(.S.K.K.^.^.I.#XW.L.2X#XW.L.L.L.#X#X#X+X4XC * ; = = = * = & & & & = = & = & = = & # = ; = & = > > * > * , = 4 & & * * = * * = * > = = & * * > = 4 = = & & = = = = & & & = * ; * i >X:X&XgXbXaXaX:X:XaXaX,X&X&X:XDX-X&X,X,X,XvXaXaX,XaX,XPX' $ 2 < & = = = & = = = = = & = = = = = = & & = = = = & & = & & = = & < = & = = = > * = = = & * > = & & * < = * * * * = > 4 > = = = > > > < = * = 4 = 4 ; ; & ; # 7.JX$X%X$X#X+XW.$X9. .*.%.X.;.;.u.d.i.:.%.<.2.,.<.*.,.>.1.,.*.#.;.%.%.*.,.2.,.o.%.%.*.X.X...X.{ ..] ..] ] { X.{ X.! E R W ) W | 2.~ v x j z z f j x x x x f f h j f j f f f f f h f p f f r r f h 9 7 9 r 9 r r 9 7 7 r r 9 r 9 p r t r 9 9 9 9 t r 9 7 6 8 9 9 9 7 7 7 7 7 6 6 7 4 7 6 7 6 7 4 6 4 7 4 7 4 6 4 7 4 7 7 7 7 6 4 6 2 4 4 4 4 4 > 7 4 < 4 4 4 > = * * > > < = = > < > > > > = < > 4 = = = > = = & = & = & & & * & * & O 6 = O * * , % & & * & * & = * & & = & * & = & & & = & & & & $ & & & = = $ = $ $ $ = $ & = = $ $ = & $ $ $ & & f f & ; $ ; ",
"& & & & = & = = & = = = = $ & * & & & & * & & & = & & & & = = = # & = = = ; = = = = = = = 4 7 = = > = = = = > = < 4 < & = 4 < = 4 = > > 4 < > > < 4 4 = = > 4 6 < < 4 4 4 4 4 4 6 > > > 6 6 6 e r 7 r r e e e 6 s r e p j r 7 4 7 4 7 6 7 6 7 7 7 7 6 7 9 7 7 7 9 9 9 9 9 9 r 9 r r r 9 9 9 9 r r r 9 r f r r r p r r r r f f r p r r p p r r r f r r f p r r p a p p r a p a r a f f a f a a f f t p f p f f 7 j _ @.&.>._ o.~ U Q  .&.:.:.:.+.:.>.:. .o. .+.+.:. . .&.o. .:.:.@.w.r.+.;.@.:.@.+.:.q.A.p.q.u.0.i.i.s.s.A.s.d.P.I.f.d.d.I.C.S.K.S.t.i.PX1X9.V.s.(.H.d.S.I.H.L.a.d.H.K.K.I.#X#XL.J.J.#X#XJ.L.#XI.W.W.Q.@X#Xh = $ . * * & & = & & = & & = = = = = = & < < = = = = * = > = > > = = * = > * > * * > = * = = = * = > = > & * = = = < = & = = $ = & . C ;X&X*XvX:XaXnXgX-XgXgX,X&X*X*X*X&X*X&X:X&X,X:X:X:XaX&XnXf.. * * ; = & $ $ = & = $ & $ & & & & & $ $ $ & = = = & = < = = & & & & & = = = = * = = > = = * > * & = = = = & = > > = > > * * = > = = = = = > = = > 4 = & = = . 9.7XW.eXrXi.9.9.9. .%.o.*.*.%.+.u./.u.+.<.,.;.,.;.*.<.&.<.,.*.%.%.%.%.o.,.>.X.X.*.#.%.*.#.{ { ....] ) ] ..( ) ..] ~ ] ( #.#.F E c.~ g g j f j f g j g z f f h f f f f f r p f r r r f r r r 9 p r 8 9 8 9 9 9 9 9 7 9 9 p r 9 r r r r r 9 9 9 9 9 9 9 9 9 7 7 9 9 7 4 6 7 6 7 6 6 4 6 4 6 7 7 7 4 1 4 4 7 6 1 7 6 4 7 4 6 9 8 4 4 4 4 1 4 4 4 4 > 1 1 > > 4 1 > > > > > > < = $ $ = > * 2 > = > = = > = = = & = = = = & * & & & * & > , % * * & * * = & & & & & * = * & * * & * = & & & = & & & & $ & $ $ = & $ $ $ = $ $ $ $ & $ $ & $ = $ # # = & 7 t = & : $ ",
"& $ & = = & = = = = = = = & = & = & = & = & & & = & & & & & = < = = 4 = = = ; = = = 4 = = 6 f < < = > = = = 4 = = > = = = > < 4 4 > > > 4 > > > 4 > > = > * 4 4 4 4 4 4 4 4 4 6 6 < 4 7 9 7 9 e r r r 7 = 4 e e e e e e p r 7 7 6 7 8 7 8 7 7 7 7 7 7 7 9 9 9 9 9 9 9 9 9 9 r r f r r r r 9 r r p r 9 r f t r p p r p p p r p p p p p r p r r r p p p p p r p p f p a f f p f g f a a f f f a f f f g a g f j h h t U ~ o. . .+.&.+.+. .+.@.:.0.r.:.:.:.w.:.:.u.m.:.&.+.@.:.0.:.r.:.1.:.:.0.0.0.u.0.y.p.S.S.F.A.F.s.A.d.d.s.S.P.I.H.d.S.K.H.K.d.S.P.(.rXwX#X3XH.S.d.K.P.(.S.H.H.H.#X#XI.#X#XW.L.#X+X$X#XL.#X$X#X$X#X$X+X#Xl = X i $ = = = & = = = & & = = = & = = = = = = = = = > = > > < > > * = * * > > = > = = = = > < = = = = * = = ; = < > = = = = < = = : a.,X&X,XaXbXnXnXbX:X:X*X*X*X,X:X,X&X:X&X:X=X=X:X,X:X,XaXbXtXi = > = = & = & = & = = ; = = & & & & & $ & & & & & = & = < < & = = > & = * = = > = = & * * > > & * = = > * & * < = > * * * > = < < = = = > 4 = < < 4 = = < < & p.4XW.W.d.t.y.+.+.;.>.;.>.,.;.:.y.q.:.o.,.>.*.1.1.,.;.>.>.;.<.*.%.*.,.o.o.o.o.#.*.*.*.%.o.X...X.X.........X.X.] ) ..%.) ..*.J j M j j j z f j j x j j f f h j f f f f f f p f p r p f r f p 9 9 9 9 p 9 9 9 r 9 9 9 r 9 f r r r r t f 9 9 r r 9 r 9 9 9 9 7 9 7 8 6 7 6 8 7 7 7 7 7 7 6 6 < = 4 7 4 7 4 4 7 8 7 7 4 4 4 9 9 r 6 7 7 6 4 7 2 6 < 4 7 4 > 4 4 4 4 4 > 4 > > < & j m & > 4 4 > > > = > < = = = < = = = = * = & = & & * > , , * * * * = > * & & = * * = = & > = = & > = & % & $ $ $ = = = $ $ = = $ $ $ ; & & $ = $ & & & $ = $ ; ; 4 $ ; 7 7 ; ; 4 ",
"$ $ = & = = & & = & = & = = = = # $ & = & & & # & = = & & & = = ; < = = = = = = ; = $ = = & & = < = > = > > = > = = < = 4 = > > > 2 4 > > > 2 > > < 4 > 4 < 4 > 4 4 4 4 4 > 4 4 4 9 h f 9 r r 7 9 r 9 9  .m 1 9 7 6 9 7 7 7 8 7 9 7 6 7 7 8 7 7 9 7 7 7 9 9 9 9 9 9 9 9 9 9 9 r r r r r r r r r r r r r r f r r p r p r r p r p f p p p p p f r r p p r p f f p p a a p f f f f f f g f f f f f f g g f h f f j j h k t U +.O._  .+.:.:.+.O.:.:.0.0.0.:.w.:.@.u.u.y.+.+.y.y.v.0.@.@.:.0.G.P.i.9.n.y.u.9.9.A.p.i.i.P.A.i.A.s.i.P.s.d.K.A.s.S.H.d.K.H.I.d.H.^.I.^.H.K.(.K.K.K.K.H.#XL.W.W.W.#X%X+X>X>XQ.L.W.L.W.$X7X$XQ.W.#Xl . i 9.. * * = & & & * & = = = & = & = = = = = = = = > = = > > > > * = * * = = > > = * * > = > > = = = = = * = = < = = & ; = = = = 5 L.:X,X:XvXbXnX,X:X&X:X&X&X*X&X,X,X&X&X&X:X&X&X&XbXnXaX:X:XKXC . 2 & & & = $ $ $ & ; ; ; & & & & & & = & & & & & & & = & & = % < > & & = = = = * & & * % = > & % * = * & * = = * * * = = = = = > = = = = = > < = = = = = # q A.d.f.K.F.u.r.;.;.;.<.;.;.;.>.;.:.:.+.;.;.%.,.;.1.;.;.>.;.;.;.*.,.%.%.;.;.%.*.X.X.X.*.X.%...X...X.o.X.] ] ..] ! ( ~ ) *.;.W v x z j z g f j h f f f j f f f f f f f f f f f r f f r r p r 9 9 7 9 9 r 7 r h 9 7 r 9 r 9 9 r r r f r r r r 9 r 9 9 9 9 9 7 7 7 7 7 8 8 6 6 7 7 7 7 7 7 7 < j U * 4 7 4 4 4 4 7 7 6 6 7 7 7 7 4 4 7 4 9 4 4 6 4 8 7 7 4 > 4 > 4 4 < > > > < > & 9 h & 4 = = 4 > = > = > = = = = = = * * * = = & & = = = * = = = * = = = = * & = & = * & = = & & & = & # % & # & & & & = = $ = $ # $ $ = ; ; $ & $ % 4 4 & $ & 7 p = ; $ & 9 ; $ 9 ",
"& & = = = = & = ; = = & = & = & & # = = & & = & = = = & * = = = = = 4 = < > = = & ; 9 & > < < < < = > > = = < < > = 4 = = = > = 4 > 4 > > 2 4 4 4 4 6 4 4 4 4 4 6 4 4 4 4 4 6 4 1 f M h r r r r r p 7 m UX@.% 9 8 7 9 7 7 7 9 7 7 7 7 7 7 8 7 7 7 7 7 7 9 9 9 9 9 r r 9 r 9 r p r r p r f f r p r p r r f p r p f f f p p p p p f f f p p p f f f p p p p f f f a f f a f g g f f j j j g j f f x x x j h h x f j x h m c._ Q w.0. .:.@.@.0.t.0.0.9.0.y.u.q.q.0.t.u.t.y.n.i.D.u.q.:.0.i.rXW.tXI.i.n.p.q.t.V.p.9.t.V.s.A.F.A.A.A.s.s.K.S.S.P.K.S./.P.K.H.K.d.P.K.K.I.I.L.I.K.K.#X7X$X$XQ.W.#X%X$X$XQ.#X#X$XW.#X#X+XQ.@X@X4XC . Y '   2 * , * * & & * = = & = = = = = = = = = = > > = > = > > > > = > = = > > > > * = > > > > > > > = = = = > = = = = ; = = : = - I.bX<XeX,X:X:X:X&X,X,X&X:X*X:X:X*X&X,X:X:X&X,X,X>X@X,X,X,XBXd.X 2 = = & = & & = $ & = & = & = & = = = = & & = = = = ; = = = & h = = = * = = = * = * = % * > % & * = * * = & * * * = 4 = = = < < < < < = < 4 4 = = = 4 2 # Q 0XP.P.p.m.:.;.>.>.>.;.>.>.;.>.:.>.:.:.:.1.1.c.>.1.>.:.>.1.>.%.;.<.;.;.,.,.*.,.o.X.X.*.o.%.X.*.#.X.| ..] ] ( ) ! ] X.%.{ ) S z v b z x z v h j F I g f j j f h j f f h f f f f f h f r f f 9 9 9 p 7 p 9 t f f r f 9 f r p 9 r t f t r t r r r r p 9 9 9 9 9 9 7 9 8 9 8 8 7 7 7 9 7 7 9 4 v ! 4 4 4 7 1 7 7 7 4 6 6 8 4 8 4 4 7 8 6 6 8 8 4 4 7 7 1 4 4 7 4 4 > 4 4 < 4 6 < < = = < 4 2 4 > 4 = < = < 4 > = * = < = > = = & * = = * > = = * * * = * > > = & * * > * & & = * % & = & # & = & = & = $ = & = = $ $ = $ = ; ; $ = $ < r 6 * & & 9 9 # = $ = f 4 ; f ",
"& & = = = $ = & = = & = & & & & = & $ & = & & = = = * * = * = = = & = = > = > < # k ! $ > 4 < > > > > > < < < < > > > = * = 4 6 4 > > > 2 > 2 2 4 4 4 4 > > 4 4 4 6 4 > 6 4 4 4 < 7 f 9 4 8 p r r r 9 7 U k 6 7 6 7 6 7 8 7 7 9 7 7 7 7 8 8 7 7 7 7 9 9 9 9 9 9 r r r r r r p r r r r r r r r r p r f r r r p r f f f f p r f p p f f p f f p f f p p p f p f f f f a f g f g f g g j g g f j j g x x f j g g x x j t k &.t 1 | r.y.v.q.u.9.9.9.t.q.t.q.u.p.p.i.n.u.n.n.i.s.V.s.A.u.q.V.H.NXIXH.i.p.D.n.i.A.F.n.n.i.V.s.V.S.A.s.A.s.p.S.P.H.S.A.s.P.(.K.I.P.P.C.L.H.K.I.^.S.H.#X7XeX7XW.W.L.L.+XQ.W.#XW.#XW.L.W.+XW.@XW.2XY   9.i.. , * % = & & * & = = & = & = = = = = = = > > > > > = * = > = = > = = * > > = > > > > > = > > > > * = = = > = = = = = = = & q 6X,X;XeX;X&X,X&X,X&X,X,X&X:X:X&X&X&X:X,X;X@X&XeXa.a.,X:X:X,XJXi O > & & & = & & & = = $ & & = = & = = & = & & = = = = = = # & G # * = * * = = = = & * & * = % % = = * * = = * & * = = < > = 4 = > > > < 4 < > = = = = 2 & +.'.n.y.&.:.>.1.;.>.>.&.>.>.:.;.>.>.;.>.;.;.l.l.c.>.;.>.;.>.>.;.*.;.;.<.%.*.%.X.X.X.I J R U ] X.| %.X.X...X.{ %.| ) E U b c z v c v x j g g x F ..) x g j j x g t h f f j h r r f t r f r r 9 r 9 9 r f q 4 7 r f f f r f r 9 9 r t t f 9 t t r r r r r 9 9 9 9 7 9 9 8 7 8 6 7 7 7 7 7 7 7 > * 4 r 9 9 7 9 7 4 4 7 4 4 7 4 4 7 4 7 4 4 8 7 4 6 > 4 4 7 > 4 4 4 > 4 4 4 < 4 > < < 6 4 = = > = = = = > = < = & > = = > 4 > = & = & * * * = * * > * * = > = = = = * = & # & * # * & * * & = = & & & = & $ $ $ & & # $ $ = & = $ $ $ = r 4 # > # 1 8 > & = > 9 6 $ 9 ",
"= & & = = $ = = = & = & = = & = = & & & & & = = & # & = = * = ; = = = & = > 4 < < * & = < < > < 4 > > > < < < < > > > < > 1 O . = 4 > 2 4 2 2 4 4 4 4 4 4 4 4 4 6 6 4 4 6 7 7 4 7 4 7 6 7 6 8 7 9 7 8 7 , 4 9 8 7 7 7 8 7 7 8 7 9 7 7 8 7 7 9 9 9 9 9 9 9 9 9 9 r r r r r r p p f r r r r r p r p p r f p r f p f p f f p f f f f p f f f f f f f f p f f f f f f f f f g g g g g f f g j g z j x x x g x j x g j x j f m t r k B +.^ U O.u.u.u.n.n.p.i.i.i.p.V.A.p.s.p.A.A.V.A.S.V.A.P.K.yXW.d.A.D.V.p.F.S.V.p.A.V.A.i.p.i.i.V.G.s.A.s.A.s.s.d.K.H.H.P.P.S.K.K.K.K.K.L.K.H.K.H.W.Q.W.W.#XJ.W.$X$XQ.$X$XQ.%X#X#X$X$X$XW.JX^ - #X1X- * = = & = & = = = = = & = = = = = = = = > > > > > * * = > > = = = > > > = > > = > > > > > > > > = = = > > > > = = ; ; 4 $ B JX>X8X>X;X;X,X,X,X,X;X@X!.&X:X&X,X:X&X!.@X&X:XbX>X@X,X:X,X,XNXs.X ; = = = & = = < ; * & & & & & * = = = = = = & = & & = ; = & f = > > * * * * = > * * * = % & * * & = * * * = & = & * * & = * = = * < > > = = = 4 > = = 9 w.x.:.>.,.w.l.l.;.1.:.>.r.r.;.;.>.1.>.1.;.:.:.:.:.1.1.r.>.>.:.;.;.>.;.;.;.*.*.*.*.! e r v N W X.X.X.~ ~ { #.W G m x r f g z v N c x v M G F M m v j g x v x f j h j h h j h p f f h k x f f f h 9 t v 7 6 v G t r f f f f f 9 r r f r f f t f f 9 r r r 9 9 9 9 7 9 9 r 9 7 8 7 7 7 8 8 7 9 7 8 6 6 4 9 8 4 7 8 4 7 4 6 4 7 4 8 7 4 6 r r 7 7 7 6 6 4 4 4 6 2 4 4 2 4 6 4 > > 4 > 4 4 4 < ; 4 = = < = 4 = 4 > = = 4 = = & * = = = = = = * * = > = = = > = = = = * * & % & = * = & & * * * = = = = = & & # # & & # & & = & 4 f 4 o = 7 7 = < = 7 9 9 7 9 9 9 4 ; 9 ",
"$ $ $ $ & & $ = & & = & & & = & = = & $ & = & = & & = & * * = = = 4 7 4 ; = < = > < 4 4 = = 4 < > > > > < < > < < > < > 4 = B p.l = 4 2 > 4 4 > > 4 4 4 6 4 4 4 6 > 4 4 4 7 8 4 6 7 7 4 7 4 2 7 7 7 7 7 9 9 9 6 8 7 8 7 9 7 7 7 8 7 7 7 7 7 9 9 9 9 9 9 r 9 e 9 r r r r r r r f r r r r r r r r r p f f f p r p p r p p f f f f f r p f f f f f f f f f f f f f g f g g f g g f f g j f g j g g x x h j j x j g g k f j U x x x t m x r B ^ y.O._  .n.V.i.i.V.i.s.V.V.i.V.C.S.d.V.V.P.S.s.H.d.s.F.s.A.V.s.H.C.i.A.C.s.A.V.i.A.V.V.s.s.s.A.s.S.H.I.H.L.K.L.(.H.H.K.K.H.H.I.K.K.H.K.H.L.L.W.$XW.J.$X7X$X+X7X7X$XW.+X>XQ.W.tX9.C wXL.: # = = & = = = = = & = = = = = = = = = = = > > > > * * > > = = * = = > * = = = > > = > > > > > > > * > = > = = = 4 = = 6 . ^ NX;X,X,X:X;X;XeX,X,X&X!.:X&X&X:X:X&X&X@X>X&X&X8XeX;X&X,X,X:X;XNX^ . 4 = = & & & = = & & & & & & & & & = = = & & & & = * = ; & # > 2 * * * & & * * > > % % % * & & * % * * & = & & = = * > = = = = = & = = * > = = = 4 * 7 :.y.:.x.l.l.:.w.>.;.;.y.b.:.:.1.:.>.:.;.>.1.:.w.:.w.1.w.r.>.;.1.;.;.;.;.;.;.o.o.o.E x N G U F E ! U x x v N v j g v j j v b z x N b z M W ! M g x x j x f j f h f f r f r f h j r f N m f r r h h m U m x m v r f f r f f r p f r r f f t f t f r f 9 r 9 9 9 9 9 7 9 9 9 7 7 7 7 7 7 6 6 8 7 8 6 4 4 6 4 8 4 7 6 4 r r 9 7 6 7 7 8 7 9 9 4 4 8 7 7 4 = 4 6 4 4 4 4 4 4 4 4 < > 4 < 4 4 = 9 m 4 * > > = 4 > = > = = < & & = * = = = * * = = * > > > = = & * = * = = & * & % * * = & & & & & * = & & & & # $ & $ $ & # * = 9 m t # $ = 4 = & 4 = 7 r 7 r 9 = & 5 < ",
"$ 4 5 ; = = = $ = & $ = = & = & = = = & = & = = & = = = = = = = = ; 5 6 < < 4 = = < 4 > = > 4 4 < > < < < > < > > > 4 > 4 O ^ UXY % 4 4 4 4 4 2 4 4 6 4 7 6 6 7 4 4 6 4 6 6 7 6 6 7 8 7 8 6 7 4 6 8 9 7 7 8 9 7 9 7 8 8 9 9 7 7 7 7 7 7 7 7 7 9 r 9 9 9 r r r r r r f f f r f r f f r r f r p p p r f f h f p p p f f f f f f f f p p p f f f f f f f f f f g f f g j g j g j g f g j j z j x x m x x h x j j j x x j j ! F x x v x v M x k U x x x _ V.s.s.A.s.s.s.s.A.A.s.S.S.C.S./.C.s.d.S.d.S.S.P.H.H.C.C.A.S.S.S.P.S.A.K.S.K.H.C.S.S.H.#XW.W.#X2XL.P.S.H.H.I.K.L.L.L.L.I.L.^.L.#XL.L.$XW.W.+X$X7X7XwX+XJ.W.+X$X$X@X;XL.a.;X$Xi % 2 * = & * = = = & & ; < = ; = = = = = = = 4 > > = > < > > = = = = > > > = 2 = > = > > > > > > = > = > 4 = > < < = = 5 & 9.MX,X,XvXbX;X>X;X8X,X,X,XbX:X,X;X:X&X=X;X,X=X:X,X,X>X;X,X<X,X,X,XyXC $ = > , = * = = & & & & = & & & = & & $ $ $ & & = = = = = & > > > = * * = & * > = & % & = & * % , * 2 = * = * = = = > > 4 4 4 = * & 4 4 < = = > 4 = f y.v.y.x.w.y.v.b.x.1.>.r.v.y.:.:.0.r.0.>.r.r.r.r.y.x.>.w.r.r.1.1.>.:.:.1.:.>.;.;.&.o.~ ! F M N G N G v N h k v M N M v j j v x S N N z j z v v b z j x x j k f r r h j v g h 7 f r g j h f N m f p U l.o.j 9 r f f f f f f f f h p p p f f f f t f f p p 9 9 9 r 9 9 9 9 9 7 8 9 7 9 r j v p 4 6 6 8 7 6 9 r 9 9 7 9 7 r 6 4 7 8 7 9 7 7 4 7 6 9 9 4 p ! h 4 6 7 4 6 < 4 4 7 4 4 4 4 < 4 > 4 9 = > > > > = = * = > < > = * > = > < = & > = = = > = < = * = = & = = = * = & * & * & & & * & & % & & = & $ $ = = & $ & = 4 6 9 7 < $ = = & & = 4 < 4 e 6 7 4 & ; 5 9 ",
"= < ; = & $ = $ 7 l = % = = & = & = = & & & = & = = = = = = = = = = = = = = = = > = = > = = = < > < < > > > > > > > = > > < $ $ = 4 2 > 4 > 4 > 2 > 4 4 4 7 7 4 4 4 6 6 4 4 4 4 7 4 6 7 6 7 7 7 8 7 7 7 9 7 7 9 7 7 8 8 9 8 9 7 9 9 9 8 9 7 9 9 9 9 9 9 9 r r r r r p f r r r p t r f r r f f r f r p h f f f p f p f f f f f f f p p f f f f f f f g f f f g f g g j j j g g g j h g j z j j x x x h g j g x x j k v m U I c g b z v z z v m c T G U D.d.s.C.A.s.s.S.S.S.C.S.d.S.S.C.d.d.S.K.s.s.C.S.H.d.C.S.A.C.S.S.H.H.d.C.K.H.S.K.d.d.K.L.#X$XW.I.H.C.S.H.S.S.I.^.L.J.H.K.^.#XL.L.L.W.W.W.f.W.J.$X$X>XQ.Q.Q.$XW.@XQ.Q.$X@Xg.%Xl . * % & % * * & = & = < ; = = = = = = * = > > > * > > > > = = = = * * > > = = > > , > > > = * > > * > > > > = = = = ; # $ f.8X:XbXaX8XbX,X;X;X&XvXaX,XaX,X&X&X&X,X:X&X:X,X:X:X@X:X,X,X,X8X;X8XyXC # 4 > * * = % = & & & & & & & & = & # & & $ & & = = $ = & = * < * * & * & * = * # & % * * , = , , # # & & * = > = * = > 4 < = & * < 4 > = = = > & k v.y.y.x.0.v.D.m.y.r.:.;.x.y.:.i.i.9.0.y.0.w.v.v.0.w.r.y.0.w.0.:.;.>.:.:.>.:.:.>.:.:.@.+.~ I k v g v v v j v a a m x f v g x x x S x x v z b N v g v x g j f f F ! ( ( ] W I x N I W S v Q l.,.N f N E j r f f f r p f f r f p p f f t t f f r f r p p p r 9 9 9 r 9 9 9 7 9 7 9 9 r r f f 8 7 7 6 8 6 7 7 9 r 8 4 4 7 7 7 7 4 7 7 7 7 4 6 8 7 4 7 7 4 h 9 6 6 6 4 4 4 4 < 4 4 4 < < < 4 < = = > > < = > = * = > = > = > = * * = > = & * = = = > = = = = & = & = & = * & * * & & # & & = & & % = & * & = & = = & # & 4 9 9 7 < * & 4 ; = = 7 > > > 1 9 7 = = $ = f ",
"= $ $ $ = = = & ; h 9 & = & & & = = = & $ = = & ; = < = = = = = ; = > = < = = > > < > < 4 = = = 4 < = < < > > = > > < = = > 4 4 4 > 2 2 4 4 7 4 4 2 4 6 6 4 4 4 6 6 6 6 6 4 6 7 7 7 7 7 7 4 7 8 9 8 8 8 9 8 9 8 9 8 8 9 9 9 9 9 9 9 9 9 9 9 r r r r 9 9 t r f f p r 9 r r p p r f f p r f f p f p p f h h p f h h f f f f f f f f f h f j f g h f f j h j h h h j h g j z j j j j j g x x j g h x x j x j x x x x x v x N N N b v x b x z M U F S F O.P.S.d.S.S.S.A.S.S.K.S.S.S.H.S.S.s.H.H.S.S.S.d.C.C.S.H.P.S.S.H.K.H.S.H.H.L.L.H.K.S.H.K.I.I.#XH.H.d.d.K.P.S.H.S.K.L.H.L.L.H.K.L.L.J.%X>X>XW.W.Q.wX>X$X@X>X@X@XQ.@X@X@X$X$X@X7X' $ = = & = = = = = = < < = = = = > < < > > > > > > > > > > > 2 = = 4 9 = > = > = 2 = 2 > > = = > > > 4 4 > > = = 4 ; ; - Y 7X,X,XbXnXnXnXnXaX,X,XbXgXbXaX:X&X:X,X,X,XvX,XvX:X,X:X<X,X8X8XbX,X,XbX7XC ; > 2 = 2 * & & = & & = = & & & & & = & = & = = & & = = ; & * = = & & & * & & & * % * 2 * * # # h O.Y $ , = , = = = > = * = * > 4 = 4 < 4 > 4 = m Y.n.n.m.v.v.x.y.w.b.w.r.x.y.u.qX3Xe.q.y.y.u.v.u.0.w.y.9.u.y.y.y.0.w.w.w.0.0.0.y.0.t.0.q.0.o.x f x m j h k j f j j v x f r j b M x z x b b b x v ! | x z z g g I =.X.( { { #.! S x F v m x v v x f r e f f f f f f f f f f f f f f h f f f t f f r f f 9 7 9 9 r 9 r 9 9 7 9 9 9 9 r 7 6 4 7 8 8 6 7 7 9 7 8 7 7 8 7 7 7 9 r 7 7 9 9 9 8 7 9 7 9 9 9 7 4 6 8 6 7 4 4 4 4 4 6 4 4 < < 4 4 < 4 4 4 > 4 > > > = > 4 > > > 4 > > = > = = = = & > > = * * = = * = = = * = * = & = & & & = & = = & & = & & & = = = & & # = 6 f 9 9 7 6 4 9 7 9 7 9 7 6 > > 8 9 7 5 $ $ q ",
"= & = $ & & & = & & 4 = & & & & * = & $ & & & * & = = = = = = = = = < = = = = = ; < < ; < < 4 < < < 4 4 4 < = = > > > = > = > > 4 > > 2 4 4 7 7 4 2 4 4 4 4 4 4 6 4 4 4 7 4 6 7 6 7 7 7 8 7 8 7 7 9 8 7 9 9 9 7 9 7 9 9 9 9 9 9 9 9 9 9 9 9 9 r r 9 r 9 r r t f p r r r f r p p r r f r p r f r f f r h f p f f f f f f f f f f f f f g g j g f g f h j j h g g g g g g z x j g j j j z z j x x z x x g x x x x x x x j g j b x z r r g x r Q | k Y A.S.d.S.H.d.S.S.S.H.H.H.K.H.d.H.d.9.H.K.d.d.S.d.d.S.K.S.S.S.C.K.K.d.H.S.H.H.K.H.S.S.K.S.H.H.H.f.H.d.K.S.H.H.d.K.L.H.L.H.K.H.L.H.H.J.#X$X$X@X>X>X>X$XQ.Q.+XQ.W.@X@XW.$XQ.$XQ.eXe.= * , * = = = = = = = = = & = = = > = > > > > > > = > > > > = > = 4 v 6 & = = * = 2 4 > * * > * , > 4 7 > * > = = 5 ; C wX;X:X,X,XnXnXnXnXbXbXaXaXgXgXaXaX,XvX,X,X,XaXgXaX,X:X&X:X,X,X,X8X,XvX:X8XwX^ - < = * = & % & & = & & # & & = & & = = & = & = = = & & = = & & * * & * * = & = = # . = $ C 9.2XPXK.- * > * * = = = = > * 2 > > 4 < > > > 4 & 7 v.D.u.n.u.q.w.x.w.x.y.w.w.v.i.4X^.e.u.y.q.u.y.0.0.y.q.A.i.D.0.q.y.0.y.0.0.q.q.q.t.t.q.q.q.y.~ l U | Q Y ] Q h h r m _ ~ | I g v z v z v x x v x F N j g g z f a F W ! T b b j f f h f j p f r f a a f g h f f f f f r f f f f f h f f f r f r p p r f m N 9 9 r 9 9 9 9 9 7 9 r 9 9 8 8 7 8 7 8 8 8 7 7 9 7 7 8 7 r 4 4 9 9 r 9 9 9 7 8 7 4 8 9 7 9 9 9 7 8 4 4 6 6 4 7 4 4 4 < 4 4 4 < 4 4 > 4 > > 4 > = 4 > > > > > > < > > = = < > = = = = * & = = = & = & = = = = % & & & & # & & = & & & = = * & * & & # & # & > 4 7 7 7 9 4 4 9 r 7 7 9 9 > > > 4 7 < ; $ ; ",
"& = = & = $ = = = = < = * & = & = = & = = & = & = = = = = = = = = = < = = = = = < < < < < < 4 < 4 4 4 4 4 < < < < > > > > > > > > > 2 2 4 4 4 4 4 4 7 4 7 6 6 6 7 7 7 7 7 7 6 7 7 7 8 7 9 9 9 7 8 8 9 8 9 9 9 9 9 9 9 9 r 9 9 9 9 9 9 9 r 9 9 9 r r r r r r f p f f r p f f p f p f f f r f f r f f f f f f h f h h h f f f f f h h h h j j j j g g x j g j g j g j j g j g j j g j x x x x x x x x x x x x x x v x x v x c S M x E Q k j g Q t.9.V.S.d.d.d.S.d.H.H.H.K.H.P.L.d.d.I.s.9.L.L.H.H.P.H.H.K.L.H.C.K.I.H.H.K.K.d.d.f.f.H.H.H.K.H.H.H.H.H.K.K.L.H.^.L.L.L.L.L.#XL.+XL.J.H.L.+X+XQ.Q.$XeXeX>XQ.;X@X@XQ.Q.@X@X@X$X$X;X@XeXO.. * * & % = = = = = = = = = = = = = > > 2 > > > = > > > > > > > > & & = = = > = 2 > > * * , > > 2 * > > > > 4 < ; 6 $ ^ 8X*X,XaXbX8XnXbXvXbXnXbXnXbXaXgXgXaXgXaXgXaXbXgXgXVXDX,X:XaXnX,X,XaXbX,XvX,XKX7.- > > , & & % & = # = & & & & & = = = = = = # # = * > = > * > = > = * & = $ # . 5 B O.9.rXtX7X@XwXB = > , , > = = = > 4 4 < < = > * * * = = # Y G.D.D.v.u.v.m.v.n.A.n.V.D.i.H.f.a.s.m.y.u.w.w.y.v.G.}.P.A.q.q.q.0.q.q.q.u.q.u.t.u.u.t.i.p.u.:.u.D.u.q.p.y._ ~ Q  .:.b._.U g x v b x v x v v h h r j x z z g z z z f g g g g j x x g j j z j g f g f f f g g g f f h f h f f h h r f h h h f f f f r U Q 9 r r 9 9 9 r 9 9 9 9 9 r 8 8 8 9 8 8 9 9 7 8 8 8 7 9 7 9 7 9 7 9 7 9 9 r 9 9 7 9 9 9 r 9 7 7 9 8 6 6 6 7 7 7 7 7 4 4 4 4 4 4 4 4 < > 4 4 4 4 < 4 < > < 4 = = = * * * = > = = = * * > = > & * < = & & & & * = * = 4 7 * & = = > = & = = & & * & & # & & & $ < 4 7 9 r 9 7 4 7 9 7 7 4 7 6 = = O ; : $ ; ",
"& & = = $ = = $ = = & = = & & & & & = $ & = = = = & = = = = = = = = = ; = = = > < < < < < < < 4 4 < < < ; ; 4 < < < < > > = > > > 4 2 > 2 4 4 4 4 4 4 7 6 7 7 4 4 7 7 8 7 6 7 7 7 7 8 7 7 9 9 8 8 8 9 8 8 7 9 9 9 9 9 9 9 9 r 9 9 9 9 r r 9 9 9 r r r r r t f f f r p r p f f p f f f f f r f f r f f p h f f f f f f f f f h f h h h f g j j j g g j j g h j g j h j j g j j g z g j x x z z x x z x x x x v x x v b c x x N M g +.m.Q F | p.V.S.V.S.K.K.L.(.I.H.d.K.K.K.H.K.K.L.1Xe.d.K.a.L.K.H.K.I.H.H.H.(.#XK.S.S.H.K.#X$XPXeXa.H.H.S.K.K.H.K.H.H.K.H.W.#X#XL.H.L.W.L.#XQ.Q.$XW.+X%X@XL.Q.W.@X>X$XW.@X@XQ.W.@XQ.!.@X@X;X$X@XeX7.o , * % = & = = = = = = = = = = > = = = = = > * > = > > > > 2 = = = = * > * * = = * * * > , = > > = = * 2 > > ; ; & q f.;X&X,X:XeX:X,XaXnXvXbXvXbXaXgXaXaXaXaXaXgXgXbXaXgXFXFXmXnXbXbXvXnX,XaXaXbX&XeXIXi * , % & % = % # # & = & # & & = $ = = $ $ - - $ . # . # o & O $ - 5 ; 5 i B Y d.4XQ.:X7X@X&X@XtX7.$ * , > = & = > 4 < < 4 = = > < 4 > * = o h P.A.A.F.F.p.n.].3XI.#XI.s.I.4Xa.K.d.i.p.t.y.v.q.n.].d.(.i.t.q.0.u.0.q.y.t.t.t.u.i.t.p.p.i.u.u.p.p.s.A.9.9.q.b.w. .Q &.~ x b N x x b z z v f I OX| g x z j z z z z z j z v z j h h j j j j g g g g f f f g h f g g f h g j f f h h f h h g h h f f f r 9 9 r 9 9 9 9 9 9 9 7 7 9 9 e r 7 7 8 8 4 7 7 7 7 9 7 4 9 r 6 7 9 7 7 7 9 9 9 7 9 9 7 r 9 r 7 9 7 7 7 7 4 7 7 4 7 4 4 4 4 4 4 4 < < < 4 < 4 4 = < 1 > 4 > > = > = > * = > * > > & = * = > = = = < = & k N 5 & > = = 7 r > & $ & < < = & * * * * # & & # & $ $ $ = 9 7 7 9 9 1 4 9 9 1 7 1 6 > = # # # : 5 ",
"= = = = = & = = = & = = = & & = = & = & = = = = = = = = = = = < > > > > ; = < < < = < < < < 4 < < = = = < < 4 < 4 < < < > > 1 > 4 > 4 4 4 4 4 4 7 4 7 7 7 6 4 7 7 4 7 6 7 7 7 7 8 8 8 7 8 7 8 9 9 8 r 9 8 8 9 r 9 9 r 9 9 r r r 9 r r r r 9 r r r r f f f r r f f f f p f f f f f f f f f r f f f r f f j f h j f f h h h h h h j f h j j g j j j j g g j j x j j j g j j j j j x j j x x x x x j x x x b x x x b b M M b g M F v g l m y.U.F.q.u.Y.u.i.A.9. .9.P.H.K.H.K.K.K.d.d.d.f.K.L.f.H.f.d.d.H.H.I.W.L.J.d.d.K.K.H.wX7XIXPXa.H.H.K.L.L.I.^.J.H.L.I.L.L.J.L.W.#XL.#XQ.$X,XeX;X$XQ.Q.Q.@XW.@X@X@X@X$X@X@X>X>X@X@X@X;X;X$X;X8XK.q * , * = = > = = = = = > = = = = > > = = > > > > > > > > > = > > > 4 2 2 = > = * = , , > > > > > 4 4 2 4 4 4 < 5 : 7.8X:X:XbXbXbX,X:XaXnXbXnXNXnXbXnXaXaXgXgXgXbXgXgXaXgXDXDXDXVXbXBXbX,X,XnX,X,XbX,XtXl & , * = & = # % * = $ = & = $ = & = = $ 7.6XW.d.' ^ C ^ ^ Y ' e.f.s.^ 7.d.^.#X%X@Xg.&X;XQ.eX!.>XrXB = 2 > = & = 4 4 < < < < < 4 4 4 < 2 = , 4 p.I.P.P.H.H.P.1XI.d.^.1XS.I.JX9XL.H.H.s.i.u.u.p.A.A.S.S.V.A.p.y.u.t.u.u.t.p.p.u.p.p.p.n.n.n.A.V.n.p.q.q.n.9.v.:.Q F N v b b S b b v v v b j E 1.I v b x c x x x v z z z j z x j g j j g g j j f f g g g g f g p f f j g h f f h j h h r t f f r h f f p r 9 p 9 9 9 9 9 r 9 r r r r r 9 9 7 4 v q 4 9 7 9 7 7 j j 7 7 9 9 7 9 9 8 9 r 9 r r r r 9 r 9 7 9 8 7 7 7 4 7 4 4 7 7 4 4 6 4 4 < 4 4 > > > > > 4 4 4 > > > 4 > < < < = > > = = = * % & > = > > 4 = t B h 1 4 > > 4 r 9 = = = 7 9 > & * = = = & * & & # & & & * 7 9 r 9 7 6 7 7 6 6 9 6 7 9 6 $ # = 5 t ",
"* = = & & $ & = = & $ $ & & & $ & = = = $ & & = ; = = = = = = = > = > = = < < < < < = ; 4 < < < ; ; ; ; 4 4 < 4 < < > = > > > > > < 4 4 4 4 4 4 4 7 7 4 6 6 7 7 7 7 6 4 7 7 7 8 8 8 7 6 7 7 9 8 8 9 9 9 9 8 9 r 9 9 r 9 7 r r 9 r r t t r r r r r f t f f r r f f f p f f f f f f f h p p r f f h h f f f h j h g f h h h h f j j f g g j j g j j g j g j j g x j g j z x g g j x x j j x x z z x z x x x b x x v b v M M b S F G N S x  .+.U g v U x l N g r l s.K.H.Z.H.H.H.d.d.d.L.H.f.H.a.d.f.H.L.f.a.L.J.H.I.H.f.H.L.L.f.f.f.f.H.L.L.J.L.L.L.W.+XJ.J.#XW.J.W.W.#XW.Q.W.@X,X;X@X@XW.@XW.Q.$X;XQ.;X@XQ.;X,X&X:X:X;XQ.@X@X>X&X;X$Xl o , * & = > = = * > = = = = = > = > > > = > > > 4 > > > * > > > * > = * 4 > = = * , , * > > > > * = 2 = > 4 < $ C eX!.:X,X,XnXeX&X:X,X,XnXNX#X>XbX,XgXbXaXbXgXaX,XvXaX,XvXFXBXvX&X,XeX>XbX,X,XbX;X:XeXC & 2 * % & % * * # . . & * * & & & = & : d.$Xg.;X>XeX7XNXeX>XQ.;XbXW.8.+Xf.f.g.;XQ.<X@X>X$X$X>XQ.wXC . 2 * & & = = = < = = = < < = > > = * , # B ].P.S.P.H.P.P.A.S.I.rXK.i.K.L.d.H.L.d.S.s.i.G.F.s.P.S.F.A.V.p.p.u.u.p.i.i.n.q.0.p.p.i.A.v.0.F.oXm.m.0.y.F.D.~ A S b n A b b b b x x b b b z r z x x x v j x x z z v z x x j j j h g g j g g j g g g f g f f f g f f g h t h t h j g f h r f t f f f p p 9 r r 9 9 r 9 9 9 r f r e 8 8 9 e & | Q = e 7 7 8 9 h 9 7 9 7 9 7 7 9 9 7 7 7 9 p 9 7 9 7 9 7 7 7 7 8 7 7 4 4 4 4 7 4 4 4 4 4 4 > > < 4 > 2 * > 4 < > < = > < > = > = = * = = * & 9 7 & = > = < < = 4 f r 1 > 4 > r r & = = 9 r 4 > & * = & = * & & & & $ # & = 7 9 4 1 > 7 7 4 1 4 7 9 4 4 = ; ; $ 5 ",
"= & & # $ & = & = & & & & = = & = & # = = & = & ; = = = = < < = > < = > < < 4 < < = ; = ; ; 4 4 4 ; 4 4 4 4 4 4 4 < > = 4 > 4 < 4 4 4 4 4 6 7 6 7 7 7 7 6 7 8 7 9 8 7 8 7 6 9 7 9 9 8 7 8 9 r 9 8 9 r r r 9 r 9 r 9 r r 9 r r 9 r r f t r r f r p f f f f f f f h f f p f f f f f h h p f f f 9 7 9 h f g j j j j j g h j j j j j j j j x j x j j x j x x j x x x x j f g j x j x x x z x x x x x x v x v v M b M M N v N N F v N F G x g f j j a z m N S N F m i.L.f.L.L.H.L.L.L.J.L.J.H.J.f.f.H.L.L.H.J.L.L.L.#XL.L.J.W.L.#XL.J.L.L.L.W.W.#XW.Q.W.W.L.+XQ.W.@X$XQ.+X$X+X@X;X;XQ.W.@X@X$XQ.Q.@X@X&X:X&X&X@X;X;X;X@XQ.&X;X;X>X;X;XyX' # , * = = 4 > = = = = = = > > > > = < = = 4 > > > > 2 > > > > 4 , > > = * * 2 > = > , > = * > 2 = 2 > 4 > 6 4 l L.,X:X,X&X;X;X:X&X,XbXbXnX%Xe.$XbX,X:X,X;X,X,XvXvXvXaXvXvXnXvXvX&X7Xa.f.BX,X,XbX,X&XPX9.$ 2 = * * % * = . l l . & & & & $ = & 5 d.@Xg.g.f.g.g.@Xg.@Xg.g.&Xf.f.;Xg.f.@X>X:X,X;X,X>XeX;Xf.$Xf.q = > = = = = > > < = 4 > 4 = 2 * * = 2 * & 9.I.I./.P.I.H.S.(.qX4X(.S.H.d.d.d.H.K.L.H.S.S.K.P.S.S.P.A.C.K.S.s.A.s.s.A.u._ Q q.A.V.D. .E v.u._ b.~ ) B.m.R A G H b b b b S S b b N N v b b b x x b v v x x x x x x b x x j x j j j x g x z z f g x x z f g j h j h j h h f k j h h j f j k h r f r p r f r r 9 p 9 r p r r e e r 9 9 9 7 f F 4 r 9 r 9 9 r 7 7 9 9 9 9 7 r r 9 9 9 9 r r 9 p 9 f 9 9 7 7 7 9 8 7 7 7 4 7 7 7 4 4 4 4 4 4 > 4 < 4 > > > < < 4 > > < > * = > < = = = = & k N 6 > > = < > 4 7 t f r 6 4 4 r f 4 = 4 r t 9 4 * * = = = = & = = = $ & $ & = > > 4 < 4 4 7 4 9 = < & = < f : - $ ",
"& & & & = & $ = & $ & $ & & & = $ ; q # = & & = = = = = = = < < < > < > > 4 < < < > < ; = < 6 4 ; ; < 4 < < 4 4 4 > > > > 4 4 1 4 4 4 4 4 4 4 4 4 7 7 7 7 7 6 7 7 7 7 7 7 7 7 9 7 7 8 8 9 9 9 9 8 9 9 9 r r 9 r 9 9 t r 9 r 9 r 9 9 9 r r r p f f t f f h f f f g f f p f h f f h f f f r h 6 U GXO.r g h f h j j j g j f j j g j j j g j x x j x j x x j x x j j j g G x g x x x j x x x x x x c N M M M c M M v M M v M x M v N b M M N x S M x ~ U v R R F Q S.f.H.H.L.L.J.L.L.H.H.H.J.a.f.f.L.J.L.W.W.J.W.W.L.W.W.@XQ.W.$XW.W.L.L.J.L.Q.+X+XW.W.+XW.W.Q.;XQ.Q.;X>X@X$XW.&X&XQ.Q.;X@XQ.Q.$X>X;X@X@X!.&Xg.Q.;X&XQ.&X@X;X$X$X>X!.eX7.. , * * 2 > > * = > = > = = > < = = = = = > > * * > > > > * = 2 6 > & = * , * = = * > = = > > * * * * = 2 * 1 e.;X&XaXaX,XbX,XbX>X@X,X,XbX>X$XyXeX,X;X:X:X,X:XvXaXaXaXvXaX,X,X:X<XNX7.a.DXbX,X:X&X;XvXe.O > = * # & % &   9.O.  & * # & & & & q d.Q.g.!.g.@X@X!.g.!.g.&X:X&X:X;X:X=Xg.&X,X;X;X&X,XeXW.a.,XIX7.. > = & & = = * 2 = = = < = * * = * * , $ q P.I.K.(.#XI.I.(.1X4X#X#X1XK.K.d.d.d.K.d.K.S.K.S.K.A.A.A.A.C.S.S.A.i.s.D.:.~ +.D.s.G.y.I I E _ O.~ I F I F S G S A S S b x N N N N x n n b v v v v c x x x g j x x x x x x j x j j j j j z z z g z x x z z f g j j g h h x g h h j h f h l x f r f r r p r r r 9 9 r e r r 7 r 7 r 9 7 9 e 4 g 7 7 7 9 8 9 7 r 9 7 7 9 7 7 9 r f f r h r 8 7 p 9 r f 9 7 7 7 7 7 9 6 7 6 6 4 4 4 4 > 1 > 4 > > 4 > > 2 > > > > > < = * = > = = > = = = * & < r 9 7 > * > > 1 f r r e 9 4 6 f 7 > 9 7 9 9 6 > * % & & * % & = = = $ # $ & & = < < & 4 9 4 < > # # 4 7 4 4 $ ; ",
"= = = = ; = = = = & = & & & & < . h | . = = = = = = = = < = < > = < 4 < 4 > < < < < < < 4 4 4 4 = < 4 4 4 4 4 < 4 4 < < 4 4 6 4 4 4 4 4 7 4 4 4 7 7 7 7 8 7 7 6 6 7 9 7 9 9 7 7 7 7 r r r 9 9 9 9 9 9 9 r r r r 9 9 r t r r r 9 r 9 p f f p p f f p f f h f h h h f f h h h h h j g g j f h > U.UXXX7 j j f j j j h j W M f x j j x x j j j x x x x x x x j j j x j k ~ v h x x x x x x x x x x M x M M M M M M M b N N N b v M N N N M M N N M E 1.P c U U k O.I.f.H.H.L.L.H.L.L.L.L.J.J.f.f.f.+XJ.W.#XW.W.W.W.Q.W.@XW.+XW.W.W.W.J.L.+X+XW.Q.W.Q.Q.$X@X@XW.$X;X>X;X;XQ.+X@X,X,X&X@X:X;X;X;X;X$XQ.;X:X!.@X&X;X;X;X;X:X&X;X&X;X:X&XbXd.: , , > * > * = > > = = > = > > = 4 = < < 2 > = = > * 2 > 2 2 > = = 2 4 = 2 = , = > = , = 2 > > 2 = = 6 = 5 O.4X:XbX,XeXnXnXnXBXbXeX,X,XvXeXeX7X>XbXbXnXbXbXvXbXvXaXbXbXaX,X,XbX,XbX@XQ.bXf.f.bX,X:XvX$X5 > & * # & * = . 9.9.. = & * & & = & i H.$X@X:X@Xg.g.@X&X<X,X:X&X&X<X,X<X<X&X:X:X,X:X>X>X,X@XQ.=X;XKXB = 4 = 2 = 4 > > = < ; = 2 > > > * = > > $ ^ 3XI.(.#X(.#X(.1XL.I.^.#XL.K.S.S.S.K.K.K.K.S.K.K.S.S.S.P.A.S.K.d.s.A.F.o.] r.F.A.G.@.U E F D.XXP I U D F S G F S S N N N N N b b b b b n x b b b v M b z g z v b x v x x x x k k k j x x j z x x g g g x j j x j h k k x k j j j h j f j h f f f p f 7 r r 9 r r r r 9 r 9 r e r 9 9 9 r 8 x 7 8 r 7 9 r 9 9 9 9 9 9 7 9 9 p f j h h p 9 9 p f j r 9 7 8 7 9 9 9 7 7 7 7 4 4 4 4 7 h 9 > 2 4 4 6 > > > 4 = 2 = > > = > > = > < < = < = * = > r r 7 4 * > > 7 r f r f 7 7 9 9 7 r 9 9 7 7 7 > = = & = = * & > < = # $ $ & 4 7 = = = 6 4 4 = & & 4 9 9 ; $ 5 ",
"= & * = = ; ; = = & & & & & & = & $ ; $ = & & = = = = = = = = = > = > > = > > = < 4 4 4 4 4 < = 4 < ; < 4 4 < 4 4 < 4 < < > 4 4 4 4 4 4 4 4 4 4 7 6 7 7 7 7 8 7 7 6 7 9 9 9 7 7 8 9 9 r 9 9 9 9 r 9 9 9 9 r r r 9 9 r t r r r 9 r r f r r r f f f f f f f h j f f h j j j g j g g j j a f S f B @.B f j g g g f j g x U m g j j j z j j j j j j x x j x j j x j x x j h g x x g x x x x v x v x x x x x M M M b M b M N N N N M M N N x M M M M F E M b  .+.O. X1XL.I.K.H.f.L.f.H.L.L.H.H.L.I.L.f.L.W.L.W.W.J.W.Q.W.W.J.W.W.+XW.W.W.W.Q.Q.Q.Q.W.@XQ.W.@X@Xg.W.,X>XQ.Q.Q.Q.&XaXaX&X&X&X&X;X;X$Xa.a.;X@X>X$XL.$X;X@X;X&X;X;X>X>X@X@X:XL.q # , , = > * = > > > 2 * = * < = = > 2 = = * = = > * > 2 2 = = & = * > = * 2 2 = * = = = * > > & < = # 5 9.4X$X&X,X8XbX,X8XbXbXnXbX,XvX,X8XeXg.Q.nXbXvX,XbXbX,X,XvXvXvX,XvX:X:X,X,XbXeX,Xf.Q.,X:X&X,X7Xq # * * % # * * . e.P.$ # % & & & & & q J.$XQ.Q.f.g.g.;X:X,X,X,X:X,X:X,X:X:X*X&X@X:X:X:XQ.>X;XW.@X;XPXe.O , > 4 7 6 2 > & 6  .q * > , * * * & = = ; i.6XI.#XI.#XP.S.S.K.S.H.K.H.H.K.d.f.K.K.d.K.S.S.d.H.S.A.P.P.i.d.i.A.0.~ ! ] p.A.9.^ I J S @. .F J J H J F S S F N N N F M x x b b b x b b b x n b v b v v b x x x x x x x x j k h j h j j z j x x g g z j g j g h j k j j j h k g h h h f j f f f f 9 M.c.< r r e e 9 t f 9 r 9 9 r 7 e 6 f h 1 9 9 7 r 9 r 7 9 9 7 9 9 r r 9 r r r r f 9 e f h 9 7 7 9 7 7 9 7 4 7 9 > 4 4 1 > 9 v f > > > > 4 > * = > > * > < * > = > > > = = > & = > * > 4 e r 9 > > = , 7 f r r r 7 6 r 9 7 9 7 6 7 4 4 * & & = = = % > 4 = & & # & 9 r = $ $ & < < & < & $ 4 5 & = = ",
"= & = ; 4 = < < 4 = = & = * = = < = = = = * = = = = = = < < = > 4 = > > > > > > 4 4 4 4 < < 4 4 4 4 4 4 4 4 4 4 4 4 4 4 < > 4 1 4 4 4 4 6 7 7 6 7 7 7 6 7 7 9 9 9 7 8 7 9 9 8 7 9 9 9 8 9 9 r r r 9 9 9 r r r r 9 9 r r r r r r f f h f p p f f f f f f j h h f f h j j x x x j z z x z G F x f r h x j z z j j z x M v x x x j x j x j x j x j x x x x x x x x x x x x x x x x v x x x x v v x x v x x m M m N M M N M N N S N S S N N M M F N M v N m ~ O.O.Q Q Y 9.P.H.f.L.J.L.L.L.L.I.S.S.#XL.W.Q.W.W.Q.W.Q.Q.W.f.W.W.@X$XQ.@X@X@X@X@X@X$X+X@X@X@X;X>X@X;X8X>X@X$X$X>X,XaX,X:X:X&X&XbX,XeXW.f.>X>XeX9.C L.>X;X!.>X;X,X;X@X;X:X&XKXY # > = 2 > = = = 2 > 4 = * = 4 < < < $ = 4 > 2 & = 4 = % * 4 2 = 4 = * < 6 , , = * > > = = = = = = ; Q I.eX:X,X:XeX,XbX,X,X,X,X,X,XaXvX,XbXbXQ.8XnX,XgXbXvX,X,XaXbXaXbXaXvXaXbX,XvX,X,X,XbX,X,X:X,X:XMX^ $ * = * # * * o i.JXq # = & # & = % i W.>X;Xg.g.&XQ.;X&X,XaXbXvXbX,X<X:X,X:X:X&X;X@X&X&X:X@X>XQ.g.f.f.i > 3 > , 2 * 6 4 $ ^  .& 6 > > * * & = 4 & h i.1X#X1X1XL.S.d.K.H.K.K.H.L.L.H.K.L.L.K.K.H.d.S.{.O.~ 0.D.9.S.d./.:.~ } ! ~ q.i.t.U J J F N I J J F J F F S F F G F S M N b M b M b N b b b b b b x b M M x v v x x v x v x k k 5.P f x v z x x x z x j j j j j x j x k j j j j x h j h j h f f h f U +.9 r p r r 9 h v r r r r r e r 9 f j 4 r 9 9 e 9 r 9 r 9 r 9 9 p r r p 7 f r j p p j k p 8 7 r 6 7 r 7 4 r j 4 6 7 4 7 4 f r 6 > 4 , 4 > 4 4 > > = > < < > = = = < < < * > = = = 4 > e r r r 7 > < > 7 r f p e 9 r r e r 7 9 r 7 7 6 > > 7 4 4 < 4 7 4 = < = = < 4 & & & = $ = & & $ * $ ; ; - ; ",
"& & * & = = = = < < = & & = = & > = = & & & = = = = = = = ; 4 = > 4 < > < > 2 < < < < < > = 4 4 < 4 4 4 4 < 4 < < 4 < < 4 1 > 4 4 4 6 7 7 4 7 7 6 7 7 6 6 8 8 9 9 7 7 7 9 8 9 9 9 9 9 8 9 r r r 9 9 9 9 r 9 r 9 r r r r p r r p f g h f f r a h f p f f g j f f j f f j j x x x x x z x T S z b b z z j z x x z j v N M N b x g x j j j v x j x x x x j x j x v x x x x v x x x x x x x x x x x v x v v x M M M N N N N S N N S S M F N m N M N N M N m b m v l U l l q.P.K.H.H.L.J.H.H.].9.C s.#Xf.L.L.W.W.Q.Q.W.W.+XL.W.W.Q.$X$X$X@XQ.@X$X;XQ.Q.;X>X;X>X@X@X;XQ.Q.;X$X@X,X&X&X:X&X&X&X,X8XeX,X;X;X;X>Xa.d.7X&X@X@X@X&X:X&X;X;X:XQ.yXY O > 2 * > > = * = 4 = = 2 > * 4 ; : l 5 $ = 4 > > * = & 2 * > , * 4 6 = 4 > = * 2 * = = = & & = $ & (.NX;X;X<X,X,X,X:X;X&X:X,X;X,X:X:XvXbX,X,XbX,X,XaXaXaX:X,X,X,XvX,X,XbXbXbX,X,X:X,X:X,X:X:X:X,X&XbXd.$ , * # * # * # d.JXC . = % & # & & q J.Q.g.@Xg.g.@XbXbX,Xg.f.a.Q.,X,X,X:X!.&X@XQ.Q.;X@XQ.@X@XQ.@Xg.wXe.O , 2 % * , 6 > = ; b.m & 2 , * = = * * = o B 3X1X#X1X^.I.K.K.K.L.H.L.H.L.L.L.H.K.K.K.K.5XG.v.] R _ U._ q.H.S.@.W { E F  .D.@.F H J G G J F J G F F F S S F G N N b N b b b N b b N N b b b v v b x x v v x v v v x x x x x ~ N j x x x x z x x z z z g x k x x k k k j j j j h j h h h j f f 9 > 9 h f r e p 7 r N h e p r e r p r 7 j 7 9 r 9 7 r 9 9 9 f 9 9 f 9 r p 9 r r r f v x r x f f 7 7 8 9 6 e 4 7 x e 4 9 4 4 8 7 f r , > 4 2 , > f 4 > 4 * > < > = = = = < < > = * * > > 6 6 7 r p r 6 > * 2 r r e r e 9 e r 7 r 9 9 r r 4 7 4 4 7 9 4 4 4 6 > * = $ $ & $ = # $ & & 5 t ; $ o $ & # ; ",
"= % $ & & & < < = = = & = & 1 > > * * & * * * = > = > & = = < < 4 > 4 > > < < < < 4 4 < 4 4 4 < 4 4 4 4 4 < < 4 4 4 4 4 7 4 4 4 4 4 7 7 7 7 7 7 8 7 7 8 7 7 9 9 9 7 9 9 9 7 9 9 9 9 9 9 9 r r r r r 9 9 r 9 9 r r 9 9 9 f r f f f f f h h p f j f f j h h h h j x j j j x j x x x x x g x x x x x j x z v x v x x x M N G N S x x x j x S M x x x x v x x v v x v x x x M x x M b x v v b x b M m M M M M N S N S S S F F S F F G F F F G N F S S N G N N N I F b _ +.| 9.d.I.f.L.J.L.H./.' I ' #XJ.L.W.W.W.W.W.W.@X@XQ.$XQ.+X$X$XQ.@X;X;X@X@X;X:X@X;X@XQ.Q.Q.W.Q.@X;X!.@XQ.!.&X:X&X:XQ.f.g.$X;X:X;X;X$X7X7X;X&X:X@XW.Q.;X:X;X@X;X;XtXB % 2 2 > 4 > = = 2 = 2 = 2 2 > 2 = X p.i.B q : O = O ; $ ; % 7 < = = - # & * 2 = 2 = = = > = = = = o d.bX,X:X&X@X@X;X,X:X,X;X:X,XbX:X:XbX,X:X,X,X,XaXgX,X,XvXgX,X,XaXbX,X,X:X:X:X,X:X,X,X:X:X:X,X,X:XbX9.O > * # & % * = S.JX9.. * * = * = # i Q.@Xg.!.g.!.;XJ.f.MXBXbX@Xg.a.@X@X&X&X@X@X&X@X&X@X@X:X&X@X,X>X<XyXC & 2 > 2 2 2 2 8 % Q y.= 2 , = = * * * 2 # k 5X4X1X#X#X1X(.I.^.#XL.L.L.L.L.L.H.L.P.P.i.t.+._ E ) o.c.~ +.}.u.E T R T J I Q I G J J G G J J J J F G G F F F N N N N N M v M M N N N N b b x v b M v v v v x b M M x x v v v f j v b b x v x b v x x x j x j x x j j x j x j j x x g j j x f f r r h g h f r f r p v M p p r r e r p 7 j r 7 r 9 9 r r 9 e 9 r r f r r r h k r 8 r N F x x x b r r r 7 e p 4 e v e 3 6 4 8 6 a g a 3 4 4 > , 7 f 4 > > > 4 > = > > = > > 4 4 4 4 6 > 1 4 7 7 a r f r 7 7 e p p r f r r r e e e 7 9 9 7 9 9 4 7 7 8 7 7 6 8 > * # # & = & = & & & = h m 4 $ $ $ # # = ",
"& # * & & & = = = & = & & & = > * > > = * * * * > > & 6 U < = < < = > > 4 > > < 4 4 4 > 4 4 < 4 < > 4 4 4 > 4 4 4 4 4 4 4 7 4 > 4 6 4 7 7 8 6 6 8 7 8 8 7 7 7 9 8 9 9 9 9 9 9 9 9 9 9 9 r 9 r r r 9 9 9 9 9 9 9 r 9 p r r f t f f f f p f p j j j f f h f f j g j x x j x x x x x x x f g g x z x x g x x v x x v x v b N G F N x x x x N v g v M x v v x x v x v x x x x x v x M M b x b M M M M M M v N M N F N N F S F F S G I G J S S G G N F F M N G M P m Q :.Y P U Y P.I.f.H.K.K.t.Q  .^ 4Xf.L.f.W.W.W.W.Q.W.Q.@XQ.+X$XW.$X@X@X@X;X;X;X@XQ.;X@XQ.$X@X$XQ.&X!.!.&X;XW.Q.&X!.&X;X@Xg.Q.;X@X;X&X&XQ.@X@X&X@X@X@XQ.;X:X@X;X;X!.;X#X5 % > * 2 > > = = = > < = = * > 4 . C 6X4X4XK.9.^ ^ i X X 5 - 5 : i y B ^ ^ $ * = * = = = = > * = * - I.8X&X:X@X&X<X:X,XbXvX&X&X&X:X,X,X:X,X:X,X:XvX*XaX,XaX,XvX,X,XvXbX,X&X&X,X:X;X:X:X:X,X:X,X:X;X:XbX#X5 * * * # * % & S.4Xi.. * * * = = # B PX,X;X;X!.@XJ.' ^ 7XPXPXAXBXnXbX&X=X@XQ.Q.@XQ.Q.&X:X!.:X>XeX@XQ.;XL.5 = 2 2 % , 2 6 3 = n.Q # 2 * * % * % & % l }.#X#X2X#X#X#X#XL.L.+XW.L.W.L.L.L.^.s.p.0.I E ;.) E ~ E E E v.0.U ~ I T H G F G G I F J F F G J F G F F G G N N b N F S M X.1.b N N b b N N v b v b b v x M M M v M v m x M m b x b z x b x b b x N b z x x x x x g j x j j x x N v g g g x x x e 8 f f e z r r f r r x j e r r e 9 f 9 f r 9 9 7 r 7 r 9 7 9 r r r f f 7 j m p r r b F N v z b x a 4 r 4 e e 7 h f 7 6 4 e , a g r 7 > 1 6 , 7 f > 4 > * < > 4 * > = = = < 7 7 4 < = < > 8 7 e a e r p r f e r r r t r r 7 7 e 9 6 4 7 4 7 7 7 4 4 4 7 4 4 4 > % & # & & & & = & & ; ; & # $ = $ & $ ",
"& # = = ; & = = & & = = = & = * = > > > > * > > = 6 4 9 m 4 4 < < = = > 4 < 4 4 4 4 4 4 4 4 4 4 4 4 4 < < 4 6 4 4 4 4 < 4 7 4 4 4 6 7 7 7 7 6 8 7 8 9 7 9 9 9 9 9 9 9 9 9 9 9 r r 9 p r r r r r r r r 9 9 9 r r 9 r p r p f f f f f f f j h g k g f f f j g x z x x x x z x x x x x x g j x v x M v g g x v b x x v M x N F F J N x v x m v x v v x x x x l N N N x M M M N M x v M b M S N S N M N N S M F P v G I T F I I J G F F I F F F F I I I I N N N I @.`._ t E W v Q V.L.d.d.K.0.Q :.^ tXL.L.L.L.#X$X+X#XQ.@X$X+XQ.Q.$X@X;X;XQ.@X@X;X@X&X&XQ.@X;X$X@X;X:X&X&X>X:X@X@X@X;X&X&X;X;X:X>X&X;X;X&X&X&X&X:X@X@X&X;X&X:X&X:X&X@XeXH.: 3 , > 2 > > 2 = = > = & 2 > 2 = 5 /.9X@X>X>XwX9XrX#Xf.d.H.d.d.s.I.I.W.wX].$ & = = = = = = = = = # l NX,X,X,X,XvXvX,XvXbXvX*X:X!.&X&X&X<XvX:XvX,X,X,X,XbXbX,XvX,XbXbX,X&X&X,X<X:X:X,X,X:X:X:X,X:X,X,X:XNXi % = * # * % 5 ].$X^.9 * * * = = # q Q.;X@XQ.f.a.e.e.d.L.a.W.nXnXnXmXbX,X=X:X@X=X@X@X!.&X:X<XMXa.8.>X:XMX' = 2 2 > 6 2 3 6 % ' '.h = , = = = & = % B 6X%X$X%X$X#X+X$XW.W.W.W.Q.W.W.#X#X#Xs.n.U.o.) ] ! E R E ~ E  .@.~ ] ! W J U U U J I I I J G G I I U I I I I F F N N N S m ~ ) v N S N N N N N N M b N m M M M N M N N N M N N x x M x b b b b b b N b z z x x v x x x x x x x x v x g x x x x v g p r b f M g a f f e j b r r p r r f p 9 r 7 f 7 r 9 f 9 9 9 f r p r p r N v 9 p j x F M b N v v g a j r f f f g z r f 7 7 e r f a 6 4 4 4 > 9 g 7 > 4 > 4 < 4 < 4 = = * > 4 9 4 % # 4 4 8 8 e r r e a r r r r 9 e e r e 9 7 r 9 7 4 8 1 7 6 4 4 8 4 7 4 4 4 7 4 4 & & & = & & & = $ $ $ & $ $ = : 4 ",
"& $ & & $ $ $ $ & & & = * # = & * * > > * * , = 6 < 4 = & < 4 = = = 4 > > > 4 > < 4 4 4 > < 4 > 1 4 4 > < 4 4 4 < < 4 4 4 4 4 4 6 4 6 7 6 6 7 6 7 p f 9 7 9 9 7 9 9 9 9 9 9 r r r r r e r e r r r r e 9 9 9 r r f 9 r r 9 9 f t f r p f j f v E h M h f f g g x x j x g x z x x x x x x x x z M M x g g x x b x x x M M x b J F F x x x v x x v m F G S I R ! ! U S N m I U I F G N N N F N b b N N N J b c.B.g R ! W E F J I S I F J F N M F I I S N m x M m B Y U I U T F N B n.P.S.G.Q I  .O.9XO.9./.H.p.u.H.#XW.@XW.Q.>X>XW.f.W.Q.;X,XQ.$X@XQ.Q.$XQ.Q.$X$X@X;X&X&X&X;XQ.W.&X&X!.&X&X:X&X&X;X;X&X&X&X&X&X&X&X&X&X&X&X&X&X&X;X!.7Xs.$ > > , , > > > = > & = 2 * = 7 o C 6X@X;X;XQ.;X;X@X;X,X,X8X;X8X7X8X>X;X:XI.- * & & = * * = & & 2 . Y NX*X:X:XbX,X,X,XbX,X:X:XvXaX,X&X:X:X,X,X,X,X:XeX;Xa.$XbXbX,X,X,X&X&X<X,X:X:X,X&X:X:X:X:X;X;X,X;X&XMXi o = # * % o i 5Xf.4Xl o * * % * * - a.,X!.;XQ.W.f.L.7X>Xg.g.,XnXvXbXnX&Xg.,X,X&X=X@XQ.;X:X,XeXg.Q.<X!.!.#Xi & 3 2 6 > * 6 # C JX9.; & = & * = = # l 2XQ.>X+XQ.$X@XQ.Q.Q.W.W.g.@XW.W.W.#X/. .U Q E R ! ~ E ] ! ! _  .Q Q | ~ U T I U J I I I I I F F I U E E G I S F N M U ! m m M N N N N S M N N N M S v N m v j x N N M N N v U X.F g b x b N v x b M x z z x x v x x x x x x x x j x z b x v x v x f e G G x N r r r r e x x e r r 9 f r 7 j 6 r 7 9 t 9 9 9 7 r r p 9 9 r G v 7 r v x x x b x b z b g x G M r g r f j g e 7 e e f r e 9 > > 4 4 f 9 , 4 < = > 7 7 = = * & 4 < 7 7 = . = 7 7 8 7 7 p r e r r r e r r 7 9 9 r 7 7 r 9 1 4 4 > 4 6 4 7 4 > 1 7 > 4 4 < 4 < & & # $ $ $ $ & $ & $ $ & & ; ",
"& $ & # # # # $ & $ & & & & = > > * > > * , , 2 8 4 = & > < 4 = = = 4 < 4 < > 4 4 < 4 4 4 > 4 4 4 < 4 4 4 < 6 4 4 4 6 6 6 4 6 6 7 6 7 7 7 7 8 7 7 j v k x h h 9 r 9 9 r 9 r p r t r r r r 9 r 9 r r 9 r p 9 7 7 f f p r 9 7 f f f r r k x f v B.~ Q m x x g j g j j g x v x x x v x x x v x b M m j h x M x M M M x M M v x F I U N c v M x v N ! E E ! ~ W T T ! E I I U E W W ! E W I G N S N S N G E T E ~ F W ~ ! U I U E I ~ ! I S G F U I E F F m M E F x N m I S S I G M U Q :.m.N R :.@.A.Q ) y.O.| ~  .P.W.+XQ.#X#Xf.f.d.@X>X#XL.K.S.d.Q.$X;X@X@X@X;X@X;X:X:X;X$XW.Q.&X&X&X&X&X:X&X&X&X&X&X&X&X:X&X&X:X:X&X:X&X:X&X&X=X&XeXs.= 2 6 > , 6 = = & = = = = = 4 5 q s.4X@X;X;X;X:X;X:X&X&X&X;X!.;X;X>X;X:X,X2X5 * = & = = & = & & = . e.BX&XvXbXbXvXbXbXvX,X,X,XvXvXvX,X,X:X,X,X-X,XbXMX7.Y 7.d.f.8X,X,X:X,XeX:X:X:X:X;X:X,X,X;X,X:X,X;X;XNXY O = * * & . l JX#XtX^ o , = * = * 5 ^.bX;X,X,XbXW.a.8X,X,XbX,XbXbXnXnX&Xg.@X&XQ.@X&X;X,X:X,X,XeX,X,X&X&XMX^ = 3 3 , , 3 6 * ^ rX6X' = 2 = = = = * B 4X@X>X$X@X>X@X!.%X#XW.$XQ.$X#X#X#X$X1Xu.~ ~ ~ | | X.| | ) X.o.~ W Q ~ ~ ! ! U I T U I I U U J I I U I U I U I U I N ;.B.Q U I G G S S G I F N G S m F G v F c.Q x F F S F N U l.I x v x b S b b N S x x x v x v v M x v v v x x v M x x v M b M b x f g j 7 S x a f f r f S f p p r r f 9 j e r 9 r f r 9 r 9 f f e 7 r v I N j x S v b v N c S N G S M x M g g f f f z f p 7 r r r r a 7 6 > 7 f e 4 4 > > < 9 9 4 = = * 4 4 9 7 9 & # = 7 r 8 e p p r r f e r r f r r r f 7 7 r 9 6 9 7 > < 7 7 4 > > 4 7 4 4 < 4 5 6 & # & & & & & & $ & $ $ $ . $ ",
"$ & & $ & $ $ $ # $ $ # * = = > > > , = , % * 8 j x p > 4 = = = = = < 6 4 4 4 4 4 4 4 > 4 4 4 4 4 > < < < 4 4 4 4 4 7 4 6 4 4 7 6 7 7 6 7 7 9 7 7 9 k v m m N v r 8 r 9 r 9 r h N M f r f h h r e 9 f 9 r r I Q f r t 7 9 7 9 f j f f f j f 7 Q B F N N N v x j g h j x x x x x x x v x x x M M x h v x v M M M v x M x M x v J I G M x m m N S U I W R E W T R W R I T E R W E E ~ ! E I N G F F I E E E I U W W E W R W U R Q ] | Q Q ) ~ ! ~ ! ~ ~ U I 5.X.M G G N N J N S I I M I | F W >._ | ] { o.o.%.o.| A.#Xa.a.^.9.9.f.7.>XK. ._ 0.>.O.d.;XQ.$X$XQ.$X;X;X&X:X&XQ.Q.@XQ.&X&X&X&X&X:X&X&X;X>X;X;X;X&X*X&X&X&X&X&X:X&X:X&X&XyX^ & > > 2 , > = ; ; = = = & = 6 $ Y 4XQ.;X@X;X:X&X;X;X;X:X&X;X;X;X;X>X8X;X:X2X5 # = = & = & & & & *   e.AX!.<XbX,X,XbX,X:X&XvX,X,X:X,X,X,X,X,X&X,X&XvX$X^ Q  .O.^ L.8X;X>X,X:X;X:X;X&X=X,X8.7.!.:X;X;X,XQ.MX9.. * * # * . m JXJ.4XO.. > % * = % ; e.;X:X&X&XbXa.a.bX:X:X,X,XaXaXgXbX:Xg.@X&X:X&X,X&X;X,X<X&X:X&X&X,X@X;Xe.& , > 3 % 2 3 # 9.1XJ.].h # , * & 2 % l 1X@Xf.Q.@X&X&XbX2XO.i.].S.P.4X4XW.+XL.5XD.o.) o.) | | _ ) | o.~ ~ ~ E ~ Q U U E U T I U I I I U I U J I I I ~ ~ E U o.M._ R W E S I N I W S m F m G N G m m B.| v F G F N N F o.N z N b b N M N b M x b x x b M x M M M x v x M x M v x b M M M x v j f r 7 x N g x f f e v M r r r e h r f f h 9 9 f r 7 7 r M x f 6 r F F M M M M b N x x N M F N G S t x x e r g r g g r e e r a e a a r 6 7 e r 7 > > 4 > 4 9 4 = > = > 7 7 6 r 8 # = 7 7 r 7 e r a e 7 e f e r p 7 7 r r 9 7 7 6 p 7 * < 7 7 4 & = = 4 7 4 & & 4 = & $ $ & # & $ $ & $ $ $ $ # # ",
"$ & & $ & $ = $ & & & & = * > > > > , , > , 6 e j j j f r > > = = = 4 4 7 4 6 4 4 6 4 4 4 4 = ; 4 4 4 > 4 6 4 4 4 7 7 6 7 6 7 4 7 7 7 7 7 7 9 7 9 9 f t j v I N j f r r p r r h I I j e r f j f r e p f h r m o.v 9 f 9 f 9 r f f t h f x g 7 < m b S M S S F v x x v x v v x x x M M v x v N v x g v M M M x x M m S N N M M F I E G b N F N G I E ~ E W I J I U R R E E E ! W W R T ! W T U I J W W T W ! ( W ~ W E W ~ ! ~ ! ~ ~ ~ ~ ] ) ~ ! ~ ~ ) ~ E Q ..I S N G S G F ! ! | W ~ ] ) X.*.| ....X.) ..*.X.) y.(.J.f.I.i.f.;Xf.#X0.! { ( { X.A.$XQ.$X#XH.Q.,X:X&X;X&X&X&X:X&X&X&X*X&X:X&X&X:X>Xf.2XeX;X;X:X&X,X:X&X&X&X=X:X&XeXi.; 4 6 > 4 2 4 = p p = & ; = ; 4 h S.7X&X;X;X;X&X&X;X;X:X:X:X;X&X;X>X>X,X;X,X4Xq # = = & = & & & & 2 . 9.AX:X,X,XbXbXbX,X,X:XvX,X,X,X,X,X,X,X,X:X,X:X&X9.Y _ ] | ' 1X7Xe.7X,X;X;X,X;X:X=XeX8.7.8X:X;X;X>X;XNXH.$ * * # & . C JX#XrX9.# > * * & = ; ^ @X*X,X:X<Xg.W.eX,X:X,X,X,XaXvX,XaX,X,X,X,X,XvX,X,X:X:X:X,X:X:X:X@X<XK.; 2 3 3 > 2 3 5 P.1XJ.rX' & 2 * = 6 * l 4X@Xf.@X,X,X;XbXd._ ;.r.+.:.p.3XW.#XH.].m.| | ..o. . .o.o. ._ | | o.) ..) F G I I I E W I T U E U U U E E ! |  ._ _ _ _ ~ ~ ] ~ E E I ! ] E I F G E E U F N m m F G J I I F F >.~ v N F F S F S N b b N x b M M v N M N M v M N m N N N N N M x x N x x x f f N M b g h p j S f p p r f f f r v r 7 h f 7 a x G F N x x F G M S N N N N z v b b z g F F x b v g a g f z x g r e a g r a a a r e r a e 4 > 4 > 7 9 9 > 4 > 4 8 9 7 r r 8 6 r r p r r r f r e 7 r r e f 7 < 9 t r 6 9 7 9 = # > 7 = = # = & < < = & & * 4 & & $ ; ; = & & & $ $ $ $ o o ",
"$ # $ $ $ $ $ $ & # % * * * , > , * , , > 3 8 6 6 2 6 7 7 4 < & = = 4 1 7 4 < > 4 > 4 4 < & h h = = 4 > = 4 6 6 7 4 6 7 7 4 6 4 6 4 7 7 7 7 7 9 p 9 8 7 9 r x j v f r 9 r r f f g m x r r 7 r e e e r f h r > 9 j r r r 9 r f 9 e 4 e j f z 7 > N N N v S F S S N M b M M x M x M x M M x M M m N N M v M c v x x M N M v b N N S U I N N M M W E I E ~ R T T I U I E R E W E ! ! E ! T W ! T J W R W E ! W ! ( ! W W ! ! ! W ) ) ! ) ~ ~ ( ) ~ ) ~ ~ ) ~ R R ! U M I G I ] ;...~ ! ~ R | ,._ o.%.| X.) ] ] { ( ..@.9./.A.9.$X>XS.@...#.=.) *.X.0.W.$X2Xi.9.d.+X@X&X@X!.:X&X&X&X&X&X*X*X:X&X&X:XW.O.9.rX:X&X&X*X*X:X&X&X&X&X&X<XL.q * 2 6 > 4 4 4 = ; = & & = = 4 $ ^ 7XQ.:X&X&X&X&X:X&X;X&X;X;X:X&X&X:X>X;X;X;XrXq # = * = & & & # * ,   e.AX&X,XeX<XbX&X&X,X,X:X,X,XaX,X,X,X:X:X,X8XeXeX#XY U E P ^ 3XO.Y 8X&X&X@X&X&X:X;X,X;Xf.;X&X,X;XQ.;X,XW.$ % * # % . Y JX#X4Xe.# * = * * # 5 K.,X!.:X:X&X>X,X:X;X:X:X:X,X:X,X:X,X,XvX:X,XaX:X,X,X:X:X&X,X:X&X@Xg.&Xf.5 > 3 2 3 3 % m ].H.L.4X9.. , , * * % l 1Xg.W.bXAXBX;XbXe.| ,.o.>.o. .G.6XH./.G.@._ | o.|  . .o.+. .o.+._ |  .o.~ P I E I R E E E R E E E ~ ! Q ~ | | | |  ._ ~ ~ ] ~ ~ ~ E U ~ o.~ I I G U | ~ E U I I G I S I F I F E U N J I S F U G x M b b b x x M M b M N M N N S F S N F N N N N M x M x m v e x S x b g f 9 v x e p p r p f 7 x 9 r f r e g D S N G N N N N N N v N b z z g b N g z N x z x g z r r f g x f e p r a a e e e e r e r p 6 > 4 4 4 8 p 4 > 7 7 4 e 8 7 e r 7 e p r r r e r p r 4 4 9 r 7 7 = = 7 9 8 4 7 9 = # & = * & # $ & & & = = 4 4 7 = # # 4 6 = & & $ $ $ $ $ # # ",
"& # $ $ $ $ # & & # = 4 > * , 2 > , 3 6 8 3 6 4 3 3 6 2 4 7 4 & = = 4 4 7 > 4 4 4 > 4 4 > = 2.l.h 6 4 < 4 4 4 7 7 7 7 7 7 6 7 7 7 6 7 9 9 7 9 r f r 7 8 p e f v m v M h f f x f g x M b x r r r f g b g g f f r p j f r r r h j x g x z c b 9 = N S S N S S F F G S S F S M N N N M M N N b M v m N N N m x x f z b M v M v F N S M I J F v I I M I W ! W W ! E E E W W W E E ! W W ! ! ( ( W W ! ! ] ! ! ! ( ~ ) ~ ..%...E ! ~ ) ~ ) ) ) ~ ~ ~ ~ ) ) ) | ) ) ) ) ! ! ! ) o.;.) E ! ] ) ] o.%.....o.%...] ( { X.%.)  .t.:.) s.K. .X.X.{ *.*.c.*. .s.#XA.:.:.q.a.+X@X;X@X:X;X!.:X*X&X&X&X:X*X*X,Xf.9.d.7X:X:X,X*X:X:X:X&X*X:X&XeXC = 2 > 6 4 4 4 = 9 4 & 4 = = ; : q L.;X&X:X:X&X:X&X&X:X,X&X&X:X,X:X:X;X:X,X:X:XtXq # = * & & & = $ & < . f.BX&X<XbXeX,X@X:X<X,X,X:X,X,XaX:X,X,X;XeXQ.7.L.PX^ P W G ^ S.C 9.7XQ.&X;X&X;X:X;X;X:X:X@X$Xg.a.Q.>X,X4X4 % * * % # ^ 6XL.#Xd.2 * = & = # q #XeX&X&X&X&X&X:X:X;X:X,X&X:X&X:X,X,X,X,X,X,X,X,X,X,X,XeX:X,X:X=X&X=Xg.rXB % > 2 2 6 = ' qXK.I.I.L.l & 2 > 2 , m 4X@X>XPX#X$X8XNX#X+.1.&.>.o.o.b.Y.9.0.0.+.@.o.;. . .;.&. . .:.;.+.o. .+.| ~ ~ ~ Q ..! ! E E ~ | | &.| _ | o.| | |  .| | ) | ~ ~ ~ ] ~ | ~ ~ Q ! N F m U U I I E I U I E G W U S M G ! W I U E I b M M N x x v S N N N N N N b m v v x M v x v S F N N N N F f j N M b x f p j N f a p p f j r x r f k g x b S F A D S S M A N N b S v g g x N N x S N e a x z x f r p f r r e r a g r 4 e r e s r a a e 4 6 4 4 p z r 6 9 7 8 r 9 r e e 8 e e e r a e 9 > 4 7 9 6 f 9 9 4 ; < 7 7 7 7 9 7 7 4 4 = < & & & = & = ; 6 < 4 4 4 4 4 = & & & & $ $ $ # $ * ",
"# $ $ $ $ # $ # % = > 4 > % , , , > 4 6 2 2 3 6 8 6 8 6 7 4 < = & ; < 4 4 > > > 4 6 4 9 r 7 h v G 9 > 4 4 1 7 4 6 7 7 7 4 6 9 r 9 7 7 7 9 r f r e 8 r 9 8 p j h v F U F x f g v v g x N N x x g b b x j a j b z v g r r f f x M N M M x z x 9 # M S N S N M F F S S G S J F N N F S F N N M M x M x v v N F M N %.I r x v x M M N b S J F M F F b I ! I W E W W Q ~ W ! E E ! R E E E ! E E W E ! ( ! ! W W ! ! ( ( ) ..) ~ ~ W ( ~ ! ) ) ~ ~ ) ] ) ) ) ] ] X.) X.| ) ] o. .| ~ ~ ] X.) ! o.o...o.X.o.o...X.%.X.*.%.&.;.;.o.@.0.| X.#.{ ] X.*.*.| 9.S.9.+.w.O.d.f.e.W.;XQ.&X&X&X&X!.!.&X:X&X&X*X>X@XbX,X:X*X:X,X,X:X,X*X&X&XvXe.- 2 2 * > 2 4 * q | q & = = = ; X 7.$Xg.&X&X&X&X:X:X:X;X:X*X:X;X:X:X&X@X,X;X:X:X9Xq # = * $ = & & & & % . $X,X,X<X;XeXeXW.eX:X;X<X,X,X:X:X:X,XbXeXeXJ.C B ^ Q I U F Q O.C L.Q.@X7XW.;X;X&X:X,X;X:X;X;X8.8.+XQ.:X7X4 % % * o $ P.4XL.#XI.q % * = = # q L.Q.&Xg.g.&XQ.&X&X:X&X;X:X,X:X:X&X*X:X:X,X,X:X,X8Xd.H.tX,X;X&X>X@X@X@X#Xt % 2 * * 3 O 9.H.S.I.H.rXA.= , 2 8 % m rXg.@XKX^ ' d.f.(.O.| o._ %.| ;.+. .+.&.+.>.;.o. . .@.;._ _ +.@.+.@. . ._  ._ ~ | o.~ E Q .. .&. . .|  .|  .o. ._ | _ | ~ ~ | | ~ | ~ Q I U E E E I m I N U U I R W E I E E E R M I ~ Q E E E U F F S F x N b N F M M S M N M S M v M N M N x x F G b N m N v e b S c b g p f N g r j h r x g h f f M S b N M S S S N N N S v x N N g p f b c x M v j 4 e g r h g g e r 7 8 e r e f r > e r e e r e r r 7 4 7 e e j j 7 6 r 7 7 e r e e 7 e 7 e e e r e 4 7 < 4 4 1 9 9 1 ; = = 4 4 1 7 9 r 7 7 4 4 < 4 = & & = = & & & 4 x h & # & $ & & $ # $ o $ $ ",
"$ $ & $ $ $ $ % % > 8 > > 2 4 = > 4 6 2 3 2 3 8 r 8 7 6 8 6 4 = & < < > 7 r 7 > 7 9 7 e 9 7 6 > p 7 9 7 4 1 7 6 9 7 7 7 4 4 9 9 7 9 9 9 9 9 r 9 9 r f f j p j g v z N x f g b z v g x z N N b x x z g j z z b b N x k f f j j f x j x n n b 9 # M F S D D S F F F F I D N N F F I F F S N N N F G M m v x U I F | E v M F M N N F N S T E F N M G W E W ! E E ! ! E ! R E E ! ! ~ ! R U R T W ( ( R R E ( ! ~ ] ) W E R E ~ ] ~ ) ~ ~ ( ~ ) ) ) ) ] ] ) ] | | | ..| ..| | o. .) | ..o.| ..| ..o.;.o.%.o.o.o.;.%.,.;.>.;.>.,.;.y.o.o.*.X.X.] { X.| q.P.q.:.0.t.P.q.O.S.#XQ.&X:X!.&Xg.g.&X,X&X:X*X,X-X:X*XaX:X*X&X,X,XaX-X:X*XmX^ > 4 2 > > > 8 = l B # = < = ; ; B 2X;X!.&X&X:X&X&X@X,X:X:X*X,X;X,X,X;X;X>X>X,X,X4X5 * = = # = & * & = * - tX<X,XbX:XNX$XV @X,X:X,X,X,X:X,X,XeXW.+XtXNXrX7.P ~ E E I Q ^ 9.7X+X4Xe.' #X>X:X>X,X>X,X,XeX>X$X7X@XeXwXq # * * o l JX4X$X$XrXC # , & = % i #X&X&Xf.g.&X!.@X&X;X&X;X$XJ.L.$X@X=X*X:X,X,X:X<X$X9.q./.7X>X:X,X&X@XeX9.. * 2 , 2 2 h P.S.d.(.(.^.s.4 3 2 3 3 P 2Xa.f.PXO.0.q.9.u.:.o.o...%.o.>.&.+.1.1.:.:.;.>.&.+.:.:. ._  .:.+. . . . . . . .o.;.~ U _ >. . .| o. . . .;.+.&. . .o.| | ~  .| ~ ! E E U E E ) ~ U E E I ! Q E Q ~ E F I I ] X.! ! ! ~ ~ Q ! ! W ! E E I G N F F N S G N M F I S N m F S F M M v S S N N J N f v S N N v g f v F v x x r M v f j M F G N S M S S S S S N N N S F N f r f v M F F g 6 9 8 f 7 e j v r 9 7 7 e r e g a > 7 a r e r r r a r e r a e g f e e f r p e e e r 8 r e p e r r r r p 7 4 & = 7 9 7 4 & = = 4 4 6 4 7 7 7 4 4 7 7 < * & = & & $ $ = q 4 # & & $ $ & $ $ $ # $ $ ",
"# # $ $ $ # # # 2 4 6 6 6 3 8 2 > > 6 > , , 6 4 6 e 6 > 4 7 > & & ; < * 9 x h 7 6 1 9 1 9 7 9 r e 4 8 8 f e 4 7 7 9 7 6 7 4 4 7 9 4 9 7 7 7 7 7 r 9 r h f 9 r f a f f f b x S F M M N v N v c v v c x a g x j b x x z x v f g g g g v x x b 9 o v F S D H F F S F S N E W M F G F G S S F N M S J G N M U ~ R v N I ! F M F I S F G I T T N N M G ! ~ E R E W R E ! E W ! E E ! ! E E E ! R R ) ~ ! ! ! ( ! ! ) ~ ! ~ W ! R ! ~ ~ ! ) ) ) ~ ] ( ) ) ) ) ) ) ) | | _ .._ _ o.| ] o._ ..o. . .;.o.&.;.%.o.%.o.o.*.;.&.;.;.;.o.>.U.r.o.%.o.X.] X.{ o.0.p.:.+.+.0.u.O.:.u.e.W.W.:X,X:Xg.g.&X&X:X-X-X&X&X,X:X-X-X:X&X:X-X:X-X-Xj.nXC = 3 * * > > < 4 6 = = = = = ; $ e.$XQ.:X;X@X:X&Xg.g.@X:X,X&X:X:X:X&X:X@X;X,X&X,X9Xq # = * = $ = & # = # q tXvX&X,X,X:X=X$XeX&X=X:X:X,X:X:X:X8Xf.^ 9.2XNXrX^ U T I I O.s.3X#Xi.^ | _ e.8X:X:X>X>X8X>X8X8XeX;X>X>XwXh o * * . ^ tXW.%XL.wX' . , * = % q J.&XQ.f.a.f.$XQ.W.Q.Q.+X#X9.^ f.@Xg.g.:X&X!.:X;XC.q.u.9.d.>X&X&X=X@XwX9.o 2 * * 2 # O.P.s.d.s.d.H.s.9 , 2 > % m rXf.L.rX@.:.0.:.q.y. . .;.o.;.w.:.@.:.>.:.:.:.:.+.:.+.:.:. . . .@.+. .+. . .+.+. .&. .~  .@. . . .+. . .;.:.+.+.o. .o.| ~ ~ ~ ~ ~ Q E ~ ~ E I Q Q U ~ ~ Q Q E ~ ~ Q E ! I P ~ X.~ E ) ~ Q ~ ~ ~ ~ W ~ E ~ I b F N M F S N F N I G F v N F N S N b N N M x F F g f S F v M x r j ~ I f x r v S r M F N M M M S S M S F F M S N G F x r r e g N N U N 4 r 6 7 7 > h x f 4 4 9 7 e 7 e g 6 > e r e e r e a r a e r r e 7 r e e r r 7 7 e r 7 7 9 7 r p 7 8 7 7 f 7 & & = 4 7 4 < = & = = = < 4 < 4 4 4 4 4 = & & = & $ $ & & $ $ $ $ $ $ & $ $ # # $ o $ ",
"$ $ & $ & # * 4 r r e 6 6 , > 9 9 , 4 4 4 6 8 6 r e 8 3 4 6 < & = < 4 > 4 7 9 8 8 8 9 9 e 4 7 7 e r e s F x 6 8 7 9 7 7 9 7 7 7 9 9 9 7 9 9 9 9 p e r 9 8 8 g v f p g x J J F S F F J S S A b N N F S x x z x N N x x N S M v v x v M b n b 8 . l J S F J J J F I S N M.OXQ F I I I F J I G S N I ! U G ] %.! I E ~ X.W T S F N G N I S S F G G E ! ! E R E ! E ! E E ! ~ ! ~ ! ! ! ! ! ~ W ! ) ) ~ ] ~ ( ( ) ~ ! ! ~ ) ( E ! ~ ~ ~ ) ) | ) ] ] ) ) ..] | ] | ..o.....| X.o.....o.o.o. .o.;.>.;.;.o.;.&.;.;.&.;.;.;.%.;.1.;.:.w.:.;.>.>.;.*.%.o.:.@.:.@.>.>.0.0.0.:.y.u.(.d.+X,X&X&X=Xg.&X*X*X*X-X-XaX-X,X,X,X*X*X*X*X*X,X*XAXY = 6 > & 4 4 < 9 7 > 4 = 2 ; : B 2X>X;X>X>X;X;X&X,X&X&X,X:X:X>XNX8X;X<X;X>X>X,X>XKXB # > * = * = & & = # C tX<X:X<X,X:X,XMX<X=X,X,X:X,X,X,X;X&XtX1XY ^ ' P.i.Q U T I ' 3Xi.^ U E N.@.d.MX:X,X8X>X8X8X8X>X>X8X8X>XPXB # * , o 9.JXQ.$X$X7XS.; 2 , 2 * i W.@X:X>Xe.d.#XW.W.+XW.$X$XS.O.A.#Xg.g.:XQ.Q.@X>XS.y.m.0.V.eX,X,X:X@XrX9.# * > = > t '.1XK.1XH.H.K.1XY * 2 3 * Y JX/.e.9.:.0.0.0.y.w.:.:.:.:.:.w.0.:.@.:.>.0.:.:.>.0.@.0.r.@. .+.@.+.+.;. .+.+.+.+.:.+.o.+.+. . .&.@. . .:.w.>.;. .o.~ ! Q ~ ! ~ ~ ~ ~ ] ~ | Q U E ~ ) | ~ ~ ~ | | ) ~ | ~ ~ ) ~ P N ~ ) ~ ] ! ~ ) ) ~ ~ ) G g F F N U F N I F I I F M N F F N G N N F S M M v x f N F S v x g f ] N 7 b f x S g S F M v v N N S N N S F G I S S m j 9 r 7 x F h N I r 7 7 7 4 > 9 x f 4 6 8 9 r 6 7 g r , 6 e e e r r r r r a g r e 6 e 6 7 1 4 6 e e r 9 8 4 4 4 6 6 e > 4 7 6 6 4 & 4 < 4 4 ; = = & & = < = 4 4 6 = = & = = = & = & & $ & & & $ & $ $ & ; # $ $ $ $ ",
"& # # & # $ > e r 6 e , , * * > > 7 4 > 8 4 6 r r 6 6 6 8 1 4 & % 1 r r e 8 r r p e 8 r 7 f r 6 r r e p v r 4 6 7 4 8 7 9 9 9 7 7 9 7 r r 7 r r e g h r e 7 x S g r g z N b x c S M S F D b F b b J G b z x b N N x b b S G N x N x b b b b 7 . k F F H F F T F D F I M._.~ F I I F T I I T J N S E R I ( ..E R ] ( ] ) ! I R ! | E N N F E W F U E I I E U R E W R W E ! ~ ~ W W ! ~ W ! ! ! ) ~ W ~ ! W ! ~ ! ( ~ ) ~ ) ~ ! ~ ) ! ! ] ) | ) ) ) ) | | ) | | | ..| | | o...o.| ..| o.| o.o.o.&. . .;.;.;.;.;.&.&.&.;.;.;.>.;.&.;.:.>.:.w.1.>.:.+.:.:.:.w.0.w.0.y.0.:.y.p.s.d.f.;Xg.g.-X,X*X*X&X*X-X:X,X,X:X,X*X*X:X*X&X&Xj.vX9.$ > = * < & 4 q > > = > = ; $ 9.Q.W.$XQ.$X>XeX>X;X&X,X:X$XeXf.^ 7X8X@X>X>X;X,X@XKXC . > * # $ = % * = = d.MX;X<X;X:X,X;X:X,X:X;X,X:X:X>X,X;X,XQ.%XA.^ m Y O.F E ! S I q.Y F ] ~ ! Y f.,X;X>X8X>X>X,X7X>X8X;X;X>XKXB o = , o 9.%X#X$XL.W.qXh % > 2 # l #XQ.Q.$Xd.9.C.L.f.L.W.L.#XHXn.V.f.f.a.f.W.Q.f.L.C.O.0.u.I.4X+X%Xg.L.S.l o * = 2 o Y R.d.(.].P.1XH.(.^ # > 3 % I D.0.:.:.:.0.@.0.0.0.:.:.;.0.:.:.:.:.:.:.:.>.:.:.:.>.:.0.:.@.+.@.+.;.@.+.+.+.+.@.+.+.+.+. . . .+.+.+. . . .:.:.+.| | ~ _ ~ | | | ! _ _ ! | | ~ ~ ~ X.~ _ | | ~ ~ o.| ~ ~ | | _ ) F v N W ] ) ) ) ~ ) ~ ~ ~ b s F S F I F N S F I S S M F M S N F F N N I M g v b r g S N x x f 9 G m 6 M x r M x S S M v b N b M N M x M S S N x x j 6 8 7 f v 7 7 f 7 4 7 4 > 4 4 x 9 2 4 4 r e 4 3 p r > > 4 7 e r r a e r g f r a e 6 7 4 = > 7 r 7 9 9 7 > 4 > 2 9 r 9 < > 7 6 < < & ; < = < = = $ & $ & 4 6 < ; & & & = & = & & & & = = $ $ $ $ $ # $ & & $ # $ $ ",
"& & $ & & # # = , , * * * * > > % p W 6 6 8 8 7 r e e e r 8 7 = & 7 h f a g z f z a a r g F N f f f z g r 6 7 7 8 7 9 7 7 9 9 9 9 9 f x j r 9 h z x M x x j N N x z v g g g z x S S F F F D F F T R U N M S F N S S G N S G F S F S S S N b 6 . h F F J H J E J F G G U U I I I E E ! W ! ! W G I T W W ) ~ ~ ( ] ] ..| ) ~ ~ | <.X.E N U ] ] W R U U I E U ~ E E ! ! W ! ! ! ! ! ~ ~ ~ ~ ~ ) ~ ! ~ ~ ! ~ ! ! ~ ) ) ] ] ) ) ~ ] ] ) ~ ) ) ) ) | ..| | | | | X.....| | | o.o. .o.| o.o.o.o.o.o.o.o.o.;.;.>.:.;.&.;.:.1.;.1.>.>.:.>.>.w.w.w.w.w.>.0.0.0.0.w.w.t.y.r.0.y.y.y.m.i.A.#Xf.g.&X,X:X&X*X-X:XaX:X,X*X,X-X-X,X,X&X*X&XnX^.= > 2 = = o n.Y % 4 2 = < & Y 2X$XW.@X>X>X7XL.@X8X:X:X<X>XPXd.X H.MX;X>X>X>X:X:XPXY # > * # 5 f # > & 5 4XbX:X<X,X>XeX:X>X:X:X:X<X;X;X,X<X&X>X9X7X#XO._ @.Q P G I G U Y U E ! I Y s.eX;X>X,X8X>X,X8X>X>XeX>X7X;XKXY o 2 * > A.$X#X#XW.W.JXQ % 2 2 % Y tX;Xg.Q.f.9.s.P.C.L.#XI.3Xn.~ u.3XH.d.K.d.$XW.K.i.:.w.A.i.d.d.a.d.^.t.& % = = 2 7 u.P.d.i.s.s.i.9.i.Q * 3 3 > I x.:.:.0.:.0.0.0.0.y.:.>.:.w.0.0.0.:.:.0.:.:.:.1.+.:.:.0.:.+.@.:.@.:.:.:.+.+.+.@.+.+.+.+. . . .@. .;.;.o._ | _  . .| |  .| _  . . .| | | _ _ | | |  .| | | | ~ ~ _ | | ..| ) Q | ! F x G I ) ~ ) ! ) ~ | ) b a S F U R N G S v F F G N F N F I I N S I W I x M G g g N N b M f f h N f M x r x M S N M M M N b M N N x x z x v x x j 7 8 9 e r 9 9 9 4 7 4 7 4 4 6 j 7 4 4 6 r 7 4 4 7 f 7 > 4 7 4 e f g a r a g f g r r 7 7 4 > 7 t 9 e 9 8 4 4 > 4 f f 7 4 > 4 4 f 7 = = = = = & & & = & & 4 7 < & & = & * = = = & & & & & $ & $ $ $ $ $ $ # $ $ $ $ ",
"# & & # # # # # % * * % , , = 6 2 & M 7 > 6 2 , e e s e e r 7 & & r g g c j z c j j z r z S b f f r j f r e p 8 4 7 7 7 9 7 9 9 r 9 r l x r f a z x x b N x c b N c z x z z N b b D H A A A F J T D N b S A F N S S S S S b H S A D G S b N > . g F F F J J R I F x S F E I E T E W ! ( ] W E I E T W ! ! ~ ] ~ ( { X.~ ) ~ ) ~ ) *.! S E ] ) ] W I E U I ! l.! E W ! ! E W W ! ~ ! ~ ) ) ! ( ! ( ) ) ( { ) ( ] ) ) ) ] ) ~ ) ) ) ] ) ) | ) ) | ....| | ..| | ..| | o.....o.o. .o. .o.o.o.;.;.o.;.o.o.+.:.:.:.:.:.:.>.1.;.>.>.>.r.:.:.w.w.0.0.0.0.:.w.r.0.w.y.q.y.0.w.y.q.0.v.i.p.P.i.e.f.a.&X*X*X*X,XgXbX,X:X:X-X:X*X,X,Xg.,XL.$ , * 2 # y UX^ O > 2 , > $ e.9XW.>X7X+X%X4XC f.eX@X&X;X+X%X$Xe.#X7X;X;X>X$X&XQ.NXY . = > . q l . > % 5 $X,X>X;XeX>X>X:X&Xg.;X&X&X;X:X$X$X>XL.^ 9.H.S.Q ' @.Q F I F ~ U T U F F /.PX:X,X>X>X7X>X>X;X>X>X;X>X>X;XIX' o * # 7 1X$XW.I.#XL.4Xq.# 2 2 % Y eXg.;X;X#X(.A.s.S.G.C.K.P._ A ;.F.O.^ p.t.p.s./.n.u.0.q.p.s.s.K.H.1X@.# * * = . C R.s.s.t.p.u.u.9.u.O.> , > % I x.0.:.:.0.0.:.0.0.0.0.:.0.:.>.w.:.0.:.0.0.0.@.+.+.O.@.:.@.:.+.@.:.>.;.@.+.+.+.+.&.+. . .| o.|  .;.+.+. ._ _ _ | | | | | | |  . .| ~  . .| o._ _  .| o.o._ | | | ~ | ~ ) | _ Q ) ) N b b N J S I ~ | ! _ ~ z p z v ~ ! x F x g x G G N N F I I U I N F E S M S F b p x F b x x p 9 N m f N 7 g b N M v N M b b M v M M x x v z v x t 8 4 9 7 4 7 9 9 7 6 > 6 4 > 6 j 7 > 4 2 8 4 > 4 > p e > > 4 4 4 r a a 7 e r r r a r 7 7 4 = = 4 r 9 7 9 4 > 4 7 9 9 4 9 9 7 r h 9 4 # = = & = & $ & & $ = < = & = = & & = = = & & = & & $ & $ $ $ $ $ # # $ # # # ",
"& # & $ & # o # * # = > > , > > > > 1 4 7 6 > % 4 p s r e p 9 = & f x n b n b n n n c c x x j r j r z j z z z f f e 7 9 9 7 r p f e r r f f j z v g z z c b N b N b b x x n A N S D A b b N F D S b A A G D F G H D N N S S H J T F G S A S > . h I F H T I E I F F ] ( / E W W ( ( [ / ~ W T W ) ) { ~ | ) ] ] ..] ( ) ) ) ] ) ] ..) W ~ ....] ~ W ! W E W ) W W ! ! W ~ ! ~ ~ ~ ~ ~ ! ~ ! ( ) ( ( ) | | | ) ) ] ] ] | | ) | | | | ] | | | | | | | | ..o.....o.o.......o...o.+.;.&.;.o.&.;.+.;.;.&.+.:.&.+.y.GXm.:.w.w.>.>.w.r.r.w.w.r.y.0.0.r.r.w.w.r.y.y.q.y.y.y.y.y.q.y.v.y.u.n.i.A.p.i.%X-X&XaX,X+XW.8X:X*X,X*X:X=X&X&X<Xd.$ 2 , > # ^ PX9.& 6 , 2 6 = 9.4X@X$X>X$XwX4X^ $X>X&X;XW.$X$X7XtX7X$X>X;X;XW.Q.@XKX^ . = > . B Y . 3 > q 4X,X:X>X>X:X;X>X:X@X@X&X:X:X,X;X$X<X4X' Y _ i.0._ I Q ! X.~ E F F I T I O.#XNXeX>X;X>X7X>X>X>X7X>X>X>X>XtXY # 2 % l 6X$X#X#X2XL.#X].5 2 3 % Q yX@X%X$Xd.K.S.A.P.P.C.K.P.q.E ..u.0.O.v.y._ +.G.9.0.0.y.A.S.d.K.K.].m # 2 = = ; 9.P.C.A.S.A.9.9.9.s.t.7 * 2 % U b.0.0.0.0.0.q.v.u.y.:.:.0.w.0.w.0.0.0.0.w.y.0.0.).v.O.:.:.:.@.:.:.:.+.+.+.:.+.+.o.o.o.o.| o._ o.:.;.+. . .| |  .|  . . . .+.o. .|  . . . .o. .| | o.o.o.| | | o._ | ) ) | %.%.%.] I b F G x z N I ~ ~ | ! g f z a W ! x N x f f F I N N N E I I S S b v x N I I S h M I F S x z p N F f F r g M N N b N N M M N M M x x j v v N v f 7 7 8 7 6 7 4 8 7 4 4 4 4 4 4 9 4 4 4 4 6 4 > 2 > e r 6 > > > 4 6 f r 6 6 e r a r f f 7 < 4 = < 7 9 9 9 7 4 > 7 6 4 4 9 9 9 1 9 t 9 > > = < h h = * & = & = = = = = & * & = & & & & = & & $ $ & $ $ $ $ $ $ # # * ",
"& # # & $ $ $ # # = * = , > 6 4 9 f 7 > r > # * > a r e a r 9 = & g b n n A A b A n n n n x n g z b n n n c c x x r r 4 9 9 p r f h f r f f r z x j a z b c b v x S S x b x x N S A A b D M D I J S F S A S F S H S U >.I S A S T G A b S x = . t G S H R T T H b W M.( E W E ~ | ) ] ! W W ! E ] X.) ....] | ) ] ) ) ) | ] ) ] ] ( ] ~ ( X.X.) ~ ~ ! ~ ] ! ! ! ! W ! ! ! ! ~ ~ ~ ~ ~ ! ! ) ) ) ( ) ~ ) ) | ] ) ) ] | ) ) ) ) ....) ..) | | | | ) ) | | ..o.o. . .| | | o.|  . .&.;.&. .o.o.:.+.;.;.;.+.:.:.:.v.0.:.w.w.w.w.w.0.0.w.w.w.q.0.w.w.w.y.w.0.w.y.y.y.y.y.y.q.u.y.y.u.u.t.n.i.n.i.d.:X:X,X+X9.9.f.eX&X&X&X&X@X&Xg.:X#Xi % 2 * . s.4XP.1 , , > > ; d.%X@XW.L.a.+X+Xa.wX@X@X@X$X>X$X$X$X>X$X$X$X;X$X;X@XNX^ . = =   ^ 9.  3 , 9 %X>X@X>X;X:X>X;X>X;XQ.@X$XL.+XeX$XQ.4Xf.t.Q Y | E c U I ! ~ F F U J I m k 9.' 7.eX;X>X$X>X>X>X$X>X>X$X>X4Xl # 3 o m 3XJ.#X#XI.W.J.rXm % 3 % C 4XW.f.d.9.d.H.t.u.P.P.P.F.'.v.:.+._ m.B.~ ~ ) Q _ O.q.F.t.s.d.d.K.p.& * = 2 # l G.s.s.s.i.s.A.s.u.9.q.q % 2 % P x.0.0.0.:.0.u.n.n.y.0.0.0.w.0.0.0.0.0.q.0.q.0.m.LXF.O.+.:.@.@.:.+.+.+.@.+.@.+. .| | | ) Q ~ ~ E o.;. . .o.+. . .+.+. . . . . . . .o.|  .o. . .o.| | o. .| o._ _  .| ~ | Q ) ) ! T I n N J b b U M F U ~ U N a a p j G x x b r p v F N v g x m J F G M N M J F F F z f D I F x x f f J g M e x M x M v x x M b v x N c x g f v x x f 6 7 6 8 4 6 4 7 8 4 6 4 4 4 > > 2 6 > 2 > 8 > , > > r 7 > , , > 4 e r e 4 3 7 r r r r e 1 > < = = 4 7 4 4 2 * > > 4 > * < > = < 1 4 < = = < h t = & & = = = & = & & & & & & & & & & & & & $ $ $ $ $ # $ $ # # o # ",
"& % & # & $ & & = * > > 4 8 p f p < * % a 6 % * 4 r a r a r e & = k S b A A D A n n n n n n n n A b b A S A b b N v j r p j b j x v x x v j b b b z z c b b b x M N S S S b N b A A S F J D F T I F J F D J I F F N :.OXI H J A J S N b S x & . 9 S G J J J J J S E ! J E E r.HXOX@.~ ~ ! ! ( ( X.X.] ] o.,.*.] ) ) ..] X.| | ....] ..) | %.X.] ] ] X.) | o.| ~ ) ~ ~ ~ ~ ) ) | _ ) | ) ) ] | ) ] ] ) ) X.) ] ] ..) | ] ) ) | ) ] ) ] | ..| | | ) | X.| X.o.o. .+.;.1.;. .o. . .o. . . .o.&.:.>.>.:.:.:.>.:.0.:.0.w.x.x.y.0.y.y.y.y.y.0.0.w.y.y.r.w.0.0.w.x.v.y.u.u.u.u.A.m.n.y.u.u.n.p.n.p.e.%XwXf.K.u.u.i.>X&X*X&X:X@X>X,X&XPXY # 2 * h 5X^.6XC * 6 4 & i 4X$X$X7X$XW.@X@X@XW.&X@X;X$X;X$X>X$X>X;X;X@X;X;X>X@XPX9.. > > . d.^.# 3 * l 7X;X;X;X;X:X>X:X:X:X&X:Xf.Y ' #XrX7X@Xe.9.^ _ ~ U S H b F S I J W J Q @.t.G.^ d.<X@X>X>X>X$X>X+X7X7X>X7XPX' # 3 % U 6X#X#X#X#X#X2XKXQ % 3 , I 3Xf.a.L.#X#XrXu.| ).P.9.u.F.u.Y E U ~ | P I I ! t.q.@.v.t.i.s.d.P.Y # 2 = < = O./.A.A.S.i.p.s.A.i.e.D.m % 2 * U b.0.0.0.0.y.0.q.0.q.y.y.0.y.w.0.0.0.0.y.0.q.u.).GXn.O.@.@.:.:.0.:.+.@.>.:.;.+. .~ | | ~ I U Q E ~ o.o.+. .o.+.+. . .+.;.+.o.| +.;.:.+.+.+.+.+.o.o. .| o. .|  .:.w.y.>.%.E F F S F W H N b b b J F F M G I G z z r p j N b b g p g J F g r f g N U W E E F J J F J b a b F b x b g g H x j 7 v M c M x x x b x a f x N x g g f a p f 8 7 7 7 7 6 4 7 9 4 4 4 4 4 2 > 2 6 4 2 > 9 4 > > > 9 7 > > * 2 > 8 p r 6 4 4 e r a r r 9 4 6 4 * 4 4 7 > > * > > 4 = > > > > > = 1 = = = = = > = * & * * & & * & = & = & & & = & = = & $ = $ = & # # $ # $ $ $ # ",
"& & & # & # # & < < 1 4 4 > > & = # % , a 4 % * , a a r s a 9 & = c b n A A A A A n z n n n L D n D D A A A S b n x c v S N N x b z b v j v N N x z n c c b N x x N N N N S N v b N J F D D J F F F F J E E T J F S E E N D J A D S G b b x o O ; m F J J F J S N ! T J W T OXUXUXOX~ ( ( W ! ] ] ) ] ~ X.<.o.) ) ) | ..| | | ) ] | | ..l.:.| ] ..] ..|  ._.m.~ ( ) ~ ] %.%...) | _ | ) ] ) ) | | ) ] ) ) | ) ) ) ] ) ) ] ) ) | ) ) | ] | | ..) ..| ....o...o.o.o.+.;.;.+. .&.+.o.+.;.o.o.o.:.w.>.;.:.:.:.w.w.w.y.w.v.y.y.y.y.u.u.q.w.0.q.w.w.q.w.0.r.0.0.y.y.u.y.q.n.n.D.D.u.u.v.u.u.n.p.u.i.A.S.e.p.p.u.9.$X,X,XQ.@X@X>X;X=XKXY # 3 . ^ 6Xd.#Xq.% 4 4 # l 4XW.$X+X%X<XQ.@X>XQ.@X@X;X@X$X;X$X;X$X$X$X$X;X$X@X@XNX9.. * * - f.$Xm * % B eXQ.&X@X:X;X:X:X:X@X@X=XL.^ _ O.^ e.9X$Xe.9.t.U F J D T I F W F D I ~ n.K.s.d.qX$X$XrX7X%X+X%X$X$X+X$XQ.wX^ % 3 % U 4X#X#XI.6X1X#X6X^ # 3 , b 3XL.f.2XrX9XJX0.I v.A.^ 0.qXF.Q F ! F I U I P w.u.E J ) O.e.9.d.n.8 % , 2 # h F.C.P.S.p.V.s.i.p.p.e.A.m # , % I v.0.0.0.0.0.:.0.:.0.0.y.u.0.q.0.0.q.0.0.0.y.u.q.n.u.:.@.O.:.:.:.@.:.:.:.:.:. .| ~ _ o.o.~ ! E o.;.o. .+. .+.+.+.+.+.+.+.;. . . .+.;.;.&. . . .o.o. .| o. .|  .1.o.w.m.;.U N S I J L G c c b z z G N z M N M b g r e e b N z z r r F F r a g e f I W R W I D F J F A a g N S z x g a v x r 9 g x x x x x z b x e e a b x g g r e 9 f 7 4 7 7 4 6 2 9 6 > 4 4 4 4 > 4 > 2 4 4 > 4 8 > > > 4 4 > 2 * , > 4 r e 4 2 , > 6 r r r 9 9 4 6 4 * = > * * > < = > > > = * * * > = = = & & * * & = & & & = = & & & = & & = = & & & & = = & = & $ $ # $ # $ $ # $ ",
"& # # & & $ # # & & & # & # & # & = * , g 8 * = > a g a r p e & = c b n A A n A A n c n c A W L A D S A D A S b b x S M G F S N N b S N n z v x c b N b b N N N N b A S A N S N S A J I H S R J J F H G T I J F J F S N J S J S H S G N b x # $ < m G J J J I S S ( E E ( ( | :.m.+.] ] ] ~ ( ~ +.~ ] ] ] ....] | | | | o.>.1.o.X.X...o.LXU._ %.*... .>.M.OXB.| | | ) ..r.c.;...<.o.| | ..| ) | | | X.| ..) ) ) | ) ) | ..) | | | | ..| | ......o.o.o.......o.o. ._ |  .;.;.;.;.;.;.:.:.:.+.:.:.:.+.>.w.w.w.y.q.y.q.y.y.v.n.v.q.y.q.q.y.y.q.y.y.y.y.y.0.y.u.v.y.u.u.v.n.n.u.u.u.n.u.u.u.p.p.p.p.p.i.p.u.p.u.S.#XW.a.L.$XwX+X+XrX^ * 8 o 9.6Xd.(.}.h 4 8 & B rX$X%X7X7X$X>XwXf.W.>X@X@X$X$X$X$X;X;X@X$X;X>X$X@X;XNX9.o 3 # i +XwXY * % C tX@X@X&X:X;X;X:X:X;X&X@X>Xd._  .R P 9.1X'.O.| E T J J J J W ! J F E P Y @.' S.s.f.(.' 9.#X#X#X$XQ.#X>X$XrXC * 3 % ^ 3X#XqX3X(.S.d.#XA.6 3 3 v 5X#XL.V.i.S.R.@.| P.5X0. .).P.y.Q U J J N S o.>.F M E ! | q.e.A.~ * 3 2 2 ; ' ].A.t.O.p.S.A.s.V.V.s.P.C # 3 % U b.0.0.y.0.0.:.:.0.y.O.q.y.q.y.w.0.q.0.0.y.m.r.:.+.:.@.@.@.@.+.+.+.+.+.+.@.:.+. .| o.o.o.o.*.! E E ) | +.+.+.+.+.+.;.+.@. .o. .&. .+.@. .&.+.+.@.+. .o.;. .o.| E P Q %.~ F N S J G J S c n S x b x x b v z v v x g p r g N b n a e M F g x M f g M W ! U N S J J J L n g N F x x j r z b r 7 r x j x x b x M x p r p f v j b f 8 r j 8 4 7 7 4 4 7 r 6 > 4 6 4 4 4 4 2 4 4 4 > 4 8 > > 4 > 4 4 6 * > > 4 r r 6 2 , , > 6 r p 9 8 7 r 9 4 * = = > > > > > > = * * * > < = * = & & * * * * * * & = = = & & & & & = = = # & & = & # # & $ $ # $ $ = * $ * ",
"# # % # & $ # # # & & $ $ & & & = & & , a r , # , s a j e a 9 & % z b n n n A n n d z s d A L D c n n D A b n b S x b v R ~ S b G S b A b g x x b x b N b v M A A b A A A N S A N M F S D D F J H S H D S H J F H H J F J H D A D D A N N f $ O ; N F F J J F S S W W T ! { ( W ! ) X.~ ! ) ,.:.LXr.! ) ) ) ) ) | ] X.| | ;.1.>.X...X.| >.;.| o.*.*.>.o.:.+.o.o.X.) ..) _  .;.%.>.o.~ | ..) .._ | | | ..| | ..) ) ) | | | | _ | o.| | |  .| ..o.o.;.o.| | o.o.o.o.o.;.&.;.&.+.;.:.&.:.:.;.:.:.:.:.:.1.1.w.w.0.0.w.0.q.q.y.u.0.0.0.q.y.q.q.y.y.q.y.q.q.u.v.v.u.y.v.u.q.u.u.y.n.u.u.n.u.u.n.u.i.A.p.u.p.u.p.i.u.i.i.i.A.s.H.2XL.#X^ # e o ' ].H.H.3XQ # 2 , $ e.7X+XW.#XW.$XL.7.#X$X@X$X@X@X@X$X$X$X@X$X@X$X;X;Xg.7X9.. 3 # q W.W.m * % C 7XQ.&X@X@X@X;X@X;X@X&Xg.@XwX@.! #.I U Q Q Q P I U A I A A U J J I N I | E b o.^ (.t.r U S.S.Q i.2XW.W.+XrXm , 3 #  .P.9.O.q.9.9.(.(.0Xj , 3 e A.H.P._ T ! :.! @.LXR.~ F E O.m.:.R A S b N ~ ! M W #.( T O.u.y.p , 2 2 * h V.C.s.9.9.V.V.V.s.s.i.i.A.C . > # N x.0.0.0.0.0.:.0.0.0.:.:.y.y.0.y.0.0.0.y.v.0. . . .+.O.+.@.+.+.+.+.+. .+.+.+.+. .| o. . . .o.| E U ~ o.+. .&.+.+.+. .+.+. .@. . .+.+. .+. .+.+.+. . .;.>.) Q ~ F S F I F N N b n S b n b n n N z S F M N N S v M z a r 7 z b N r e f M x x b x p e F I x r v J F D J S r c S N x f r f v 7 1 h v a r x x c g v p e e 9 x h j x r 9 f 8 4 4 6 4 > 6 9 4 > 4 4 4 4 > > 4 4 > > > > 4 > = 4 > 4 4 4 > * = > 8 9 8 , * , , 4 4 8 r r 7 7 r 7 = * * = * = > > = = & = & = = = % & = * & * * * = & * & = = & & # & = = = & & & # & & # # & $ # & = $ $ # # # ",
"& # $ $ & # $ # & & & & & & # & = & & > g r * % > s g g e g 9 & & k b n n n n n n a a e d D H n n n n n n n A b z a x b ! 1.~ S F G I G G N x b S b S b v S G b A S F A F S J D F ] <.E D J T J H F J F H H I I J H J H J H U U N G S N S j $ $ ; N I J I J J S I ~ W W ( W ( ( ] ) [ ! ! ~ l.c._.:.~ ~ ~ ~ ) ~ ] ) X.| | ~ | | ..X.X...| ] o.X.X.X.;.| |  .%.o.o...X.| .._ | |  .| | ..o.| ......| ..| | ..o...|  .+. .+. . .+.+.+. . . .o.o.| o.o.o.o.o.o.;.o.+.;.:.;.:.:.;.&.&.:.>.:.:.:.:.>.w.w.r.w.0.0.0.q.w.w.y.0.w.0.0.0.y.y.y.q.y.u.u.u.v.u.v.v.m.v.y.v.y.u.v.y.v.v.n.v.v.p.p.u.n.p.p.n.p.p.n.u.p.u.p.p.p.p.F.i.s.S.S.qXO.= w O q.5XK.P.0Xu.& 6 2 . ^ 9XL.L.#XL.H.e.e.2X$X@X@X$X@X@X%X@X$X$X;X+X$X@X@XQ.eX9.# 8 * i @XL.m , * Y wXQ.;X@X;X$X;X@X:X&X=Xg.@Xa.O.;.*.U F F F I W U T I I U E ! W F S W ] W U G E N @.O.m ] (./.C  .1XJ.J.L.JXN , 3 * +.P.e.O.^ O.u.}.P.D.p 3 w 3 O.R.F...W ) m.] E Y.:.M I I U | Q F A S S D F G J W / R J &.m.~ , 3 6 6 4 ^ P.s.i.A.G.F.V.V.A.s.V.i.F.^ # 3 * N b.t.0.q.0.q.0.y.0.0.@.q.y.y.q.y.q.0.q.u.q. . .@. .+.+.@.@.@.+.:.+.+.@.@.+.@.+.&. . . .+. .o.o.o.o.;. .+.+.;.@.+. .+.+.+.+.@.+. .@.+.+.@.+.:.+.:.;.>.z._ I R J F G S S S S S n b n b b S b H b x M F N F N N S S b z r e p z b g r f x x g g r r e N m e r b S J H H b r g S S M f f x h 7 9 v v r r f v x x j r r r 8 j h r v h 9 f 9 4 4 7 4 4 4 7 4 4 4 4 4 6 4 4 4 4 > > 2 4 7 8 * 1 4 4 > 4 4 * = > 4 r 9 > * > 2 2 > 4 7 r 9 9 7 9 7 > = > * > > = = = = = = * = = & * & & & * * * * * & & * * = & & = = = & & & & # & = $ $ = & & $ $ # $ # # # ",
"% # # & $ # % % $ # & & $ $ & $ % & = , a r * * % r j e 3 g 9 $ $ c n c n n n n n e 6 e s D D c d z n c n x b z 6 3 z c N  .) J T J E W I N b b x S b S G S F S S S S D J F D J R ..1.( R R E J F S H J J J T I J H H J J S B.OXN S H b N g O & $ m I G J F U N h I W W ! E W E ~ W W ! ( E ~ ~ Q Q ~ ! Q W ~ ~ ~ ~ ~ ~ ] ) | | X.] ..X.X...o.| X.X.| ..o.o.*...X.o...o.o...o.o.o. .o.| |  .| o.o.| | | o.| o. .o. . .@.;.+.+. .+.@.:.+. . . . . . .o.o.o.o.o.+.+. .+.:.;.:.:.+.:.:.:.:.:.:.:.0.w.0.0.:.:.:.0.0.w.0.0.0.y.0.y.w.y.q.q.y.y.q.u.u.u.u.y.u.u.u.u.y.v.u.u.u.u.v.v.n.n.u.n.p.u.p.p.p.n.i.p.p.u.p.n.p.V.p.p.s.i.i.u.P.O.* w O t.3XP.(.P.].f % > o B 1XL.I.H.L.L.H.L.W.+X$X@X@X$XQ.@X@X@XW.@X@X$X@XW.g.7X9.# 3 # B f.L.Q % % C 4XW.W.Q.+X#X%X@XW.+X@Xg.@X9.U o.! I I W W F U I J F F W E E E J W ~ ] S n H S N m Q I P D.t.m F t.H.#X9XoXv , 3 > :.p.i.).q.9.O.i.P.q.e w w 3 F m.y.o.D I b.~ z 0.:.I W E F F S b N S b S A H F D J L S ~ :.j , 6 2 6 7 q.S.p.V.V.p.V.V.V.i.p.i.i.S.' O , % N b.0.t.q.0.y.q.0.y.0.@.y.y.q.y.u.y.q.0.q.0.O.+.+. . .@.@.+.@.@.@.@.@.+.+.@.@.+.+. . . .+.+. . .o.o.;.+.+.+.+.@.+. . . .+.+.+.+.@.+.@.+.+.@.+.+.>. . .;.E S T S N G S b S b n n v x N b n b b G b z b N N S S M N N b f 8 9 7 x x 7 9 j e f a e r h x 7 7 a z c S N x a a r x S b g t k r 1 f x f 7 4 4 j j j h 7 8 9 7 7 j r f h 9 j 4 6 6 4 4 4 > 4 4 4 4 4 4 4 4 4 > > > 4 > > 4 p 1 = 4 > = 4 < = & = = 7 9 > % * > > > > > 6 9 9 7 7 7 4 = * = = = = & = = = = * & = & & & & & * & & * & # & & & & & & & = & & = & & & & & & $ & & # # # # $ $ # * ",
"# # # # & & $ & & & & & & & = $ = & = * a a , * % r j 8 2 j p $ $ c b n b n n N c 2 > 8 d H D n n d n n n b n e > 8 z n S N H J T J E I F z N N S S S J W J I H J I I J J J E J T F I T W ! T J I J L L T J I U T J J J J H m._.F F S b N p % ; $ v I I U I G h - b ! ! W ! W W ! ! ! W ! W ! ! ) ! ! Q ~ ! Q ! ~ ~ ~ ~ ~ ) | ..| ..X...X.....X.%...| o.%...X.o.o.o. .o. .%.o. .;.o.o. .o.o. .o.| | | | o.o. .+.&. . . . .+.@.+.@.:.0.+.@. . .@.@.+.:.@.:.+.&.+.;.+.;.:.:.:.:.>.w.w.0.w.:.:.w.:.0.:.:.:.:.0.w.0.w.0.0.q.y.y.y.y.y.y.y.y.u.u.qXLXp.y.v.y.y.u.u.v.n.n.n.v.n.n.n.n.n.n.n.n.n.p.n.V.n.p.p.p.p.p.p.p.V.p.p.p.p.i.p.P.9.4 3 * A.5XI.I.P.0X^ # 3 # B 0XL.L.L.L.L.I.L.J.#X$X$XQ.+XQ.+X$X+Xa.a.;XW.f.>XW.wXs.= 3 * Y W.4XO.% , m qX#XQ.L.9.^ 9.f.+Xe.9.%X@Xd.U o.:.b F Q W F F S F F F S N N F I W F M b D S I F c I | I N x z N D.].P./.q.r 3 3 8 y.u.q.p.u.p.q.V.(.D.v 3 w 3 z ;.| ! J I ~ | U w.o.I T L S F S D S H A S H S S S J L S U F 8 2 8 4 7 m D.u.Q :.D.n.A.A.V.p.A.i.i.F.' % 3 , I b.0.y.q.y.u.y.y.u.y.q.y.y.y.q.y.q.q.0.q.q.q.0.0.O.O.:.:.0.0.:.0.@.:.+.@.@.;.+.+.+.@.+.@. .+. .+. .+.@.;.+.@.+.+.+.+. .@.+.+.@.O.+.@.@.+.@.0.:.+.U P E U J I S S S S S S S A S N N S b b x x N x x N b v x b N N N N z a 7 7 f b r e f r p f f v x p 6 9 x v g z g a r x g b x b x h r 7 r j f e 4 6 4 r f x h 7 8 9 7 7 f r 7 r f I 4 7 6 4 4 6 4 4 > 4 4 4 4 4 4 4 > > > 4 4 2 4 9 > > < 4 > 4 4 > * 4 = 4 6 2 & = = > > > * > > 9 7 9 6 6 < = > * = = = > * * * = * = = = & & * * & * * % % & % = = = # # # & & = & & = & # # $ = & $ $ $ $ $ # # * ",
"& # # # & # $ # $ & & $ & $ $ & = & = * r a , % % 7 g 8 * f p # o x S c n n c b p % , 2 z D A A A c A n x N a > 8 e r M S b S A D F F j f f c S J N I F T T F D T I ! ] T J T E W T W T T T T J I I T J I I T T T I J J I I F N I T H N v 7 & & # h U I F U F $ 7 I W W W W ! W W ! ! E ! ! W E ! ~ W W Q W ! ! ~ ~ ) U U ..) ) | | ..| X.......X...X.....o.o...o.| o.| o. .o. . .o.o.o. . .o. .o.| o. ...o.o.+.+.+.+. .@.+.+.:.:.O.O.O.:.O.:.0.0.:.:.:.+.@.:.+.+.+.+.&.:.:.w.0.0.w.w.0.0.:.0.0.:.:.0.w.y.0.0.q.0.0.q.0.q.y.q.0.q.u.u.q.u.i.JXUXp.y.y.u.v.y.u.u.v.m.n.u.u.v.n.n.A.V.n.n.A.n.n.n.p.n.p.u.p.p.n.p.p.p.p.i.A.V.i.A.q.= 3 & V.1XL.1X/.].q.O , # i ].H.L.^.H.L.L.L.L.W.W.+X+X4X$X#XW.$Xf.f.#Xe.e.$XW.4Xs.* 2 o Y f.d.o.% , h ].L.L.e.^ ~ C ' /.0.m ^ f.LX' ~ >.x v S S G N M J G G S G b S N N v x N G x b M M ] ;.G n c n N D.s.7.9.v.p 3 3 r y.q.O.0.D.t.@.F.s.p.v 3 w 3 s E E ] I S A ;.c.~ F J D J J S A S A S S S D D D J D A b b r 6 6 > 9 9 | F. .M U 0.n.@.9.n.i.p.p.e.p.Y % 3 * x y.t.0.y.y.y.u.u.q.y.y.q.q.y.q.0.0.q.q.q.0.q.0.q.0.0.:.:.0.0.:.:.:.0.:.:.+.:.@.;.+.@.+. .+.+. . .+.@.+.+.@.+.+.+. . .+.+.+.+.+.@.+.+.:. .Q >.w.Q I I S G F A S S b S N M S S N S N b S S x n c S z z N x j x x N v c g x e 6 7 x x 9 e p e p x M 8 2 6 e x z p e e f j v x c z n g f 4 7 h f r p 7 4 4 < 9 f h 9 4 9 6 6 9 9 7 4 f I < 6 4 4 4 6 4 < < 4 < 4 4 4 > > > 4 > > > 4 1 4 7 & * 4 = < 4 4 & = = = > 4 = % = > * > > = * > 4 4 9 9 1 > & > & = > = > & & = & & & = = & & & * & & & % % & & = & & & & & & & & & & & # # # $ $ $ $ = # # # # # ",
"= & & & $ & & # & & & & = # & & * = * % r s > % * 4 z 8 * p p o . x S n b n n N 7 # 2 6 z D A A A A M n b b 8 1 r e z n A S H A S D v p f f S ! ! E N M G I J J E W *.*.U J R T E W W T T R E I I I T I I T E T I J I I E I T T E W T T M 1 = ; $ h U U J T m = k ~ W W ! ! ! ! ! ! ! ! ~ ! ! W W ~ ~ ~ ~ ~ ~ ~ ~ ) ..S S %.) ] X.| X.| | X.X...| ..o.X...o.o. .o.o.o. .o.o.;.o. . .o.o.o. .&.;.;.o.+.o.o.o.;.+.;.;.:.+.:.@.:.0.0.O.+.+.:.0.q.q.t.q.q.0.9.0.q.0.:.:.:.;.>.:.w.w.w.0.0.0.q.0.w.w.0.0.y.q.y.y.q.q.q.q.y.q.y.y.q.q.y.q.u.u.u.t.e.i.p.v.v.u.u.u.v.u.u.u.u.u.n.u.A.n.A.p.V.A.A.n.i.n.n.n.n.p.n.p.A.p.p.s.A.V.s.s.s.G.t.4 3 = P.0XP.S.S.d.A.B & > 5 P.^.L.L.L.I.L.I.L.#XL.+X#XS.H.4X#X$XW.f.4Xe.e.$XW.#X .* 8 * ^ H.K.+.% 3 6 s.I.K.9.Y t._ t C _ U x U ' _ U I M M v S F S F F S G F J F F v c z b F G A S I E I G x b n M f C O.q.G.U.s 3 3 x v.y.+.q.F.s.t.i.s.P.Q 2 e 3 e E ! ] W T S W _ S D T H H S S H J H S b M S J H H S x b v 8 8 8 4 h k @.D.Q S I l.:.N +.G.i.t.u.e.D.U = e > x b.t.q.u.u.u.u.u.y.u.u.y.u.u.q.0.0.y.t.q.q.t.q.q.q.q.0.0.0.0.0.0.:. .~ +.+.o.;.+.+.;.+.+.@.@.+. .+.@.+.@.+.+.+.:. .+.@.+.:.+. .:.@.+.r.~ m | ;.I G I S S S S S S S S N F F S x x b b b x b N x b b z j b x x x b b x x v x r > j M f r e 8 x v r > 6 4 x v f e e r v f f M x z b f 8 4 r v f f k r 9 6 4 6 9 j f 4 9 7 7 7 7 8 7 7 9 4 7 4 4 4 6 4 4 4 4 4 4 4 4 4 > > 4 > 2 2 4 > 6 I h & 4 = 4 6 4 * = = * 2 6 = = = = = = = = = = & = > 7 9 7 > * = = = = = * = = = = & & & & & & & * & = & & & * & & & = & & & & & = = $ # & $ $ $ & & $ $ = * & # ",
"$ & & # & & $ $ $ # $ & O # I < % = = = 8 a 4 # % 4 g 7 # 9 p . o k S b n c c b = # 6 2 s H A n A A n c N r > 7 1 6 x c D D A A H n r x p e E ) ~ o.~ y.w.S J J T o.;.R J I I J E E T T J J T T I G I T T T T T T J T T I T E I W R T W v > & 4 # t R F T T < = F ! W W ! ! W ! ! W ! ! W ~ ~ E E E ~ Q ~ ~ ~ ~ ~ ~ ) v f { ) ] { X.] ( ) ..X.......o...o.....;...| o.o.o.&.o.o. .o.o. .o.o.o.;.+.;. .+.;.o.@.+.;.+.+.:.;.:.:.0.:.+.O.O.O.0.q.9.t.q.q.0.q.q.q.0.0.+.:.:.:.:.w.w.0.:.:.0.0.q.q.w.0.0.q.0.q.y.q.0.y.q.q.u.u.q.q.q.q.q.y.y.y.u.u.u.u.u.u.u.u.u.u.n.p.u.n.u.u.n.n.A.n.p.p.A.n.p.p.u.n.u.p.n.n.V.p.p.s.s.s.s.s.p.i.A.q.< 3 = V.H.i.s.d.d.F.t.$ , $ O.1XH.I.L.L.I.I.K.L.L.L.K.C U (.%XW.#Xf.1X7.9.f.a.I.Q o 8 # ^ d.d.O.% 3 > ' C.e.9.B | :.k t  .o.S M x N G F M G S S c F N A v N G N M x M S x b c v S J S F z g z v j v x | A.S.G. .3 w , x w.:.O. .0././.P.A.qX^ , 6 3 3 T ~ T R W F F F F D S S D S F F H N b x N A S H A c z v x p 6 4 j j x E Q F G F ) I m w.n.9.t.9.9.n.m , e > j v.q.y.t.q.u.u.u.y.u.q.u.u.q.q.q.0.q.0.t.0.0.q.q.q.0.0.0.0.0.0.r.~ N M E ! I ! :.+. . .@.+.+.+.o. . .+.+. .+.+.+.@.+. .@.@. .Q  .@.:. .I N E W G S S S N b S b S N b N S N g a a b N c n j x N v z c a g x x z c z b z x M a > 4 v j 6 e 4 f h 4 2 6 7 z j r 2 r x r e f x f g j e > 4 g g x g f f r 1 7 < 4 t h 4 6 7 7 4 7 4 7 7 4 4 6 4 6 4 4 4 4 > 4 4 < 4 < > > > > < 4 > > > > x h & = = = 4 > * = * = = = > * & = = * * = = * & = & = 4 6 = > & = & = & & * = = = = % % & & & % & = = & & & & % & & & = & $ & & & & & # & # $ $ & # $ $ = = $ * ",
"& & & & = & & # # # & & # 4 I . 4 * = % 8 g 6 % = 4 a 6 # 9 f . o h S v n c n v & & 6 4 a H A n b b b b v 2 , 7 > 4 j b H D D S S g a N r g W ~ ] o.y.OXm.F J J T <.,.U R W W T E T T T W T R T G %.o.J W E W E T T W E W T T I E W T W v = = ; # f E G ! v O f ~ W W ! ! ! ! ~ ~ ! ! W ~ ~ Q ~ Q ! ~ ~ ~ Q ! ~ ] ) ) m f { ..{ ] ( ] ] ..{ X.X.o... .o.o.X.o.%.R I o.;.o.o.o.+.o.o.;.+.;.o.+.+.+.+.;.&.+. .+.@.:.:.w.>.w.&.:.y.0.9.t.O.+.0.u.u.u.q.q.q.u.9.p.V.p.0.0.0.0.0.w.w.0.:.:.0.w.q.0.0.0.0.q.q.y.q.q.y.u.q.y.u.u.q.q.u.u.u.u.u.u.u.u.u.v.u.v.v.u.u.u.p.n.n.n.n.n.u.n.n.n.p.n.p.A.p.n.p.A.p.A.i.i.p.A.p.A.p.s.p.s.s.s.S.q.4 8 ; O.i.s.A.F.A.s.P.h > = B 3XL.I.L.L.L.I.L.I.K.L.(._ M s.2X7.d.^.A.Y i.f.d.].Q # 8 = 9.H.d.u.3 3 3 U F.e.t.Q U +.~ m I I G H D J b J N S S N M F S S S S G M h g N G N N S N S G c g j x v n z a U U.t.9.n.F w w 3 N y.:.t.@.+.v.9.q.' O.B 2 6 2 2 T ~ ( E T I I I T S D A S H J D b z c n S N S b n z x N N v f f N v m x M M G N F F I +.V.p.q.q.9.m.l > 3 > m b.q.t.u.u.u.u.u.u.u.t.u.u.u.q.u.u.q.q.t.q.q.q.t.q.q.q.q.0.y.:.~ I F S I I F N  .:. . .@.@.;.+.@. . .+.+.+.@. . .@.:.+.:.>. .U _  .o.U F G W J H H H S S N S N N N N b x x f p g j b b N x b N S g a g z a z b b z v x g j f 7 4 r g e 8 8 f r 6 7 8 f z f f p x g e e g g g j t 7 1 p x g x r r e p e 7 4 6 6 h f 6 7 6 7 7 4 7 6 7 4 6 4 6 4 4 4 4 4 4 4 4 > > > 4 > > 4 > > 4 > > = = = > > ; = = = = = = = 2 * & * = = = = = * * * * * = & * * * * = = & & = & > = = & & & & & & % & & & # # & & & * & & & % & & # & & & # & & = & $ $ = $ $ # # & ",
"$ $ $ $ & & $ o $ # O & o = | . , & = # 6 g 6 % % > r > % 7 f . . g N z c z n z # & 4 4 s D A n b n z N a # > > 2 # r A n H n b g 3 x z , v J H W T W ! W J L H J W E E ! E E I J J T T R T R I F w.r.G R W E T W T T E W T I T T T T I x = ; & $ 5 U ! x = O v ~ W W ! ! ! ~ ! ) ~ ! ! ! ! ) ~ ~ E Q ~ ~ Q ~ ~ ) ~ | m f X.( ( { ( { ....{ ..X.o...o.o.o.X.%.~ P N ~ %.o.o.o. .+.o.o.;.o.;.+.o.;.+.+.+.:.c.:. .0.y.x.:.&.+.;.:.q.u.0.0.q.0.q.t.9.q.t.9.0.q.i.A.A.n.q.0.q.0.0.0.0.0.0.0.0.q.w.0.q.q.q.q.q.q.y.q.y.u.y.q.q.y.v.u.u.n.n.u.u.y.u.y.u.u.u.u.u.u.p.u.n.n.n.n.u.u.n.u.n.p.p.n.n.u.u.D.n.n.i.S.1Xd.s.s.i.p.i.p.s.s.i.A.n.4 , < u.F.S.A.A.V.d.P.h O > $ A.I.H.L.I.J.J.L.#XO.e.LXO.I 0.i.t.Q s.p.C u.d.e.G.U % 3 $ O.d.9.p.r 3 3 h u.y. .Q A I I v c A M J F S A S b c S M x x M J S F x j r r j z N b a v x x v v x N c z a a M _ ^  .U e e w , m y.0.O.:.~ _ P Q :.q.U , > > > F W E U F F I F U I J A D F F A x j x x n N N x x v b c N N v M M x G x F M M v J S x | Y.O.Y y.m.>.4 3 8 * j m.m.n.u.u.m.v.u.q.q.u.t.q.v.0.+.:.m.y.q.0.q.0.q.q.q.9.0.q.:.~ I N U S S N I S N ~ :. . .+.r. . .+.@. . . .+. .Q ! ;.:.:. .~ I Q E ! S H F L F J S S S S b b N N b b x b z g e p r z c b S b g c b b r a f r x v x g z x g z 8 > 7 f r 4 8 r 7 8 6 e a r 7 r f g 7 7 r f e f f 9 1 7 g j r 7 7 > 4 p e 4 4 6 = 9 h 7 4 6 4 6 7 7 4 6 4 4 4 4 4 4 < 4 4 4 4 > > > > > > > = > > > > > = = * = = = = = * = = & = = & * & = & * = & & * * & & * * = * * > 7 < * # & * = = = & = & & & & % & & % # % # & * & & & % & # & & & & % # & & & $ # # & $ # # # # ",
"$ $ & & & = $ # # & = = & . E 7 # = & % 4 g 7 % = > e 1 % 8 j . . f M z z g b j # = < 4 p J S n b n c N 7 # 4 > 6 # s n A H A b e 4 M f = M J J L L R L T L T J L J T E E J J F J J W T T T W I I I U T E E W W W W W E E T T T W T E W x * ; = = 4 E U # ; 4 E ! W ! ! ! ( ( ~ ) ~ ~ ! ~ ~ ] _ | ~ ~ ~ ~ ~ | ) X.] ..F h *.| ..X...X.X.o...o.X.X.o.%.o...o.<.W S U G ..;.o.o.o.;.+.&.;.+.&.&.;.;.;.;.o.0.b.O. .:.:.:.+.+.+.;.+.n.'.u.q.u.q.q.q.q.q.p.p.i./.{.s.G..XA.q.q.q.w.0.w.y.y.0.q.y.y.y.y.q.y.y.u.y.u.y.y.y.y.q.y.u.v.u.n.u.u.u.u.u.v.u.u.u.u.q.v.p.n.p.n.n.u.u.u.u.n.n.A.n.n.p.n.u.q.u.n.G.i.3XUXqXi.V.p.i.p.p.A.V.s.S.G.f 6 7 D.P.C.A.s.A.s.G.C & e & F.1XH.I.^.L.K.L.3XY Q 0.l D c Q ).l u.G.Y D.P.A.Y.N * 8 = ^ d.e.D.m > e 7 m U F I J I S N x A S S S J G N x x N N M M g x g x g f p f r r g z a r g c z v b F N n a z z I ~ ~ z e e e 3 v +.~ N F N I x M Q 0.Q , > 2 , J W J F F J U I I F F F J F I F b n b x b S N b x N N b N x c F F v v N M M b M U N M &. .k x | :.U % 3 3 # h +.^  .b.0.Q _ v.u.u.t.v.y.0.~ P k ~ 0.u.q.y.q.q.q.t.0.q.0.U N U F J F F F I F N N U I _ o._ Q E ~ :.+.:. . .:.Q N Q +.@.! I I U G I G J H J H J S S H H S N S N N N b b c g e r a r a b j g e r z b x j r f e p r r x x x v p 6 7 p r 7 8 r 7 8 8 e 4 8 > > f r 8 e r p r p 7 7 7 k x e 7 7 7 6 4 r p 8 4 6 4 6 f 5 4 5 4 6 6 7 6 4 4 4 4 4 4 4 4 4 1 4 4 > > 4 = = = < = > > > > > = = = = = = = = = = = = = = & & = = & = & = = * & = * * * > 4 9 9 f r 6 = * * = = = = = = = & & & * & % & & & & & * * & & = & # $ > & & & & # # $ & # = & # # # # ",
"& $ # & = # $ $ * & = $ & # o & & & * # * a 8 # * = 7 2 # 8 z . . t b g z a x f o = 4 = r J b b b z x v % % > 4 > # e A H n S z > 6 x 2 = b J J J T T L L L L L T R T J L E R R R R J T W E E T W E W W W R W E W W W R T U W T E E E W v & & ; $ = E 7 $ & j ~ E ! ! ! ( ~ ( ~ ~ ~ ~ ! ~ ~ ~ ] ) ) ~ ! ) ~ ) ..| ..) m 9 o.o.| X.*.o.| o.o.X.o.o.o.o.X.X...o.R S F x ) &. .%.o.o.o.;.+.+.+.;.&.;.;.;.;.+.|  .@.:.+.+.+.:.o.o. .u.XX@.+.0.0.0.0.q.0.q.q.9.t.p.q.t.A.p.y.0.q.y.0.q.q.q.y.y.y.y.q.q.y.u.q.y.u.u.u.u.q.q.y.u.q.y.u.u.u.u.u.u.u.u.u.u.u.u.u.u.u.p.n.n.u.n.u.n.n.v.A.n.A.A.p.n.n.p.q.n.D.s.i.S.s.s.s.p.i.s.p.p.A.s.s.G.t 6 < t.P.s.s.S.s.s.i.q.; > = 9.5XH.K.L.L.L.d.I. .j U ~ I Q F ) r Q >.U x.O.+.U.I # 2 * Y q.9.n.! , e e a G S J F F J J S N n A x S G b g b z b M f e e f f r j r r 9 r I x 8 e f z r g v x G G z x F ! I M r a w e s f x j x c x N N b g x N r > > % x U F S J F F S M b A F F F F S F N x z c N b x N c b M x c N S m f g b z z N x M N I ~ ~ U E F U m v f j x U ~ v v  .| m F &.:.y.q.y.@. .! o.N 7 m v.@. .y.y.0.y.t.y.@.F S U G N F G N N G U N N N F ~ E I E P ! &.>.:.o.| E N M E Q I I G I J T F S T S N S G S S S S b b N M M b x z z s e e s r r c z a g e r g a e 7 r p 7 r a x x f g 8 6 7 p e 6 r 7 6 6 8 4 4 2 r r 4 6 r 8 9 r 7 4 4 r j p 7 4 f 7 6 = 4 j r > 4 4 < 4 h 5 6 4 6 4 6 4 4 4 4 4 4 > 2 2 > 4 4 > 4 > > > > * > * & > > = * * = = = = = = = = & = > = = & = & = & & & & = * * * & * * * 7 r 9 7 7 7 6 4 = * = = = = = = & * & * & & & & & & & & & & % & & $ & . $ & # # # & # # & $ & & # # * ",
"& $ & # # # # $ & $ # # & & * = * & * & * r 7 % * & 4 > % 6 v $ . t b g j g x p # = > = 9 J A b b z b f o > > 4 & # g J H A S r * r x = 7 J I L L L L L T L L T T L R L R T R E E R E R T R R T W W ! W W W E W ! E J E W T W E W W W W v & ; ; $ & f $ 4 6 E ~ ! W ! ~ ] ( ) ~ ) | ~ ~ ] ) ] ) ~ ~ ~ ~ | ~ | o.X.| ) m 9 %.*...o.%.%.*.*.*.%.o.;.o.o.o.%.| | J U J N W %.%.*.o.;.&.;.&.;.;.:.:.;.;.>.:.&.+.;.:.:.;.:.+.+.;.:. .:.y.O.:.>.:.0.0.y.0.0.:.0.0.q.t.y.0.y.q.y.y.q.q.y.q.y.u.v.q.u.u.u.u.u.u.u.y.u.n.n.u.u.q.u.y.u.u.v.u.u.n.n.u.p.n.n.n.u.n.n.u.p.n.n.p.n.n.A.p.n.V.A.V.n.n.V.n.A.p.n.p.A.p.i.s.A.s.V.s.A.s.s.A.s.d.'.h e ; 9./.d.s.A.s.d.p.oXm = 6 h R.K.K.L.I.6X#X6Xu.k ~ 1.U ~ x A b N J T T N v ] N = 2 8 I U C Q N e w r x G G G N A F J M N M S N N N x x v x M x f 8 p r p f f f r 6 j ~ j 9 a a j g f x v S F v x N F x g g f r a S x r z b S x c n b b b v v 7 * # x I F H J F D x x x N S F H S S F A D x g g c b M x x p f j F S g f x x x x N M S N I I E E E F I U ! I E E ~ ! I I W E T G I F ~ Q Q U | ~ | U M x | U x ;.b.u.q.+.@.| E I G G F I U F F J J F I F G I J G W F I E ~ ~ ~ E W S S F I I T J J I U J J J n n S F S S S b c x N M b x x x v g e r z r a a g z z a a 7 7 7 6 p h j x f x x z a 8 7 7 r r 8 r 8 7 7 r 4 4 9 f 4 7 7 9 8 7 7 4 6 r f h 9 7 9 p 9 7 4 4 f f 4 4 6 4 = N.Y & 7 6 4 6 4 4 4 4 4 4 4 4 2 2 4 2 > 4 > > 2 > * & j j < > > = = = = = = = > < = = = = = & = = & & = & & = & = * * * = * > 7 r 9 4 > 8 9 9 7 1 * = * = & = * & & & & & & & & & & & & & & & & = . q - % & & & & $ & # & $ $ $ # # ",
"# & # # # # & # # $ & # # & * & * # # & % 4 7 % % * * * # > N $ . r x g a g x 9 # & 4 = 4 H S z x a S 4 . > = 4 # O z L A H b , & j j # f T F J L J L T J L L L L D D J J J J J L L T J J J T J J I T W E E W E W W I N W T T E W E T W v $ ; - ; $ . = = h ] W ! ! ~ ~ ( ] ) ~ *.1.) ) ] | | ) ) ) ] ) ) ] _ o...) | v 4 %.%.X.o...;.,.;.o.,.o...;.1.o...o.<.U c F N b *.%.U U ;.;.;.+.:.;.;.:.:.:.:.+.:.:.>.+.;.;.&.;.:.;.+.+.@.:.@.@.:.@.0.:.:.0.0.0.y.q.y.q.q.q.y.q.y.q.y.q.q.y.y.y.u.u.u.u.u.u.i.u.u.q.q.u.n.n.v.u.u.n.u.n.n.u.n.u.u.n.p.n.n.u.p.u.p.p.p.p.n.p.V.n.n.V.V.n.V.n.A.V.n.p.n.A.V.V.A.V.A.V.V.p.s.V.s.s.S.s.V.s.P.h 6 & O.P.s.A.s.s.d.e.F.Q o 6 # O.1Xd.K.9.^ q.G.0.m M b c M n n M S n H A S z n f > * 6 n x g x g n n S b N b N N S M x r r M N x b x v z g x v g e p f e r f r r p 9 f j 7 9 f e r a f r v x x x x t g f g e a x S b b z x S N x A N S N N x c g x z F F F S S D b b S S S b S N S b b S S b z 6 f x z j f 7 r 9 j x r f v f g j x m N j z F G M S F F N F F E F I I I I T F U F G G G N U G U I I G G v F N j I >.@.~ F U I U G S N S U F N N G S M G G S S G b A J I S F S T F J J G J T J J G J F J F J F x N S b S S N x v z x v z j x g z z p g a r 6 r g e g j z j z e 8 4 r j g f r g f a r 3 8 9 e 7 8 7 9 8 4 p f 7 7 6 7 7 4 6 7 < 8 4 7 f 9 7 9 7 4 7 7 > 4 4 7 6 < 4 7 ; m h ; 4 4 4 4 4 4 4 4 4 4 4 4 4 4 > > > > > 4 = 4 = & 4 4 = = = = = = = = = = = = = = = & & & & & & = & = & & & = = = & * * > 4 7 4 4 4 6 6 r r 9 > = & = & & & & $ & & & & & & & & & & & & # * = . Y.Y o * # # & & # # # # & # # # ",
"& $ & # # & & $ & & $ # & $ & & = & & & & < 7 & & & * & & * G 4 . 7 x g r a n 7 $ = 4 = 4 J S a c g S & o > = = $ o b L A J a = > v f # g T I J J T T T T T A a J J J J J L T R T R E I R T W E T I I T E ! ! ! / ~ ( N G W E W W W E W v & ; $ $ $ $ & ; I ~ ~ ! ~ ] ! ( ( ) ( ..;.| X.X...X...X...X.] ) | ......| X.v 4 ..>.%.%.o.;.;.r.>.;.+.+.+.>.~ F F ] F x N b b ! E c N %.>.:.;.>.:.:.:.>.;.:.:.:.:.:.:.:.@.:.:.w.:.:.>.0.:.0.@.0.0.:.0.0.0.0.0.y.y.y.q.q.y.q.y.u.u.y.u.v.q.y.q.q.y.p.u.i.A.P.p.u.u.u.q.u.i.u.u.u.u.n.u.u.n.n.p.n.n.n.p.u.p.n.p.n.p.V.p.n.V.A.V.V.A.A.n.p.n.A.V.A.p.V.s.A.A.p.V.A.s.A.A.V.s.A.V.A.A.S.s.'.B 7 < 9.P.s.A.s.s.s.e./.^ $ 9 = m ].d.(.9.l l l k G G S N N b b b S A S S S z n s 8 4 a z b v b b S S G N S N b b G N j 6 8 x N b N x N v x z j x p f f r f f r f f p r 9 r f j f g r a e f x v z z g g r f z A N F S S z j c A S S b S S N x x M G G J F G S D N N N D S S A A S S S A b A G N g r j N j 8 9 r 4 p f f f v x F M g x x f g M N N G N G N F N F I U S I U E E U I I I U F T G G G G F G N N N N M I I F m G F U F N S J I N c M S G G N N M N G x b G F S G F J J J H F J I J J J G G F S I F N S S S N N N v N x x v z j x j x g f v z e 6 r g a r e f x M x a 8 8 8 7 6 7 j g f a 6 6 9 r r r 6 9 7 r S f 4 6 7 8 4 4 4 6 7 7 7 f h r 7 9 6 7 4 4 6 6 4 4 6 4 4 6 6 < < 6 4 4 6 4 4 4 4 4 4 4 4 = 4 4 < > > > > > < < = = & & = > = > = = = = = > = = = ; = & = = = = = = & = = = & = * & = * * 4 4 4 > 6 4 8 4 9 f f r 4 = & & & $ & & & & & & * & & & & & * & * & = $ ; O * & & % & & & # # # $ $ # & ",
"$ & # $ & $ $ & & # # $ $ # # & # & & $ & & > & & # * & # # N 7 . > j a e a x 4 & = = < > H S e j g M # % = 4 $ & o b J S S > & 4 M 4 $ t I J H J J J J I E a c R T T J L J L R T J R T T R R E E I W E ! W ! ~ ( ! ( ! r N ! E W W E W v $ ; $ ; # $ $ < ! ! ~ ) ~ ( ( ( ! ] ~ ) ..X.X.o.X.o.o.o.X.....| ) ....o...| v = | ;. .;.;.+.;.r.c.w. .+.+.Q B U x v M v c N v S F S ~ ,.:.&.:.:.:.:.:.:.>.:.:.w.:.:.:.:.:.:.:.;.w.r.w.w.:.:.0.:.0.y.0.q.0.q.0.0.y.0.q.y.0.y.y.q.v.u.u.u.q.q.q.u.q.u.i.i.P.].p.q.q.q.u.u.q.u.q.u.u.u.u.n.u.p.p.p.i.p.i.p.p.p.V.V.p.p.i.V.V.V.V.V.A.V.p.V.p.V.A.A.p.i.A.V.s.A.V.V.V.V.s.V.s.s.s.A.V.V.s.P.C 4 > ^ 3Xd.A.F.V.A.i.i.' & 4 7 > ^ ].e.O.Q H F M N N H S b n b n x M S n n n n g z v N x N S S b S N A S N M N b b f 4 > > 4 g M M v b M x g v h f 9 e f h f h r p f f f f r f g g e 7 r f f z r a p r r v S S b b N b v N c v b N v b x x n N M S S S A S S b b M b x b N M x N F S b v N N S b e j M f 7 1 9 9 7 e f r e h j x x x x p j g z N I I I M b U I I F b S S U E F F T F G I F N N J I N N N F b N M M M G G F N S M S M F F M x M c F N z a b c n v z v b x S H A G J D F S F J F S G S F S S S S N A N N x b v x b v g x f g g j f r x g e 6 7 r e 7 7 r r g x x r 6 6 r 3 7 e j a r 8 2 8 e p 6 7 6 > M j 1 7 7 4 4 4 6 > > 7 1 p x e 7 6 > 6 4 > 4 6 6 4 6 > 4 < < 4 9 7 6 ; 6 4 4 4 4 4 4 4 4 = = = > > > = = = > < = & ; ; 4 = = & = = = = = = = = = & ; = = = ; ; = $ $ ; 5 4 ; & & & = & * = 4 4 = & = 4 = 6 7 7 h h r < = = = $ # & & & & & = & & # & & & & & # & * * * & # % % # # # # # # # # # & ",
"= & # $ & $ & # # # & & $ $ & # & # & & & & & & & & & & & # f 4 . = p r 7 g v 2 & < = < > I S 8 a x j # & < 4 $ $ # N J H z = & f N ; & x T J I I H T I T S r W W T W W W T T W E E W E W E E ! W E E ! ( ! ( ) ) ( ) { b & F ! W W W W M $ = & ; $ $ & h ~ ~ ~ ] ) ) ] ) ( ] ) ..| o.%.,.*.<.;.%.;.<.....| X.o.;.o.| x * | ;.o.;.;.;.>.:.;.m.x.w.b.| m W G M N N M G N I F U | +.w.:.;.:.:.>.:.:.0.:.0.w.0.>.0.:.>.w.>.w.:.w.:.>.>.0.0.0.u.v.y.y.0.w.y.y.y.q.y.y.y.u.y.y.u.u.n.u.u.q.u.u.u.u.u.i.i.i.u.u.u.y.u.u.u.u.u.u.u.u.u.n.u.n.n.p.i.p.p.s.u.s.s.s.i.s.s.S.V.V.A.A.V.V.A.A.V.V.A.A.s.s.A.A.V.A.A.S.A.A.s.s.V.G.P.P.V.A.S./.Q 7 4 Y ].i.q.0. .0.0.u.y.6 4 9 2 h ' Y m S F F S N b S S N S N b b S S n n M b n b N S N N N N N S F F F N N S b x h r p f e j v N S F M N m M h f 8 9 f h r f r r f f r h f f r r e 7 r g f f j g e z b A N S S S b M S S M N v v b N x x b N b N b S A S N N N S b b b N b S M N x x b S b G S x 9 r 9 7 9 9 4 9 9 f r 9 7 7 9 x F M p j z N F U G G F F N I F G N I F E E I F U G U ] I M N G G S S G G S G N N N F S N I F S U N S N M M N v m x e f N z b x a g N b S S H S S G H S S F S S F S G S S N G N N N N v M g j x M x x f f a j j r p f 8 e 6 e 6 6 7 r e r f z z a e e r 8 6 j a p 8 4 8 p 8 4 6 4 f j 7 7 7 7 4 4 6 6 > 4 6 9 x j 7 4 4 4 4 4 4 4 4 6 6 6 4 4 < 4 < 6 4 4 4 6 4 6 4 4 4 4 4 4 < = = 4 = = = < < < = = = = = ; ; = = = = ; = = = = = = = ; ; ; = = = & & = ; ; = & & & & * = > < 4 = * & * * = > 7 9 t t t t 7 4 4 & & & & & = & & $ # $ & & & & & & * * * & & # & & $ $ # # $ # $ $ $ & ",
"& # $ # # & # # # # $ # $ $ & # # # & & & & & # & & & & & # > 4 o & < r 4 f z > % > = * & J S 4 r N 9 % = < = # $ o N L H e > % j v $ & N I L J J J J J b , A W E W W W W E W E W W W E W W ! ! ~ W I E ! ( ) ( ) ( ~ ~ I O $ F ( E E ! v # ; & $ & $ $ I ~ ! ~ ) ] ] ~ ] ] ( ) *.*.%.%.<.<.4.1.l.c.;...) | %.o.o.o.| f % ~ >.o.;.&.;.r.&.F | N.x.m._.o.M S N x N v x F T M F P +.+.0.>.>.:.:.>.>.:.w.:.0.0.w.:.w.:.:.w.w.:.:.+.:.:.>.0.u.u.u.u.q.q.q.q.y.q.y.0.q.y.q.y.u.q.u.n.u.q.u.t.u.u.p.u.i.i.i.u.u.u.u.t.u.u.u.u.u.u.u.u.p.n.i.i.p.i.i.t.s.s.A.s./.A.V.A.s.V.A.V.A.V.A.V.A.V.V.V.V.V.V.V.s.V.V.V.S.A.s.S.F.D.0.O.q.G.s.e.S.U 3 e m O.Y U ~ U E m Q Q r 6 e s f x M b A b N M b x x b N x b b b b b n n x n b N x b b S x b F S A S N N M M F F N T W J S v g M m S N N M k f 7 8 8 7 f f f h v v v v x v x g g e 9 7 e f j r r z c x v z b N N z x z x M x z x z x z x c c b b x b b b x N b M S S N x c b v z j z x b N M N x 7 > 4 9 6 9 7 7 7 7 r 9 9 f 8 r m j r e x G N x t x N F x N x S E U U I m I M M U ~ ~ F v N M N m G m F G G M N N N x S U I U G N M M N b v v h r 8 8 j N x r p r x S A N S S D S S D S N S N N S b S N N F N F b x v x x 8 e x x g j p e h j 7 e f 4 8 4 2 4 7 7 6 e 9 7 e f z r e 6 6 4 e f f 6 6 4 r 7 4 , e j 4 1 7 > > 4 7 4 1 4 4 > f j 4 2 4 4 4 > < 4 4 < 4 4 4 4 < 4 4 < 4 4 4 < 4 4 4 4 4 4 4 = 4 < > = > = 4 = ; ; = = = = & = = = ; = & = = = = = = & = = = = = & & & = $ & = = & = & * & * = > > = & % & & # & # < f t 7 t 9 6 & = & & $ = & & # # # $ & & & % & & & & & & & & # # # & $ # # # $ $ # # # ",
"$ $ $ # & $ & # # $ & # & & & & # & & $ & & & & & & = $ & & = < & & = 9 7 g j > & = = = # N N > r N 4 * < < = $ & # S L S > < > M j # > H I I J I J H b > > W ! E ! / W ! ! ! ! ( ( ) ! ~ ~ ) ( ] ~ W E ! ! ( ! ~ ~ ) ] { p . = U W W ! v # ; & $ = & 4 ~ ] ) ~ ) ] | ] ..{ ..X.X.R ;.1.1.;.o.;.N.OXr...o.o.;.%.o.,.| r # ~ l.@.;.:.:.l.&.R F Q c.Q  .r.Q N v M N M M N F S I F >.w.x.:.w.0.>.0.0.0.w.0.w.w.0.0.r.0.w.0.:.+.:.>.w.:.@.y.v.y.u.q.q.y.u.q.y.u.u.q.u.u.u.q.u.u.n.u.n.u.n.u.u.p.u.i.u.i.i.u.p.p.p.u.p.u.u.u.u.u.p.i.p.n.p.p.p.A.s.V.V.p.G.A.G.O.9.P.A.S.S.A.A.A.S.V.A.S.A.V.A.A.S.s.S.A.S.A.C.A.A.p.O.:.U M U +.q.9.Y.Q e x F E U I W E U N M x v j z z b n N N S b N N N b b b S b b b S b A n b b A b N N S S N b b S F S S N G S S F G S I I W ! T M x z j j f e r 8 8 4 7 j N N N F I I I I I F F F F m v r r r h f S E S g g j g r f f g f j r e r x z g g x g z v b z j x S b b z z b N v b N N x x j N N N b N b S g 4 6 f r f f r 7 7 9 7 r j p p f t p f S G k r r j N I F m N I N v E Q m m m I Q o.Q N N E I Q U U m I F N v v x F M S S U N N x M N F M b j h f M r f h f e x z S N F S S S J S S S S S S b N N N S N x g x v x v j x M 9 4 f j g h f 8 h h 9 9 f r 7 7 4 4 e 7 e 7 9 7 e e f g j 6 8 4 6 p f 9 6 6 r 6 4 6 a 7 4 4 4 > 2 2 6 > 4 p 7 7 r 9 > 4 4 4 4 4 4 > 4 4 7 4 4 4 4 4 4 4 4 4 6 < 7 4 4 4 4 4 4 4 4 4 4 = = < < ; ; ; ; = < = ; = = ; < = = ; = = = ; = = < = = = = = = = = = = = = = = = & * = = = & & & & # & & & & = 7 9 9 9 > & # $ & & $ = & & # # $ = & & & & & * & & & & & & & $ $ & & $ # # # # # # # ",
"& O & # # & # # & $ # $ $ = = & & # & & & $ & & & $ $ $ & $ $ = = $ & 4 < x f & & & = = o f j # r v * * 4 ; # $ = # S J v , > 4 N r # 6 F T G I J S N 6 . b ! E W W ! ! ! W ! ~ ~ ~ ! ! ~ ! ! ) ~ ) ) ) ) ~ ) ) ) ( ] ) | ! & . 4 W T R k # = = = & $ 9 ) ~ ] ~ ) ) ] X...( ..-.c e ,.1.1.1.,.) >.OXc._ o.o.;.,.;.&.| 8 O ~ l.;.:.>.;.>.;.E ( F ] Q m P ~ x z M N x v N v x S E w.r.o.E _ r.0.:.w.0.w.q.0.0.w.w.0.y.y.v.'.v.+.:.w.@.>.+.y.u.y.q.y.q.y.u.u.q.u.y.q.q.p.u.p.t.p.n.D.n.u.i.p.t.u.i.i.i.p.u.i.p.u.p.p.p.u.u.u.i.u.i.p.i.i.i.G.p.D.O.+.U ' 0.Q F U @.F.D.F.A.A.A.A.S.S.A.A.s.A.A.A.A.V.A.F.P.P.S./.0.P R U I T F ~  .@.I a c G G T J H S S G b x S N b c S b b b b b b x N b b n c v b b N x n n S n x n N S F b x z b n S N N N N S H A S S M x N F F N f e r 4 7 7 6 7 p h N F U I U F F I I I I F I S F I F S N g r v ~ E x r e 7 8 7 r 7 4 9 r 4 7 7 r e j p p f x g g a a x b b r 7 r e z x b N b r a N N M S c x x N N z x v M x j x r 7 4 9 7 r f f 7 r 8 j I v e e r j r G N k U ! f e I >.| Q E ~ E U I | | r.b.U.v.0.+.1.Q m Y E m N v x x x m x 7 h m M N b x x x m x p 7 v M S S x F S S S D S S S b b S S j a v N M N j p 6 8 p j e t I m 4 7 e k r f 7 e h 8 7 r f 6 2 7 4 7 7 8 8 7 7 9 4 7 f h f 4 > 6 6 a r > 4 9 4 > r r > 4 > > > 2 > > > r 9 4 8 6 > 6 > 4 > 4 4 < > > 6 4 4 < 4 4 < 4 4 4 4 4 4 4 4 ; ; < < 4 < < 4 4 = = = = ; = = = = = = ; ; < = = = = = = & = = = = = < < < = = ; = & = = & = = & & * = * * & % & & & & & & $ & # $ < = = & # # = & # $ & = & $ & & $ & & % & & & & & & & & & & & # & & # # $ # # # # # ",
"& & & $ & $ # & & $ & $ & $ # & = & & & & & & & & & & $ & $ & = = & = & = v t # = & = = # p r % g j * = 6 ; # $ = = J J a * > > S 7 # r J I G J G N r % , ! / E ( W ! ~ ! ! ! W ~ ! ! ~ ) ~ ) ~ ) ~ ) ] ] ) ] ] ] ] | ] | X.m o o h E E k $ ; ; ; ; $ h o.~ ) | | ) X.| X...%.] 3 z <.5.1.c.M.1.%.z.>.o.*.X.%.<.o.;.] 6 O ~ l.:.r.>.>.:.l.U ! ~ x ~ ] N U N M N F m m m N ~ ~ Q ~ N F S E 0.0.0.y.0.w.y.w.w.y.y.w.y.q.oXUXA.:.y.v.q.:.@.:.q.u.u.u.y.u.u.u.u.n.u.u.u.n.u.u.u.n.0. .y.D.n.p.u.u.u.p.i.i.p.p.i.p.p.p.p.u.u.p.p.i.p.s.i.V.V._.Q ~ v ~ x O. .v ! M P 0.Q ' G.G.S.S.A.S.A.A.S.S.A.S.S.S.G.0. .m.u.F.0.E I J J J G G N N M b b G N S H F N S b b b S b S S S S S b N N S S S N N b n z x r x b b b S n b S S b b x v b b b b S F b f x N S I G F j z G S f p r 9 7 7 9 h v F F U F F I F F I F F N F I U J G S F I I S N S F M g e r 4 7 4 7 4 1 9 r 4 9 4 6 4 7 4 4 4 7 4 7 9 p g b f e 7 p p v c b g r 8 a N F S N b x N S b S N N b N M M g r 7 9 9 r r r r p 8 g M r r f r p j v f v E m p j j E ! | E N g N I ~ ~  .b.m.F.U._ _ U B 1.c.! v x v g j m j r p x M N M N F N N I N x F I S M N N S S S N A b b b S S b r 6 f v x N N N r p 9 f p r v ~ j 7 9 f h f 7 8 r 9 8 r f 8 7 7 e e e r 7 6 6 7 8 e 4 f f e 3 6 4 a r 2 4 9 4 9 p 4 > 4 > > > 4 > > r p 4 4 8 6 4 4 6 6 4 4 4 < < 6 > 4 < 4 4 4 4 4 4 4 4 4 4 4 4 < 4 4 ; < 4 4 = < ; = = ; = = = ; = ; = < ; ; = = * > * = * = & = * * * > > > > < = = = ; = & & & = = * * & & & * & = & $ $ = & $ # & $ & $ = # = & & $ = & = & = & = & & % & & & & & & & & & & # & = & $ & & $ $ # # $ ",
"& & $ & & # & # $ & & # $ $ & # # # # # # # $ # $ $ & # # $ & $ & $ = $ & x 7 # & = & & & = 4 & j f # * = = $ = & < F F 4 = > * N < # 8 J J J S N a , o v ( E ! W ! ~ W ! W ~ ( ~ ~ ) ~ ~ ~ ~ ~ ) ~ ] ) ) ] ] ) ] ) ) ] ) ] ] 4 o # v ~ l . ; $ ; ; $ h o.~ | ) ..] | X.] | <.n > F ,.>.l.1.c.M.z.%.X.) | *.%.%.o.;.Q > O ~ l.:.:.>.r.+.+.+.b U U M ! G x I U M N N m k F l.) M M m N F I _ w.q.w.y.y.q.y.q.w.y.x.y.9.HX5X9.q.0.y.m.+. .@.y.u.u.u.u.u.u.u.u.n.n.n.A.w.Q Q :._.U c E Q n.v.q.u.p.u.i.p.i.p.i.p.p.p.u.p.p.i.i.p.i.i.V.G.q.+.~ v x T x ;.E g N j x U m U D.S.S.P.P.P.S.S.S.S.S.S.d.P.n.I N G F F I J J J S D G G S H S S b b S S b S G S b N b x b N S S b v z c b M v z z b c n j h ' l x b c b S S N N j j x N N c S b n S f 2 p M b F G N x x N h 9 7 6 7 p x m G F F N N F I N N m m I I G I F F J I G J N S F F S N x b x z p p e 7 4 4 f r < 4 4 t j 9 7 f 7 7 4 7 , 2 4 r 8 7 r z j j g x e 4 8 g j b v g z b x N b b x b c N x x x x r 7 9 r 7 r r r r 9 p r r p e 7 p f 7 7 h r 7 k p r f x r r 6 a m N N U Q :.U.OXQ 7 v l m N x f g g 7 j g f 9 4 g m M F S N N N S S S S N A x b x N N b N b n b x x N b p e 9 r j x v v x f r r r 9 7 m j 4 9 7 h r 7 7 7 9 7 7 9 4 7 r e 9 7 7 9 r 9 7 7 7 7 6 e f 7 > 6 8 r > 4 7 4 p 8 2 > > > 4 > > > p r < 4 7 4 4 4 4 4 4 4 < = 4 < < 4 > = 4 4 4 4 4 < 4 4 4 < 4 < 4 < 4 < < > < ; = & = & & = = = * = = = = = = > 4 7 r f f f r e r 7 4 > > = > * = = = = & = & $ & & & & & & & & & & & & & & $ = = $ # $ = & & # $ = $ $ = $ $ & & & = $ # # & & & & & & & & & $ # & = = & # & $ $ # $ # ",
"& & = $ & $ & $ & & = & # = = & $ & & $ & & & $ $ & = & & = = & $ & ; = = < & & & & = & & $ = < x 9 $ = * & & = & 4 J N , > * 4 v = * r J J J N z , * , W ] E W ! ! ] ! ( ~ ) ) ~ ] ] ) ) ) ] ~ ~ ) ] ) ] ] ] ] ] ] ] ] ] ] ..I & # & ] m . ; = = ; & j X.] X.] | ..*.X.X.%.{ w w ! 5.1.l.l.c.l.1.,.*.! ) X.%.&.;.;.W > # ~ x.>.>.:.r.:. .r.E N E M N M M N U F F m N v N E v N F N E ] U Q x.y.y.y.y.y.v.y.y.y.y.q.G.LX9.u.b.0.y.n.:.+.:.v.n.u.u.p.u.u.n.v. .^ 0.). .b I P :.E I M x r. .P 0.A.i.p.s.i.i.i.V.p.p.p.p.p.p.s.V.s.p.'.O.U t U c N G b N x v n x z v v U D.].P.P.P.V.A.P.S.P.K.P.K.A. .I I F N S S J J J G F G J G S G J S S S G S G F S S S b N N S x x x v v x x r 9 9 e j z S h C UXt.7 b b n b S x z z z a x b J S x c S r 2 r x j z r p r r e 9 7 > f v N G N N N G N M m N F I M M N N N I F I F F N S S S S F S S A S N M M M x z f j x j r e f v N r 9 v v N v v j z r 8 2 7 4 9 8 e p k r e r v z z e f z N c b x c b b b x c z v M f r 9 r r r r f p r 8 r r p r r r r 9 8 9 r 9 s p f r 7 8 p 8 r 8 g x N g x m B j t x f 7 r p x a g r r f x r f M F S G F S N N v N b N v N N b b N N b N b b N n x b b b k e e f g f f e f k 9 r r 9 f 9 8 8 9 9 9 7 8 7 8 7 7 7 7 7 e 9 p e 9 9 t r p 7 8 4 4 7 f r 6 4 7 r 4 4 6 9 r 4 4 4 > > 4 > > r f < 4 6 6 4 4 4 6 > 4 6 4 > 4 4 4 > 4 4 4 4 4 4 4 4 4 4 6 4 4 < 4 > 4 4 4 > 4 = = & * = = & = = & & > < 7 7 r f x x z g g h g j g f f r r e r 7 4 * & & = = = = = & = = = & = = & & & & = = = & & = & $ = = & & = = & & & $ & & & = = & # # & & = & & & & & $ $ & $ & $ $ & $ $ $ $ $ $ ",
"# # $ # # & & & & & & # # # & = & # & & & = & # $ & & $ $ $ = & = = = = & & & & & & & & & $ % < f ; # & & # & = & 4 J g % > O f f o = r H J J z , , * 6 ( W W ! ] ! ! ~ ! ~ ) ) ] ) ) ] ] ) ~ ~ ) ~ ) ] ] ) ) ] | ] ] ) ] ) ) ] 8 # . m h . ; = & ; $ f o.] ) | %.*.,.) X.1.x , e %.l.,.1.l.c.>.,.;.,.{ R ! *.o. .;.E = o Q x.+.0.w.w.1.w. .| v v I M x M x N F N c M M x M M M N M X.%.N v | y.y.q.y.y.y.v.x.y.v.q.A.'.q.u.v.0.O.O.0.0.u.u.n.p.v.u.u.u.n.v.U N U +.+.F L n N M ) I x I S S U 0.D.i.i.i.p.p.p.i.p.p.p.p.V.s.s.s.D.0.Y ~ M G S c c N c x v j b z g x m +.O.Q +. .m Y n.P.S.u.V.).:.F J S D J H F J S D F G A S S S A S N S b b M x j N b x b N b b x c x N x F M 7 1 9 7 6 p z h l I.O.9 c d c j x r g r j 6 e e j p 6 6 g 6 6 8 8 r e 7 7 6 8 7 9 7 j S G M M M M N m m m x x N N m v f x f x S G F F b N N N x N N S N b b N b b N N x z x x f z v x v r * p M N v N S N x j f f 7 2 > 8 4 8 r 3 r z z j e 8 x z x a g b r c x g a v x x v p 7 r r e e p r 9 8 r 9 e r 9 6 7 9 p 8 r 8 6 8 p 7 p 8 7 6 8 3 6 6 6 6 6 > 2 6 9 7 r f j r f f e f f x M N S S N N N F S x v N N x M S A x A N b v M x b x b b c c b x v a e e e j x e f h 4 r 9 9 9 7 9 6 7 9 7 7 9 7 6 6 7 4 8 4 4 7 8 7 9 6 7 r 9 r e 4 4 > 7 p 6 > 7 9 > , 6 r 4 > 4 > 4 > > > r 9 > < 4 > > 4 4 = > > 4 4 4 4 > = = & * * = & = = < 4 4 > < > < = = = = = = * = > 4 4 4 = 4 4 1 4 e r g x x x v c c c x z g a f g g p g f j f f h p 9 4 * = & = = & & & = = = & $ & = = $ $ $ $ $ & & $ # # $ = $ $ & # & $ $ & $ & = = & & & $ & = = & $ & $ & $ & & # # & & $ $ $ $ # & ",
"$ o # # $ # & & & & # # # # # # & & & $ & # # # & & & # & $ & = = = & & & & & & & & & $ = & & * r = $ & = $ & = & 7 T r % = O f 4 o > r J T N 6 % 2 & z ( ! ( ( ] ( ! ] { ) ) ) ] ) ] ] ] ~ ~ ~ ] ) ] | | ) ) | ..| | | | | | o.I & # & ; $ = = = ; $ h o.| ~ o.,.E m Q <...1 6 j l.l.r.1.l.r.,.1.<.1.*.E F #.o.%.;.! & . U c.:.w.>.! ~ c.l.X.S v N v M M x M N M M N M N N N M F M I m M k P r.y.y.u.u.y.y.y.y.v.u.u.u.p.u.n.y.O. .y.y.v.u.u.n.n.u.n.u.u.b.Q U M F ~ N n b b x F ~ N j c J x P A.s.S.V.D.i.V.p.A.V.i.A.A.s.s.A.).Y >.E M v b n b N v x b n b v b v M x x x S N v x Q O._ P Q Q I M J S S S F S F F F F S S S S H S S M N x b f e e g b b b N x z v b x x x F m j e 9 6 e r f f f h l x c s a r g j b z a 6 6 > 4 > 4 6 8 8 e 8 e 8 6 8 r 8 8 8 8 f G N M b M N F v m m N v N N I I G j v m I F I N M S G v b M G N S N b N S x n x x x v x g z x x v N p , r j v M b x z g j v M g r 7 7 4 8 4 7 r g v b p r f M j e z j z b g p p b x b N j r 9 9 r r r 9 7 9 p 9 r 9 r 8 r 8 9 6 8 8 7 7 r r r 2 4 6 9 r f r a r g z b M N N N I E I F v v z x N S N F N M N S S N x M S F S N M N N N N N v N b N v x n x b N v N z p r e f x g x f 8 r r 7 9 9 9 7 8 7 8 7 9 7 7 6 7 7 8 7 7 7 8 4 7 4 7 4 8 4 7 8 6 4 4 9 7 4 6 7 4 2 8 r 2 > 4 < 4 > > 9 9 = < 4 4 = * 4 4 > 6 2 4 * = & = 4 r f j g x x h 7 6 > 4 4 4 7 r 9 9 6 7 r t f c c N N x x v x x x N N S N N x v x x j x x x g j f g z j a a r p e f f r 9 9 4 < = = = = & & $ $ $ = = & # # $ $ $ = = $ $ $ $ & $ & $ $ $ $ $ & & = & = & & & & & = & & & & & & & & $ # # & & & $ $ $ $ & ",
"& & & # # # & $ & # & # & = & & & & & & & # & # # = # # & $ & & & & $ $ & & & & & & & & & & & = > * & % & & & & & 7 L 4 % & O 4 $ # > 4 J T s % 2 = & T ( W ( ( W U ] ! I ( ] ) ) ] ] ) ) ) ) ) ) ) ] ) ] ) ] | | | ..| | ..| | ] 4 % & $ * & $ = & # h o.~ &.X.h f r | l.v , > S c.w.1.l.1.,.,.5.,.;.%.*.n H ,.o.;.E O . P r.@.l.I g b ! ;.~ E G b N x b m M x x v x M N x N N x M N N F m | r.y.y.y.y.y.y.v.y.y.u.u.u.p.u.u.u.q.q.u.u.u.u.n.u.p.p.i.n.n.v.Q x G A b x j z n c r F v g n v c U F.V.u.0.u.'.D.p.A.s.A.A.V.A./.q. .m x e v b n x b x b z c v z x b x x z x b b x G x x F W E R S M x x b N x N N F S S N b n b N D S b c n N G N j 7 g v b x c z v x v z g x g x M b n g x j g e j j v g a c z a f x b g 6 6 3 6 6 4 7 2 6 8 8 8 8 8 e 8 8 e r 7 7 9 p p g v M x m N N x j M G x h h F E I I E N M N F b N N b b M b x v b z x v b z x x x g z g z g x x r 7 p a x v v z a f x z x v x 8 4 r p 4 2 4 e f j r 4 4 j r a r g z f 7 7 7 r M v M v r 6 8 9 9 9 7 9 7 9 r r 7 7 9 9 7 9 r r e k x N F N M m M G I I G I F I T E T W I I E R U F N N c x N N b N N N b M v N b x S S N b x M b b b b b x b v b n z c z x b z z a 6 r e f j j 9 4 r 9 7 8 9 7 7 8 4 8 6 7 7 7 6 4 7 6 4 7 7 6 7 4 8 9 6 6 7 7 4 9 6 > 4 8 > 2 4 4 4 8 2 > > 4 1 < 4 9 7 > = 4 < = & & = > > > * > < 8 7 M E W R R E W ! E U S x M S I F R E I F J J I F J D F F F N N N N M N M S v b x z f j x g g x g f f g f g 6 4 > 8 7 r e r r e e 9 4 4 = & & $ $ & & $ = $ & = & = = $ & = $ & $ $ $ $ $ $ $ $ $ $ & & $ # $ & & & & & $ $ & & $ & & & # # # # & & # # # $ & ",
"& & & # & & $ & & & & & = = = & = & & & & & & # & & $ # $ & = $ & $ & & & & & & & & & * & & = * > * & & & & & = & r J = $ $ & & # $ = 6 J N * = 4 % z ] ! ! ( ( J W ( 4 & W ] ] ] | | ] ] | | ] ] | | | | ..| ) X.o.o.| | | | | o.v * = & = = $ = = $ k o.+.;.p 7 f v 1.*.9 e > ~ M.l.1.l.1.1.1.l.>.,.,.5./ w ( >.>.W O . m x.w.! a S ~ m I R U W I U M M M v M v x M b M N m N N F ~ E G ~ b.y.y.u.u.u.u.u.v.u.u.v.v.v.v.u.u.u.u.u.u.u.u.u.n.p.n.n.q.u.A.).:.c H b n z n c b x n c z z b x g _ oXF.Y ~ N @.Y.n.p.i.s.S.S.V.m.~ c m N S S M S n b v b x b j x b x g v v z g n x x n S N S S S b N b b c N G G N b c c x N b b x r t v v n b F G v e z b n c c z z z b x z j z g n n n M N v z j j r f r r f s 8 e 4 8 2 4 6 a a g a a p f 8 r 8 r 8 r e 8 8 7 8 9 4 7 7 9 7 9 8 r f f r f j f 9 9 4 r k 9 < m I x N G M M M I F z f g x x x x z x x z g a f j f x z x g a j x f z z v j a g x z x x x a e p g p 8 2 e f e 6 4 2 r r f r f 7 9 7 9 6 9 k g v v r 7 9 9 7 9 7 9 8 r 7 9 9 9 r p j M M F S I U U F U I I J I I U I F I I J E U J N N x x j x v N x x v N N N N N b b b N M M c v z z x M M b x N N b g c v b z b z g a g v z e r e a j j r 7 9 9 7 7 7 9 7 7 7 7 7 7 7 7 6 6 6 8 7 4 * > 6 8 7 9 7 7 7 9 4 7 7 6 2 6 6 6 6 > > 7 4 4 > 4 > > 7 9 < > 4 6 4 = & = * 2 2 4 > f I W J I F T U I R E I E R U U U I T I I J F F I F I F J D S A S N v S F c z x N N b e 4 8 9 e x x j f r a x r 7 6 r e r r r e 8 4 7 9 7 9 7 > & $ & & = & = = & & = & = & = & & & & & & $ $ $ $ $ $ $ $ & $ # # $ & $ & & & # $ & & & & & & # # # % # & $ & # # $ ",
"& # # & & # & # & $ $ & & $ & & # & & $ & # & # # & & # & & & & # # & & $ & & & & & & & & & * * & & & & & $ $ = # r N # & # = # # & # 3 S r # > % , W ( R ( ( J x I 7 o x ) ) ~ ] ) ] ] | | | | | | ..X.X.| X...X.....] ) ] | ) | U = = = $ & $ $ = # k >.2.h 4 j > U l.I > e 4 o.l.1.c.1.%.>.4.1.1.1.,.*.4.c , ..M.) o o f c.| r w >.OXU A I S F I S M c b N x b x x x x v N x N S I F N N ;.v.y.u.u.y.v.u.v.v.v.u.u.u.u.u.p.t.u.u.u.u.p.u.u.n.m.q.v.~ Q x.:.b d b z s n x j c c a a j a z b g U  .| { a M ~ Y.G.G.XXq.'.Y m v b N S S S b S b g b N x x x x x b v x z v b c x S S b b n c A S S x z v M v v a r r a z z x x j ' ' g z z g x x e r f v c j x a g x x x z g z z c j n c n c x g f x E E f g x p r e s p z z z g z c c j z k g 6 8 8 7 e 8 7 8 6 7 8 7 7 r 4 6 8 6 1 8 4 > 9 4 4 p r 6 7 7 < _ c.k r j r 7 4 M F r e j e x j r 7 f f f r f r e f f j j r r p p 8 a j g a f a a z x g g a r 6 r x f 4 4 9 7 4 r 4 7 4 r e 9 4 7 9 p 4 7 9 f f f 7 9 7 9 7 7 7 9 7 9 f h r f e 8 v I N S F F J J F F F G J F S J G F F G J I G F F G z r p v g z x x g x N M x b N N b b x x x x x b x x x b v x N c g g g z x z z r a z z z r 6 r 7 t g 6 r 7 9 7 9 7 7 6 6 7 6 6 7 4 6 4 7 4 6 7 6 N j > 7 4 4 7 7 1 4 7 4 4 4 > 4 6 4 1 r h 4 > 6 > > > > 7 < = 4 > > = ; & & * e b S b F F E T U T E I W R R R E I I I U F F I F F G S F J I J S S F b b x N v N c r e x v x e 6 = > 4 j j r 6 r 7 r 7 7 r j r 4 8 e 4 e 7 4 1 4 4 4 < & $ & $ $ = = & & $ $ & $ & & $ $ $ & $ $ $ & $ $ $ $ $ $ $ $ # $ # $ & & $ $ # $ # & & # # # # & # # # % # # # # # ",
"& # % & & & & & & $ & & = = = & # & & & & # & $ & & & & & & & & # $ = = & # & & & & % & = = & % & & & & & $ $ = % r x o & $ & # # & # 6 M > & 4 # e ] W W ( W a e 1 $ v ( ( ~ ) ..] ] ..X.| | X.o.X.X.o.o.X.o.X.X.| | ~ | | | | | ~ 7 > ; & & = = = # m c.N = r 8 r o.:.h 3 6 e r.c.r.M.1.X.l.l.1.1.5.,.-.,.{ , > ) U # % 6 *.k > c _.HXx.F S S F b x z x b N N F v M x x N F N b x z M G M m :.b.u.v.v.v.n.v.n.n.p.n.n.n.u.u.u.u.u.u.u.n.u.u.m.+.P `.| v E N v c n x c b z c M b g a j z g b g x r U F n N c r.:.Q w.C | v v N M x n x N S F v z x N N b x N M M v x v M M b f v N b x b c g 8 7 > > * 6 > 8 7 r a j r a v g C LXn.9 x z a f r 7 6 p p z g f a z b x f z z c j x c n z a a v x j N  .E h z x f a z v z v z z n x a s j x x j r 8 8 r 8 7 8 r 7 7 6 4 7 9 8 8 2 2 4 8 6 7 6 7 7 8 8 8 9 9 4 m Y 7 7 6 4 6 > 7 f 8 8 p r f 7 4 2 7 7 9 r f r g r f h f e 9 , 2 4 r x g g j f f f f r p r r 6 8 f f 8 7 4 8 6 8 7 7 7 r 8 8 7 r 8 8 6 6 8 p 7 7 9 9 7 8 7 9 7 9 7 f M G S G x s a S S N x M F J S S F J S J G I F J S F G x r f N m f r f v f z v v f z x v v b x x N N b M M x b N b b b N v b b z z z r g j N x a j b z b a e r 8 r f r r 9 9 7 7 4 6 7 8 4 7 7 7 6 6 6 7 4 7 4 4 <.I * 7 7 7 4 > 2 4 4 7 4 4 4 7 4 4 > W E 4 4 4 4 > > 4 > < > 4 4 > & 4 = * r S I T I R F G N Q E E E W W ! E R T T I T I I G I I T J J I F a 4 r b S S b M z x x f r g j v x f > 7 h x r < > 7 > > # > 4 = & & > 4 7 7 = = = 4 = = = = & = & $ $ $ & = $ $ & = & & $ $ & & & = & & $ $ $ & # $ $ $ $ $ # & & & $ & $ & $ & $ # # & # & # % % $ # o # # $ ",
"# # & # # & & $ & $ & # # & = $ & # & $ & & $ & & $ # $ & & & # $ # $ = $ # & % & & & # & & # # & % % & # & & & # 7 f . & $ # $ # $ # 6 f % & = # x I F ! T f 4 4 O j ! ~ ! ( ~ ] ] ..| | X...X.X.| X.....o.| | %.*.%.| | ) | | ) ~ f & = = = & = & # m U & 7 6 * U o.Q 4 4 > r r.x.x.m._.{ %.M.l.4.%.X.#...-.E O = 4 = & > f > 4 %.N.~ @.;.S z S N b x b x x M N F N x b M M N b x S b N N k +.b.u.v.v.v.v.n.u.n.n.p.p.u.u.u.u.u.u.p.u.u.p.u.n._ l :. .M W S c M a c x x g g b b a r g z g x b b z v c b N x F m r v x c v b x n c x c b N b b z j b N b x M M b x v x c S N 4 , f j r s 6 > = * > 7 6 9 h g j x a a z x j f q h h j g z p r 7 8 4 4 6 r e e e f j r 7 f x g g z z a r a z z g h h h r r r e 6 r j a g g g z a a a z b F M M F f 6 8 7 8 7 7 8 7 4 8 4 4 9 4 > 8 4 2 6 6 4 7 4 4 7 8 4 7 7 < < 7 8 6 4 8 6 4 1 7 4 4 7 7 4 < 4 7 1 8 6 7 r g h j e 7 < 4 > > r j f g p p e 9 6 6 6 6 3 6 6 4 4 7 8 4 4 6 6 4 4 4 9 9 4 4 8 9 4 6 6 8 7 7 8 9 7 7 r f h f 9 7 r j M N N M v a w N I S b N x S S S v N N F G G b M x x x f 4 7 r 9 r j e f j x g x f r r z j g r j z x v N b N x c b N v v x x z b f z j r e z j z g z x z z e 7 r 7 8 9 7 r 7 7 7 7 8 4 4 6 6 7 7 4 7 4 4 6 6 6 < 8 < 4 6 4 7 < 2 > 6 2 > 4 7 4 > 6 6 4 9 = > 6 4 > < = < > > > > = = = = & 4 N T F I T E I , # 4 $ S ! E R W W U F I U I F G S J I T J F G M 4 , 4 j z b b M F I x 6 p j r j x x x x j f > % # % # = % & 4 = & 2 % * = = % & & & & & # & & $ & & $ & & $ & $ $ & $ $ $ & $ $ & & & $ $ $ $ # # $ # $ $ $ $ & $ $ $ $ = & $ $ # & # # # # # # & # # # o # # ",
"& # & $ & # # # # & & & $ # = = & & $ $ & $ & # # # & # & & & $ & # & # & & & # & & & # & * % & * # % # & & & & # 7 f o & $ $ $ $ $ $ 7 8 % & & 4 S x z U x > 4 = 7 E E F F I I E ~ X.| X.X.o.| | X.o.| | | X.o.| m N ~ X.~ ) ] ) ] k % < = = & = = * = * & 8 % g ~  .m , 7 6 g >.>._.OXM.A D c.l.( { #.=.$.X.,.N & 4 = = 4 = 6 I ;.~ D S E ! S M b N b b x v M M x x v N x M x N b N N G G  .v.v.u.v.v.v.v.n.v.n.n.n.p.p.n.n.u.u.u.p.p.p.u.i.n.'.i.n.y.x b G b b c c z b v b M b z z z z b n x v x b x b x M M M M b v N b b x v v b x b b b x x z n x b M v j g j v x b S M 6 * , r g j r p p j x b v M N N N N N S G S c z j x v N x x b j e 7 1 7 4 6 6 9 7 9 9 7 7 p g z x x r 7 3 r f p 6 9 7 7 7 9 7 9 7 7 7 g f e 7 9 e r r f j M x v I j 4 6 8 r 8 8 7 7 7 9 4 7 r 7 4 7 7 8 6 1 8 7 7 8 7 7 7 7 7 7 7 7 6 8 7 7 7 7 6 7 4 6 4 4 6 9 7 7 7 9 7 7 4 6 f h r r 7 > 4 8 r h f f r 7 4 6 2 4 4 7 4 8 6 4 4 6 4 6 6 7 4 6 7 7 9 9 7 6 9 9 7 7 7 7 9 9 7 9 8 r j N v x f f f x g z j e r j a x N J F G N S N G N N b N j f f p j N f 9 6 8 4 r t v x x x x j j f p p a p f f p r N M a f x x b b b g r s x x b j x M f 2 r j z a x x x n e e p 7 9 8 7 7 7 7 4 9 9 7 7 7 7 4 4 7 7 6 4 6 7 4 6 4 6 4 6 4 4 2 4 4 6 4 4 4 7 4 4 4 6 4 < < 4 > 1 4 4 > < 4 4 > * > j x g a N F I I U T W E N f 9 7 I W W E ! W M e G W I F J F F N v N S S S x x g x e e 3 r I I f 4 a g a a e r f j h j f f 4 < & & % * = ; & & & & & # $ = & & # & $ & $ = & & = = & = & = & = = $ $ & $ & $ $ $ # $ & $ $ # $ $ & $ $ $ $ & $ $ & $ & $ # $ & $ # % & # # % # $ $ # # # ",
"# # $ & # $ $ # & $ & & $ # & & # $ & & $ $ $ # # # # & # & # # $ & # # & # # % # % & # & & & # & = * & & # $ & # = > # # # $ # $ # # 4 = # & # 4 F 9 e f 4 > = # x E M e w M x j I ] ] ..| | | X.| | | o.X.| ;.m . & 4 v ! ) ! ! ~ v # = = = = = & & # # & # 8 E Q ~ 9 , 4 % F ,.T o.r.~ G W E x F %.X.#.) { %.) 6 < = * 4 = M X.R F H A c S F b b M x c v v x x g x x z N x c N x x S v N y.n.y.u.v.v.v.v.u.u.n.n.p.A.0.^ q.y.p.p.u.i.n.p.A.9.9.}.HXr.N c b x a z z r z M M v g g x g g v c g j x x z b z v b N x x b b c b c z x b x c c v j x x z x n z f 9 p 8 e r f f g a a a c b b b N b b z n b v b b z N N S M b x v v N v v v b x x j f 6 4 1 4 4 4 7 7 7 8 4 4 f v f r 4 4 4 4 6 7 4 6 6 9 7 4 4 6 4 6 9 9 7 4 4 4 7 8 4 6 8 e 9 9 9 7 4 7 4 9 9 7 4 7 4 6 6 4 7 8 4 1 6 7 7 8 4 4 7 7 6 7 6 4 7 7 6 6 4 6 6 4 4 7 4 4 7 7 7 8 7 8 6 4 7 7 9 7 4 4 < 9 k m h 4 4 7 7 6 7 9 7 7 2 > 6 7 4 4 7 2 4 7 4 1 4 7 4 4 6 4 2 7 7 8 7 7 6 7 7 7 4 7 7 8 7 r f x x v v x g x z z g a e a a n z g c N x v z z b M x a r M e 4 9 r f b 9 > 6 7 > 7 v v x j r z j f e p r a e p p e 6 x v 7 6 f g b x g r a r a z c z g v e 2 8 e g g f x g x f 6 e r 7 7 9 7 9 7 7 4 7 9 9 7 7 4 4 4 4 6 4 4 4 4 6 7 8 4 4 4 7 4 > 4 4 4 4 < 4 7 6 > 4 4 4 4 4 < < < < > > > > = 7 b T G F F J F F J U J I I ~ ! ~ E R R W E R I x 4 f F U F F I N 4 , e v c b N b s 6 6 8 4 p t 7 * 4 7 e r r e r 9 9 4 6 8 9 9 6 # # # & # # # # $ & $ & & & $ & & & & $ & & & & & & = & $ $ $ $ = $ $ & & & $ $ $ $ $ $ = $ # # $ $ & $ # $ $ $ $ # $ # # & & # $ & # % & # O # # # $ # # ",
"# # # # & & & # & & $ & = & & $ # # & & = $ $ & $ # $ $ $ # # $ & & & # & # & & & # & & & % & & & # # # & $ & $ & # # # # $ $ $ $ $ $ = & # = $ r M 8 9 9 * 6 = > F U k r g N s s M S ! o.o.....,.;.o.;.%...*.c.v o 2 % > 9 U ! ! ! N & = = = = = & = # $ * * F T ! G > > 6 * ] c.W ( ! ~ ( #.N , E =.{ { X.X.X.] 9 = 2 > & 6 T W J J S D x c c M I G x x j x x g v v g x v N M M M x F N U y.u.u.v.v.u.v.v.v.u.m.+.:.oXu.h Q O.@.n.V.p.n.y.D. .Y ' ^ m b S b z a s a g g g z z z z v z z v z j x x x x v x x b N x z v v v b v b x v v x x x x v x x x b f 9 6 9 7 r r f j z z v x x z v x x c b b n c g v v N b z j g g z z g v j x v N v M M v j f 6 4 4 7 4 6 7 9 6 7 e 9 4 4 4 7 7 6 4 7 6 6 7 6 4 7 4 4 6 7 7 9 4 4 6 7 6 6 6 7 7 7 6 7 7 6 6 6 6 8 9 7 7 7 7 7 7 7 9 7 6 7 6 7 < 6 4 6 4 7 7 7 6 6 7 6 4 7 7 7 7 6 7 7 7 7 4 4 7 9 7 7 7 8 7 6 4 7 7 7 > 4 9 h 7 6 8 7 4 7 4 6 7 8 6 7 4 4 7 9 6 6 4 7 4 4 4 7 7 7 4 6 4 6 4 8 8 8 4 7 7 7 7 7 7 9 p j j v z z g z z x x x n a e s a c b n g f e s e z M p r 9 r N 9 2 9 j e 9 6 7 6 8 4 r v h 7 e r p r p p f p 8 3 8 r p p N M e r z j b v g g b g g f x v z g p 6 p 6 M N z r g g x 8 e 9 7 9 8 7 7 7 7 4 7 4 7 4 4 6 7 4 6 7 7 4 4 4 8 4 6 6 4 7 r 9 4 2 7 7 4 4 6 4 4 > 4 4 6 < > 4 4 > 4 4 6 > < f J F F S S G I G G J E J W I U S j h j c I I T I F g f f N E U E J 3 , r v z x g r 2 , 6 v G ! x > * 9 7 r 9 8 2 4 > & % & # & # & & & % $ # & * & # & & & $ & = = = & $ & & & & = & = & & = & = f = = = = & & & $ & & $ $ = & $ $ $ $ # # $ & $ $ $ $ $ $ # & & & $ # 4 = o $ $ $ # # $ # # ",
"# # # $ & & $ # $ & & & & & $ $ & $ # $ & & = O & & # # # # & # # # & # # & & $ # # # & & & # # # # # # # # # # $ # # # $ $ $ $ $ $ & & & & & & j f 2 7 > 6 = = 4 N v 8 6 I N , e M N ) *.~ U I ] ~ | ~ ! N I ~ v O * * 4 O 7 U E U F * * = = & = & $ $ # o j G F Q p % 2 = * ! ! b G j M a N n > J #.( ) { ( | ! 4 4 = = & > I F S J A n n n z z N S v g x x g v x x x g g M N M x M x m _ y.n.u.v.u.v.b.n.u.u.m.m _ XXGX^ m ~ l Q D.n.~ P ] I N x g x x n x v v g j p r a a r z g g g z c v j g x v x x x v x x x z g x x z x x z x z x z a x x z x g f 7 = 4 9 f v x b x b z z z z j c g b c c b z a x r z N x g x v b z v z g x x g z b b x b M x g 9 4 4 4 7 4 7 7 7 4 > 4 7 7 9 4 4 8 6 > 7 7 4 4 4 4 7 4 4 7 4 4 4 4 4 4 3 7 7 4 4 8 7 4 8 4 2 6 8 4 6 4 7 7 9 4 9 7 4 4 6 4 4 4 4 4 6 > 4 4 6 4 4 4 4 4 4 7 7 4 7 4 4 7 6 4 7 4 6 7 7 4 6 4 4 4 7 4 7 4 4 4 4 4 7 4 7 6 4 6 7 7 7 7 7 4 7 7 7 7 4 > 4 9 6 4 4 7 7 4 6 4 > 7 9 7 7 6 6 2 7 4 7 9 f j x g g j g t z f g g b g v a e 6 e z a r z x a 6 r f 6 4 8 > h v 4 4 7 6 4 4 8 4 2 4 7 t 7 > 4 6 6 4 9 r 9 9 r N m g v v v m m a r x x a j g z v a w a x f e k p s f j F N e f e r 7 6 4 7 7 7 7 7 4 6 7 4 7 6 7 7 4 6 4 4 4 4 4 4 4 4 4 6 4 6 4 9 8 2 4 4 4 7 7 6 > 4 4 4 4 < 4 4 > < 4 6 < 1 7 v N G F F N F S F G I S F U I U S j 1 2 x x M v F b S I T r p T E P U r , r g g x r 4 & 7 > 9 p t f 9 , > 7 6 * * % % & & & * & & & & & & # # & & & # # & & & & & & & & & $ & & & & & & & $ $ = o 4 ~ $ $ = $ & $ $ = $ $ & & $ & $ $ $ # # # # # $ $ $ & # # $ # $ & & . U U . & $ $ $ $ o # # ",
"# # & & & $ $ $ $ & = = & $ & & = & & $ & & = & $ $ & $ $ # & # & & & # & # # # # # & # & & # # & $ & # & # # $ $ # & # & $ & $ $ $ & $ = = & < M t > 6 < = = * f M 9 4 k U 7 , a G N M m h j j x k v x x j k f v r * & = * * 7 I E I > & = = & = & = $ $ 4 N N G G 6 * 2 > * U I a v a s e b v > F { ( ] ! ! ] ! 4 4 = ; = 4 F F D D S D x c z x z x z z x v x x v N x x x M M x x N x U m.v.:.' m.u.b.w.+.m.:.~ b Q '.oX:.v E z a Q ~ M c b c n c x c n z b x b x v z g a a g z g g x M M M x x v v x x x v x v x k a b v f r j z x z v p 6 r x x j r 4 4 9 f x x v x b x x z c j z g a a g z b z z g z g x x j g z z v x x z x x x g g x v x v x b v f 7 4 7 8 7 7 8 7 4 4 7 9 4 7 7 7 7 7 4 6 9 9 4 1 6 7 4 4 < 4 7 8 4 6 4 6 6 7 6 6 6 7 7 8 7 6 6 7 6 8 6 7 4 4 4 4 < 6 4 7 4 4 9 9 7 9 9 9 4 4 2 4 4 7 4 7 7 4 4 7 7 7 4 4 7 7 6 7 7 7 4 4 4 7 4 7 7 7 7 7 4 7 4 8 6 7 7 4 6 8 6 7 7 7 7 7 4 6 4 4 > 7 f r 6 4 7 7 7 7 6 7 9 f 7 7 6 7 6 4 7 9 f x g h f z f g g j f r g g f f e 6 8 8 6 6 6 v m f 6 6 4 6 7 9 = 9 f > 2 > 2 6 8 9 7 7 6 7 4 4 6 6 > 6 4 8 7 9 4 Y l.B I E E W I U z g f j a z z x z p e r r f r a p f j 7 g I f 8 r 7 4 6 6 8 4 8 7 7 6 7 7 7 7 7 7 7 4 7 7 4 4 4 4 6 4 4 6 7 > > 2 4 > 4 6 4 2 7 4 6 4 4 4 6 4 4 4 4 < 4 4 1 7 x S I S S G F F I F F F S N S ! W N E ! U S J F S M N S b G G g 4 r I T U N j g g z x e > , > 6 9 > 4 4 > % * # & # % * % & = & % & & & = $ & # # & = & & * = & & & & & & & = & & & = & & & = & ; = = $ f ; = & = $ = & & & = $ & $ $ $ & $ $ $ & $ $ $ $ $ & $ $ $ $ $ = & # # & # = $ # o # # # # ",
"# $ & & $ # & # # & & & $ # $ & # & = & # # & $ # # & & = # O & & & # # # # # # $ # # # # # & # # # # # # $ # # $ & # # # & & & & $ # & = = $ < h 4 & = = & = & 7 h < = m v % > x x p 7 p f x f g g z f z z j f x z 6 = = & = o 9 F N > & = & = = & & & o p N M I x & = & , * ] ! 3 w s e d b e > c A F U I R ( U > > 4 = $ < x b A D D A A S b M c x z x g x x x x v b x M v z M x x b I Q Q +.B v.n.m.Q M *.U J A F F.q.0.g b n z a a z c n c c z n j z j x x f z z c x a a z g z v x M v x x x x x x x x z j v f 7 r j v r e f g z g g 7 , 8 g j j f g j v g x z x z z x n z z a e e p 8 e a j e p r e a f 7 6 p p 7 8 9 6 e p r r r p r a a g a f f r 7 4 6 6 7 7 4 7 6 9 7 4 4 6 6 4 4 7 2 > 7 9 4 4 4 4 4 < > > 9 e > 4 4 4 6 6 4 4 4 4 9 4 7 7 4 7 7 6 4 4 4 6 < 4 < 4 4 < 8 r 9 9 6 e f h r 8 > > 4 4 4 1 6 e 9 4 7 7 > 4 4 7 7 4 7 6 4 7 4 7 7 > 9 7 4 4 4 8 6 4 7 6 4 6 4 4 6 6 4 4 2 8 8 8 4 > 4 e f r r 9 4 6 7 1 4 r f p 9 4 4 8 4 4 9 f g j f e h j r r f f f g f p e e a e > 8 3 6 2 7 p 6 4 8 4 8 4 4 7 9 f 9 7 7 6 8 4 4 7 7 4 7 4 7 4 4 2 4 4 > 6 8 = U E & I E S T F b g a e s a r r r e r 6 8 6 e 8 8 e 6 p 6 2 x r , 8 8 6 8 6 4 7 6 7 7 6 4 7 7 4 7 6 4 4 4 7 4 2 6 4 4 6 4 4 4 7 r 7 2 > 4 2 2 2 > 4 4 > 6 4 4 4 4 > 4 4 > > f F W I N M G S S G F F N v S z r G U r F Q m v b r c N S g v x 7 = % 1 j M S M S c x r a r r 6 7 j f 7 9 4 r 7 * & & = 4 = > # % & & & * & & & # % & & & & & $ & = & $ $ $ $ & & & & & & = & $ & ; & & ; $ o & = $ & $ & & & = = & # $ $ # $ $ $ $ $ & & $ $ # # $ $ # & & & & & & & $ $ $ $ # # # . # ",
"# & & $ # # & $ & # & & $ $ & $ & & = & # # & & & $ O . O $ & # % # # # & # # # & # # # # # & $ $ # # $ $ # $ # & & $ # & $ & $ = $ & < 4 & = = = $ & & = = = = 7 4 = f N > % 7 v r 6 a z f z a f f r j g a g g g f f 4 4 & & & & 7 g & = = = = = & & = & 7 v N I f % = > & 2 X.N , e e 8 z v 2 3 c N j S F E ) m > = = = $ 4 x n D H A S S F b M b b z z j x z b b x z z x x x N v N v M g m  .m O.R.w.N b S c T S F 0.u.m.x x n c z d n a z n c z z z x x x g g f g x M x j z b x M x x g g g x j x j x h x x x r > r v x r r f a z z f 7 8 f z g c z v z x g g g g x z a g g j z x f r 9 f p p 7 6 6 6 7 6 > > 9 r 8 7 > 4 4 7 4 7 8 r 9 e 6 7 6 6 4 6 7 7 7 7 4 7 7 7 4 7 6 8 6 6 2 4 7 7 4 4 > 7 4 7 4 7 > 4 < < 9 f 8 4 4 6 6 8 4 8 4 6 8 7 4 7 7 7 4 7 7 9 7 6 4 4 6 6 < 9 f j p f r e r f h f 8 7 4 4 7 7 9 f f p 7 r 7 7 1 7 6 7 4 6 7 7 4 7 7 9 9 8 4 7 7 4 6 8 4 7 6 7 6 6 6 7 4 6 8 r f f 7 4 6 f p r f f 7 7 4 7 4 r f r 9 7 8 7 7 r r j f r 8 r z j p r f a r g v g 8 6 J N 4 6 6 6 4 4 > 6 6 6 7 8 7 7 9 9 7 7 8 8 6 7 7 7 6 4 6 7 6 4 4 7 6 4 4 8 6 9 8 l 9 1 h f r f f r f a e r e a F G a s 6 8 4 3 8 s 6 e 8 p 6 e 7 7 8 8 7 8 7 7 7 7 6 8 7 6 6 4 7 7 4 6 7 7 4 4 4 4 4 6 4 4 4 4 p j 8 > 7 7 4 6 2 4 4 4 4 4 4 4 4 6 4 4 4 4 x W U T F M N I S F b S N x N G b p x I f t 7 1 4 v N S h 7 , = = = > v N f 7 x x f r p r f r f e r 9 8 > > 4 r 7 # & & & = 7 r < < & & # & & = & & & & & & & & $ & & & & = & & $ = & = & = & $ $ & = < = = = = = = $ $ & & $ = = = $ # $ & $ $ # $ $ $ # # # # $ & # $ & = $ & # $ & = & $ & = $ $ # # # ",
"# & # # # $ & $ # # $ # & $ # $ $ & $ $ & $ # % = & = F 4 o & # # # # # # & $ # & & # # & # # & # # # o # # # # # = & $ = = & $ $ $ = 4 < $ $ ; & $ = # & = $ ; 7 = < m f # & 7 r 8 r j g f f r e p g r a a f a r f p 7 9 & # & # = h 4 # = = & & & = % & > j M m 6 & * = % > W 7 * 8 , j b r % , F J b F z I ~ f = > & = # 4 S S A A D F b r g c N b b b x g g x x z g x g x x b N N x x b x N v _ OX_ a S n c H b z Q @. .x x d c n d s z z g c j g g g x g g j g a x b g e g M x x x z z x a f g x h r 7 f g x p > 9 g x p 6 f r g z e 7 g x z g z g g g g z r a x z f 8 e 7 g ! ~ f > 7 N f > 4 6 > 2 8 4 = 4 , 4 p 9 4 7 4 4 4 7 4 4 7 4 4 1 7 7 4 7 4 7 4 7 6 6 4 7 4 4 7 8 7 4 > 4 6 4 4 > > 4 < > 9 9 4 < = 4 > p r > 4 4 4 6 4 7 6 4 6 4 4 8 4 7 4 6 h f 4 > 4 6 1 7 8 r f f p r p r e p r p f r 7 7 4 4 r f e e f r r 9 7 6 1 6 4 4 4 6 7 6 4 7 9 4 > 4 4 9 7 7 6 4 7 4 6 7 4 6 4 4 p h f f r 6 6 r r f r f f r 1 4 4 6 r r 4 7 7 9 9 f f p 8 7 2 r g a r f 9 e 4 8 x f 4 9 N f 7 8 2 2 6 6 2 7 4 6 4 4 6 7 4 4 > 4 2 4 4 4 6 7 4 4 4 4 4 6 4 4 4 6 6 9 r 7 4 h f 9 4 > 8 e 6 a e e 8 6 4 x ) U r 7 8 3 4 8 6 7 r e 4 8 9 7 8 8 4 6 7 6 6 7 4 7 7 7 7 7 4 7 4 7 7 7 4 4 4 2 2 4 2 4 4 7 4 4 7 2 2 2 4 4 4 > 4 4 > 4 4 4 > 4 4 4 4 4 r G U I F F F M z N Q E I I x v x M x 2 N W j j 7 f r x k k r 6 > 9 r m N J f > * 4 > 2 * , 7 7 > > > > & & # = & & & % & & # # 4 7 7 4 & # # o . . $ & $ & & & & & & $ # # & = = = = = = & & & $ & $ $ = = $ & & = & $ = ; = = $ & & = $ # & $ & & # # $ $ # # # $ # # $ # # $ $ $ $ & # & # $ # $ $ # # $ . ",
"# & & # # & & $ $ # & # & & & # & & & $ & $ & # & % 4 ,.h o = = & # & # # & # # & & # # & # # # # $ & # $ # # # $ = = & & $ $ # & $ & = & $ ; ; = = = & $ & & 6 f 9 l h & & = r 9 8 p r g x f 8 r f f f j f g a p j f 8 r 4 & & & = f 4 & = = & = = = & & * j N v = = = = # 9 U = , 6 8 b M 2 % > S F S N a I E 5 = = = = # r G S N D N j 7 6 z b b x x b x x x x z x x v x x N S M M x v b M v M N ~ N z M b c b b b g p r g v c z v j a z g g v z z f a g j z x g z x z r e p x x v g z x v f f f x f 9 4 r g x j r 9 f v r 7 p f x g r a g g z g z g f z j g f p v j r 7 9 7 7 r 9 > 4 4 h 9 > 6 6 2 6 4 7 6 8 4 7 4 8 7 9 4 6 6 6 6 7 4 6 4 4 4 7 7 9 7 8 6 7 7 7 4 4 7 7 4 7 7 4 4 4 4 4 4 4 7 6 > 4 7 f 9 7 > 4 > r r 4 4 6 4 6 9 8 6 7 > 4 4 7 4 f f r t 4 4 > 4 7 7 r f h e r r p f f r p p a r f p r 8 8 9 r r r r r 7 f p 9 4 4 6 7 4 7 6 4 2 4 4 6 4 4 7 p 9 6 4 6 6 7 8 9 9 7 7 r f f r p p 8 8 a r p r r h f 9 4 6 7 f r 7 7 7 p f h f r 4 8 8 f j r r r 4 4 4 6 r r 7 j x , 6 8 4 4 6 6 6 3 6 7 4 4 7 7 > 2 4 6 4 4 7 7 4 4 6 7 6 4 6 7 2 4 6 8 7 4 > > # * > 6 4 6 2 8 r r e e 8 8 6 4 9 8 8 e r 6 6 8 6 8 r r 8 8 7 r 9 9 6 7 7 6 7 8 6 7 4 4 2 2 > 4 4 6 4 6 4 4 > 2 2 6 4 6 4 4 4 6 > 2 4 7 6 4 6 7 4 4 6 4 > 4 4 6 1 4 9 M F I F S F F G F g M E ~ ! I m N x M N x m j 6 7 j U x 7 & ; 4 t m I k j 9 * # # = 4 # > & = < = & * & = & & & = $ & & = & & & & $ > = = & 5 N k q l $ # & & & & $ & & & $ $ $ $ $ & & & & = & & & $ & = & $ = = $ & & = = < = & & & & = = $ $ = $ & $ $ # $ $ & # & $ $ $ # # o $ & $ & & & $ $ # $ $ $ # # $ ",
"& & & # # & & & & $ # & & = & $ # $ & $ $ & & # & & O & o & & O & & # # # # % # # * & # # & & # $ o # & = & # # # & # $ & $ # $ & $ $ $ = $ & & $ # $ $ & # & = ; 5 t < & & < 1 9 4 6 f g k 9 3 e h p a f a a r f e a e 7 p = # & % ; ; & = = & = = & & * % j M j % = & = o 9 j # > * z S f * % 2 b b S j w I m & = ; = & # f N x N b e > 4 g x x c x z z x b z z z x x z b F S N x x v b x x x M x x x b c n x c x n j z a g a a z g a g a z g z x j f g g x g g g f j a 6 e r 7 f x g z g x f 7 f f 9 7 e 4 f g j z 4 p j 7 7 7 g x e 7 g g a g g r a f g j e 9 9 e 9 6 2 7 7 6 4 7 6 7 4 1 4 6 4 4 6 4 2 6 4 4 7 6 4 6 4 4 7 4 1 6 4 4 4 4 4 4 > 4 7 6 7 4 8 9 6 4 4 7 4 6 6 4 2 6 4 4 4 4 < > 9 7 = 4 9 < 9 9 < < 4 1 r 9 > 6 > 4 f 9 > 6 > 4 7 4 4 j h 7 7 4 > 6 4 7 f h f f 8 7 r r 7 p p e r p e r p r e r 7 7 8 7 4 e r r r r 7 4 6 6 6 2 2 6 6 4 2 6 4 > 7 9 7 4 4 6 4 6 8 9 7 4 6 r p e e r 6 6 8 e p e 7 p r f r 6 4 r r 9 6 4 r p h f 7 7 2 6 p g r r 6 3 > 6 2 > 6 9 7 j j 6 6 3 2 4 4 6 2 4 4 4 4 4 4 4 6 6 4 7 4 7 4 4 4 6 6 7 4 4 4 4 6 6 > 4 = = < 9 f 9 > 4 4 6 2 2 3 3 8 6 > 6 6 6 4 7 8 r 6 e 6 6 8 8 9 8 8 8 7 8 7 6 7 7 7 6 4 6 4 4 4 4 2 6 r r r r r r e 9 7 4 > > 4 6 4 4 4 4 4 2 6 6 4 4 4 7 4 6 > 4 4 4 > 4 7 j N F N M M F W T b F N f g N k x x F E ~ E I h 1 9 j c m f > $ = # = v k < $ & = & 2 o % = * = 4 = 4 = > & & & & & % & & & = & & & $ & & $ = & & 4 ; 5 l $ # & & & & & $ & = & & $ $ & & $ $ $ & & & $ & & = & = & $ = = & & & $ & # & & $ & = & $ & $ $ $ & # # & $ # # # $ o 4 F $ o & $ # & & # # & $ $ $ # # $ ",
"& & & # # & & & & & & & = & # # # & & $ & $ & & = & & # & # # % % # # # # $ & # & & # # & # & # $ # & $ & # # # $ $ # $ = $ & $ & $ & = $ = = $ $ $ & $ $ $ = # & $ = & = * > 4 8 > 7 x v h 7 > 7 t f r e 7 e a f p f r r h 7 & & $ = & & = = = = & & & * * x N f * = & = # h p # = 6 N m 6 % % 6 b b b f 8 U P & < ; = = $ x N v h 7 = 4 f x x v x x c z c x x x z x x b b N M x M M b M x x b M M M b M b S b b c n z g a z s j z j p g z v g g g j j v j x j j g f g a 8 e f e 6 p z x g x g 9 f j 7 r f 8 e g g x e e r e 7 e g f 7 r g g g g f a e r 8 6 4 4 4 4 4 7 6 6 4 7 7 6 6 6 4 6 4 7 4 6 4 6 6 4 4 6 6 6 4 7 4 4 4 4 4 6 4 4 7 6 6 6 4 7 7 4 2 8 7 9 7 4 4 7 6 6 6 4 4 6 4 4 2 7 4 4 f 9 = 6 r = 4 p 9 4 2 < 9 r 4 4 4 4 f 9 2 4 4 4 9 6 4 h 9 4 7 4 6 7 7 f f k p p r e p p e p r e r f f f r r r p e 9 6 7 7 r r r r r 7 6 6 6 6 4 4 6 6 6 6 6 4 7 7 7 4 4 4 7 4 7 6 6 4 6 8 p p p e r e 8 3 r r r e r p r 7 7 8 f e 9 6 7 p f f r 6 6 8 r p p 6 6 2 6 2 6 4 6 6 8 7 7 4 6 6 6 6 4 4 2 6 6 4 6 6 7 4 4 4 6 4 4 7 7 7 4 6 7 4 4 7 7 7 6 > 4 > 7 h F G R I v f g f f e e 6 6 3 > 3 6 4 6 8 8 6 8 r r 8 8 8 9 7 6 8 r 8 7 6 8 4 4 2 6 4 7 r x x j f f j z f g f p f f r 8 3 2 4 4 6 e e 6 4 6 2 6 7 7 4 > > 6 4 6 4 4 4 r v F M v M N b S I I F U I x r f r k e N U N t v h t N U 7 9 k r = 4 # * > 4 < = & 5 & = 8 6 & # * = * 4 & & & & & & & & & & & & & & & $ & & & = $ $ o # # . $ $ & & # & & & $ = = = & & & = $ & $ & & & = = & = = = = = & & & & $ = $ & & & & & $ # # & & & & & $ = = = # # # $ # $ 9 $ $ & & $ & & # # & $ $ $ $ $ $ ",
"& & & # & $ & $ & & & $ & & & # # # & & $ $ & & $ $ & $ & # # # # # # # & $ & & # # & # # # # o # # # $ # # $ # # & # # & $ $ $ # & $ $ = $ = # # $ $ # # & = = = $ & = = # & 4 = > r j j 6 * > > 9 r r e 8 r e r f f r e f h > # & & & = & & = & & & % # = j m 4 * = & & # j 9 # # f G j = * % 2 v b z e , E U $ = = = & # j v f < & * p x z z x x c j z j z x x x z z v z g z M b M x x x v x v M N x c N M N b z z v x a a s s j a 8 r z z f r f z z g p r g g f g r f 8 3 f f , 7 f g g c r r r f 4 9 j 8 4 g f g r 4 8 r > 7 f 7 7 a r a a a e 7 4 4 4 4 2 7 > 8 4 6 6 4 4 7 4 6 4 2 6 4 2 4 4 4 6 4 4 6 2 2 7 7 4 4 4 4 4 6 4 4 9 r r 9 1 4 7 7 4 7 > 4 7 4 4 7 4 4 7 6 4 7 4 4 4 4 4 4 4 4 t 9 > < 9 = = 9 r 4 > 4 4 r 8 > 4 > 9 7 > 7 > 1 9 > 4 9 7 7 > 6 4 7 9 f h r f r 7 f 7 r p r r f r g f p 7 r r r r 7 4 9 8 e r a e 7 4 4 6 6 4 6 4 2 4 6 4 6 4 4 4 4 4 6 4 4 6 4 4 4 < 4 r r e r 9 e r 6 3 6 7 p e 7 p e 4 e e r r 6 4 r r f p 4 6 8 e p 6 6 2 4 6 7 4 > 4 6 2 6 7 4 > 4 > 2 4 4 4 2 2 4 4 7 4 4 4 4 < 2 > 1 4 4 4 6 > 4 7 7 4 4 4 4 6 p x F F I S x x x x x g g k j f s e e 6 2 > 3 3 6 4 6 8 7 7 8 6 6 8 8 7 7 7 8 6 8 8 r e p f x x b x g f g f f r r r r e r e 7 4 4 > 4 4 e e 4 > 4 4 4 7 6 4 4 4 6 4 4 > 4 h N M x b b N G v x b F M m b z e a v x x h < r , f N Q U r > 9 I m 4 $ 2 4 6 x q 6 # = = 1 j 9 = * # & & # & # & & & & & & $ & & & & & & & # & & # & $ & & & & & & # & & & & & $ $ = & & & $ $ = = = & $ & & & = = & & = & $ $ & & & & & & $ & & & $ & # # $ & $ & & & & $ # $ # # & $ o $ $ $ $ & $ & # # # $ $ $ # $ # ",
"& & & & & & & & & & & & $ & = & & # & & & & & & & & & # $ $ & # # # # # & $ & & # # & $ # $ $ $ & $ $ # # # $ # $ & $ # # # & $ & & & $ = = = & & $ & $ & = = & $ & = & & & * * 4 9 v j t > = > , 6 p f p p p r a f g r r h j 7 & & & & = & & & = & = & & = x v = & = & & & 4 $ # & b N 8 * * * 8 b b j 8 , U m $ > = * & & f f & $ & 8 z z c c x c c c z z x z g g x x b z g j b v N M N b M v b M N b v g z z z c x x n z z a a j p 8 r j z p a f z j f 4 7 f g g g f g 8 3 p h 6 4 8 z a x p r h r 6 r x r 4 p f f a 8 9 p 4 8 9 9 r a p r 7 6 2 4 4 4 4 7 4 6 r 9 9 8 4 7 4 7 6 6 4 4 4 4 4 4 4 4 4 4 4 4 4 4 4 6 4 > 4 4 1 4 4 r h k f p 8 7 4 7 r f 7 4 4 6 4 4 4 4 7 7 7 7 6 6 4 4 4 4 4 4 t r > 4 9 4 = 7 r 9 4 4 < r 9 4 4 4 7 7 2 7 2 4 7 > 8 9 4 6 4 6 7 p 9 f 9 f r r p p p h j f r f p f 7 > 4 p f r 7 8 9 p r p e r 8 6 6 6 2 6 4 8 6 6 6 4 6 7 4 6 4 6 4 6 4 7 7 4 4 6 < 7 p f f r 7 r r 7 6 e 8 p r r p r 8 r e r 6 6 6 f p p 7 4 6 r e 6 2 2 2 6 6 7 4 4 4 4 6 6 4 6 4 4 4 6 > 4 4 4 4 4 4 4 4 > 4 4 4 > 4 4 4 4 6 7 4 7 4 4 4 7 f v N S N S N x z z g x z c z z j z a a a g s a e 3 2 6 8 8 4 6 8 9 7 8 7 8 9 r f h j j x x x x x x g g f a a f r f f r e 7 4 4 > 2 4 4 4 6 > 4 4 4 6 6 4 4 2 2 6 7 4 > 4 7 p b M v v x M N N M b F M x r r 7 a a g r x U N 1 < 9 f r U k < > 9 m m 6 = = 6 j m t 4 # = 4 ; # O # 2 = = # & % & & = & & & & & & & = & & & & & & & & # # $ & $ & & & # & & & & & $ & & = & & & & & = & $ $ = & & & $ $ & $ & $ & & = & & & & & & & = & = & & & # & & O # # $ $ $ # $ $ & & & $ & $ & $ $ $ # # $ $ $ $ $ $ ",
"& & & & $ & & & & # # # & $ & = & & & $ & & & $ & % # # & $ & # & # # # # & & $ & # # & & # & & o . # # $ # # $ $ & # o $ $ # $ & $ & $ # = = & & # & $ & $ $ $ & # $ & & & # = j x k f 4 = > & * > r r a r r a f r r 9 4 p h r * & = & & & & & = & & & & & x h & & & & & & & # # * v k , * * # r b z k 2 1 9 = & = = & = & > & $ * > g z j c z c j c z g g x r 6 p x g c z g g g b b N N x c v b x x x x g b z x z x j z z a g g e s e w f g r g g g g g e 8 6 r g a a f e 2 9 g 9 , 6 p f g r 8 j r > r h 6 6 e r j e r r r 4 7 7 p r e 6 7 4 4 2 4 7 7 4 4 4 7 p r 7 7 7 7 4 4 4 4 4 4 4 4 4 4 4 4 4 4 4 4 4 4 4 2 < 4 < 4 4 4 9 j p p a a p r 7 e h j p 6 6 8 7 6 2 4 4 6 7 6 6 7 4 4 1 6 < < 9 9 < > 9 7 = , 9 9 6 1 4 7 r 8 > 4 > 8 4 4 > 6 7 > r 7 > 2 4 6 9 p 9 e 7 p 7 r r f j x f e 7 7 p r 7 8 7 r p 7 > 7 p 9 e 8 4 4 6 6 2 4 2 2 6 4 7 7 4 6 4 4 6 7 4 6 4 4 4 7 7 7 4 4 4 1 e f p 6 2 6 e f r a e 6 e f e p r e p e 2 6 r r p r 2 6 4 6 6 2 > 6 6 3 > 6 6 4 2 4 6 4 4 6 4 > > > 4 4 4 2 4 4 > 4 > 4 > < > 4 > < 4 7 4 4 4 < 1 r j N S F N M x x x x g z j j g z z z a a a a r s g a e 3 2 3 6 6 6 8 4 6 7 7 8 f z x x v v v x x x x g f f g a f r r p r r 9 > > > > > 4 3 3 4 4 6 4 4 4 2 > 6 6 2 4 > 1 4 7 f b b M x x x N N N x M c M v t Q  X0.1 7 r 2 e h I I F f r % 4 4 h 7 > 1 < = = * 1 9 7 % = < 4 % 5 7.O.$ = = % * = % & # & & & # & & & & & & & # # $ & $ # $ & $ $ $ $ # # & & # & & & # # $ & = & $ & $ $ $ $ $ & & $ & & & = & & & = & & & & $ $ & = & & & & & & $ & $ $ $ # o $ $ # # # & & $ & # $ $ $ $ $ # $ # # $ $ $ # $ ",
"& # & & & $ & $ # # # # & # & $ & & & & = $ = & = & # # = $ $ $ & # # # & # & # # # & # & # & o 7 r o # & # $ $ & & # # = $ & & & & & $ & & ; = $ & & $ $ # # $ & $ # & = & $ = 6 ; ; 4 > * * * = > 4 e r p r r r 9 p 7 > 7 h h 4 & = = = & = = = & $ & & & k 9 & = & & = & & & # 6 b p * * % & j b x f 4 4 = & = = & = = = & $ = = 8 z z z z g z g z g z z j r 4 r x z z z z f x M N x c g g x v x b M N b x x x z b x x z a a a a p p f p f f j g g g g g f 4 9 r f r p 8 6 7 h r 4 2 7 j j 7 8 f 9 > p f > 7 r e f e r g r > 7 e p 7 6 > 4 4 7 4 4 4 7 4 4 4 7 9 9 7 6 6 7 4 4 4 4 4 4 4 4 4 4 4 4 4 4 4 4 4 4 > 4 4 4 < < 6 r f p e e p j f f p a f j s e r p r 9 7 6 4 4 4 7 7 7 4 4 4 4 4 4 4 7 4 > 7 r > > 7 8 > 4 4 4 9 9 4 4 4 9 4 4 > 9 9 7 r 6 > 2 4 r e r 8 9 r 9 9 r 8 g j j f r 7 8 8 r r f 9 r r 4 , 7 r p 7 > 2 6 6 7 4 6 4 4 > 2 4 4 7 6 4 4 4 6 4 4 4 6 4 4 7 9 7 4 4 6 7 r 9 6 > 6 8 a a j r 3 e a r r r e r 8 2 6 p p 8 6 4 8 2 3 2 6 6 6 4 6 4 6 6 4 4 4 4 6 4 4 4 8 7 > 4 4 4 2 2 4 1 7 7 7 4 > 4 4 4 4 4 4 > > 7 f x N N F M b x x g z z j f f f j x g r g a a a j r r e 8 3 2 3 8 6 8 6 6 6 8 r g x x M M x x x z x v x x z g a p f f r r r r 6 4 > , > 4 2 2 4 6 4 4 4 4 4 7 4 4 > 4 4 4 7 r j M b b x x M b x b v S N F N x g Y UXUXUXQ 1 k k 7 = 4 m G 4 2 = 6 < 4 $ 4 & = = 2 * & # & $ & = > : I.UXUXs.& 1 = = & * = & & & & & & & & & & = = & & & = & $ & = & & & $ # # & & & & & & # # $ & $ & & & & & & = & = = = $ = = = & $ = = & = = & $ & & = & $ $ $ $ & & = & = # # # $ $ $ # # & & $ & $ & & # & $ $ & $ $ $ $ # # $ ",
"# $ & # # # # & & $ & $ # & & # # # & & & & % & & # $ $ $ & $ # # # & & $ # # # & # # & # # & o 4 r . $ $ $ $ $ & $ # # & = & & & $ & & # $ = & & $ & $ # # & # # # # & & $ & & & $ = & * * & * = = > > 7 e e 7 e 9 9 4 , > p f 9 * & & & ; = = = # & $ # # h 4 # = & $ & & = # # 9 v 4 = * # & j x v 7 * 6 < & = $ & & & = = = * * f z g g r e g g a g a j f 7 7 8 a z g g j p j x v x x a g a z v M x z e > e z x z c x g p 7 r r r r r 7 8 f a a g r g f g p 4 8 p e p 8 * 9 9 f 4 * r f f 6 4 p r , 9 r , 9 r e r 7 e f 7 > 7 9 7 2 > 2 7 7 4 4 6 4 4 4 6 4 > 4 4 1 7 4 4 4 4 4 4 4 4 4 4 4 4 6 6 4 4 4 4 4 4 4 4 > > > 4 r f r e 6 r r a p j a r r a r a r s r r r e 7 7 1 4 4 4 6 7 > 4 4 > < 7 > > 7 e > > 4 7 2 , 4 > 4 r 8 > 2 7 6 > > 7 e 8 6 4 2 2 7 9 9 6 6 r 7 7 p r 7 8 f r t h r 8 > 6 7 8 r r 7 4 , , 7 9 > > > 6 2 4 4 4 4 4 > 4 > 6 4 4 4 4 4 4 4 4 4 6 < < 4 7 7 7 > 4 8 e 4 2 2 8 4 e r r 8 3 > e p e e r 7 6 2 r r r 6 6 4 6 4 6 2 6 7 6 4 4 6 6 4 4 4 4 4 6 4 4 4 f p > 2 > 4 2 > > 4 4 7 4 > 2 > 4 > > = < 7 h x N x x z c b x g j j j a a f f r a j p 7 e s a r a r 8 3 2 > 3 3 6 6 6 6 r f x x v v v x x x j g x z z x x g f r f f p r 8 4 4 > = = 4 > > > > 2 4 4 4 > 4 4 4 4 4 4 8 r j x b x x x x v M x b b x c v m N v j r h p.IXUXGXh F U 7 2 6 = < # & 6 6 = = & & # = # * & & & & & & = . Y UXUXUXUXl % = $ & & & & & # & $ & $ & & & & & & & & = $ $ # & = & $ $ # $ # & & & $ & & $ $ $ $ $ & & $ & $ & & = & & $ $ & & $ & $ & & = & & $ & & & & $ # & & $ $ $ & # # # # # $ # # & # $ # $ & & # $ # $ $ $ $ $ # # o # # ",
"& & & $ & $ & $ & & & & & & & # # $ = & & # # # # & & # & $ # # # # = & $ # # # & # & # $ $ & & # o # $ & $ & $ & & & # & # # # & & = & $ # # $ & & & # # & = $ $ & & = & # = = & & = % * & * & & * = * > 2 7 e 8 9 9 4 > * 9 f p > & & & & = = & & = & & # f ; $ = & & = & = $ # f x 4 % # # = x b j 2 * 9 4 & = = = & & & = = = 8 g j j f 2 , j g a a r j h 7 9 6 a a f z f p f p p j M x x g g v b f 4 > 7 e x x c z z a r 8 r 6 r 7 7 , 6 f g a a a f a z f 7 4 r p p r , 4 9 p 9 , 8 g g 7 6 f r 2 r 9 4 p e f e 4 p r > 4 7 7 4 > 2 4 9 7 7 4 6 4 4 4 7 4 4 2 4 6 4 4 6 4 4 4 4 4 4 4 4 4 4 > 4 4 4 4 4 < 4 4 4 > > 4 r a p r r e p r a a p r 8 e p r a p p s s e r r 9 6 6 > 4 6 9 7 4 4 > 4 7 4 > 6 p 6 > 4 r 6 2 > 1 2 8 8 6 > 7 6 > > 4 r 7 > > 4 6 8 7 4 7 7 9 8 p f 9 4 8 9 f f j f p 7 > , 2 9 r 9 7 > 2 4 6 2 4 4 4 4 6 4 2 > 2 2 4 4 7 4 4 4 4 4 4 4 7 7 6 4 < < 7 9 7 4 4 7 9 4 4 2 6 9 r 7 7 6 6 2 8 r e e p 7 4 7 p r 9 2 7 7 4 8 8 4 4 4 7 6 6 > 7 4 4 6 4 4 4 4 7 4 7 4 > 4 6 > 4 2 4 4 4 > > 4 4 > > > 4 7 p x N x g a f g c a j j j f f f g f f e s a 8 3 6 e r p 8 3 2 , 6 2 2 2 3 8 p g x M b x x x z g x z j j x z x g f r e p h f e > 2 , > > > > 4 > > 4 4 4 4 > 4 4 4 4 4 8 r a x x x x v j x v v v x v M v v x M j r > 8 7 6 1 9.'. .6 7 8 = > 4 > 4 = 2 * < f f 4 9 7 = & & & = & & = = = o ^ UXUXUXUXC o = & & $ & & & & & & & & & # $ & & # & # $ & = # & & & & $ $ & & & & & $ & $ = $ = & = $ & = & $ & & & # # $ & # & = & $ & = = & $ & & $ & & & $ = = & # # # # # & # # & & # $ $ = $ $ # & $ & $ $ $ & # # $ # # $ $ ",
"& & & & & $ # $ $ # & & # # # # $ # $ = & $ & & & # & & & # # # # # $ & # # & & # # & & & # # & & & & # # # $ & $ # # # # # # & & & & & $ # $ = & & & # # # & = & $ & = & # # $ = $ & & & # & & * & & & % % 4 4 9 r r > * = < p r 7 * # & # & # & # & = $ # 7 = # & = & & & $ # # f p = # # $ = x v 9 & > r = & $ = & & & & & & * p j a f 9 * , a f a r f p f 7 4 9 p e p j e 8 f 9 7 p b N x g x j g r p e 6 a x g c g r r f e 2 4 6 e p 7 2 r a r a r r r a f 4 > 7 p r 9 > & r 7 r , > f g 6 7 f 8 2 r 6 4 r 7 f 7 > r 7 * 4 7 4 7 4 6 4 4 7 7 > 4 4 6 4 4 7 4 > 4 < 4 4 4 4 4 4 4 4 4 4 4 4 > > > > 4 4 4 4 4 < 4 > > 7 a a r e r p e 8 f r r 8 e 6 e r e r s e r 8 8 7 8 r 8 4 > > e 9 > 4 < > 4 4 * 4 r 4 , 4 e e 4 , 4 > 4 e 6 > 7 4 > * 7 r > , 4 > 4 9 7 4 7 7 7 8 f 7 4 4 8 4 p f r f r > > * > 9 9 7 4 2 4 * , > 6 > > > 4 > > > 4 > > 4 4 4 4 4 4 4 4 4 7 7 4 > 4 1 4 7 7 4 4 4 4 4 4 > 4 p r 9 e 2 8 2 > 8 e 9 r 4 4 7 r 9 4 2 4 4 7 7 8 4 , > 4 2 2 > > 2 4 4 6 4 6 4 4 4 7 1 4 > > 4 > > > > 4 > 4 > > 4 8 9 p f x z c g r g z g g j z g a a g g g r 8 4 6 9 4 > 6 > 7 7 2 , 2 2 2 , , 6 p g v x x c x x z a z j f f g f f j j e 4 4 6 6 9 h 9 > < 4 4 > > > > < < < 4 > > > 4 2 > 4 p g x z g g g g g z z g v x x x x x v x f 6 > , > > 4 e 2 1 , 4 2 * 9 = 2 O % = 2 # * 7 4 & 7 7 & & & = & & = & & & & q PXUXUXPX4 & & & & # # # & & $ & & & $ # & & & $ # # & & & $ # # # $ $ & = = = # # & & $ $ = $ = = = & & & & & $ & & & # # $ & $ & & & & & $ & $ & $ & $ $ & & & # # # # $ # # # & & & # # ; 4 = $ # $ $ & & $ # # # # o # $ # $ ",
"% & & & & # # $ & # & = # # & # & # & & = & & & & & & & & # # & # # & & # # = & & & & & & # & & & & & & & # & & $ # # & = & & & & & & & & & = = = & & & & # # # # # $ # $ # & # & $ & & & # & & & & & & & % * > 9 7 < * = * = 9 r 9 = & & & & $ = & = & & & < $ $ & = & & $ $ # & f 8 & # # & 4 x j 4 & 9 j $ & = $ = & = & & & 4 f j f p 4 * > f f f r f f f 7 7 8 r 8 p j r 7 f 9 8 6 f x x r f f a e f 8 > r c z z a 7 7 f e 4 , 4 p j r 6 9 f p r r a p r 9 7 > 6 8 f 9 4 * 9 9 p 2 = r p 8 9 f 8 2 r 9 8 r r p 7 6 r 6 > 4 7 4 7 7 7 4 7 7 6 > 4 4 7 6 6 6 6 4 > 4 6 6 4 4 4 4 7 4 4 4 4 4 4 > > > 4 4 4 4 4 < > 2 2 4 e e a r s a e 6 e p a r r 6 r r e 8 r 7 6 7 8 6 8 7 7 4 2 > 9 p 4 > 4 < 4 4 > 7 r > > 2 r p 8 > 4 > 4 7 e 4 6 > > * r 9 , = 6 2 7 9 9 8 9 8 9 9 9 6 4 8 9 9 r r r e 8 > > 2 8 7 7 , 2 > = > , 2 6 4 2 > > 2 > 2 4 4 4 4 4 4 > 4 4 4 7 7 7 7 6 4 7 4 6 1 6 4 6 2 4 4 4 > 6 e r r r 7 6 2 2 8 9 p 9 4 4 9 r 7 4 4 6 4 7 9 7 2 > 2 4 > 2 2 > 2 6 4 4 7 6 4 4 6 8 7 4 2 4 > > 4 4 4 2 > > 7 r p f p r r g z z r e g x g g g z g j a p e r 4 2 > 6 7 4 4 4 2 4 > 2 > 2 > > 7 r f v z z z z z x z g f p p f f k j j f 7 2 > > 6 = 4 7 7 4 4 4 4 > 4 4 > 4 4 > > 4 4 < > 2 8 f v g z g f f j x v z g c x x M x v x M v r > 6 * > 4 j r a w 4 8 8 , 8 h M f 6 * > = > # & # $ & = & & * * * = & & = = $ B s.d.B . * = $ & & # & & & & & & & & & = & & & & $ = = = $ # # $ # = = & $ $ # # & = # & & # # = = = & & & = $ & & & $ $ $ $ & & & & # $ $ & # & & & $ & = = # # # & # # # & # & & # # # = ; $ $ $ $ # & # # $ $ $ $ # $ & $ # ",
"& % & # # # $ # # # & & # # & # # % & $ # # % # & & & & % # & & # # & # & & & & & $ & # & $ & # & & $ & & # # # $ & = & & & & # & & & # & & & # # # # $ $ # # # & # # # & # $ # # # # & & # % % & & & # % % # & > = # # = & % 4 r 7 4 & & = $ = = = = # $ & # # & $ $ & $ # & # % r > # * # # > v 9 = # h 9 $ = $ $ = & & & & # 7 f a f 7 * = > r r f p r f r > 4 , 8 4 r f 7 > 7 7 6 6 x x r 7 4 4 r 7 4 3 > r g z f 4 > * 4 7 > * 4 r e r > 4 r r 8 8 r e e 7 9 > > 4 r r 8 & > r 9 7 * 4 r 4 4 f 4 > r p r 8 r 4 4 4 4 4 4 4 2 4 4 4 4 4 4 4 4 < 6 > 4 7 6 < 4 > 4 4 6 7 4 < 4 4 4 4 4 4 4 < 4 < 4 4 < 4 4 > < > 4 = > , > e r e r r 6 3 r a a e 7 7 e 8 7 4 6 4 7 4 4 4 6 4 > > 4 > > r 9 * 4 < < > * 4 7 > , 4 r r 6 > > 4 > 4 8 4 > > > > e 7 * > > 6 9 7 8 9 9 7 7 9 9 7 9 7 8 9 9 e r 7 6 7 6 4 7 4 > > * > 2 * > > > 4 > * > > 4 > > 4 4 4 4 > 4 4 > 4 7 7 4 < 4 4 1 7 4 4 4 4 2 > 4 > > > > 9 p 7 e 8 2 > 8 1 e r 7 > 4 7 9 < 4 6 4 4 4 6 2 > 2 > > 4 2 > 4 4 4 4 4 4 4 4 6 > 6 6 > > 4 > 4 2 4 > > 6 r f g r 8 6 e 6 a j a 7 6 r g j z a a g f 8 6 2 2 2 6 > > 2 6 4 > 4 < > 2 , > 7 p f j z z g a r c z a a z f f f j r r r h 9 2 * > = > 2 * = 4 > * 4 = < 4 = < < > > 4 > < > 6 r x j g j g g p 6 r k g g b z c x v M v x x j r > , 9 h r r g a 3 e > , O * 4 o x h & = & = = = 4 f < % & * & = & & & = # $ & o . . o > & & & & # & # # & & $ & # & & & & & $ & $ $ & $ # & # # # & & $ # $ $ & & $ $ $ = # o % & & & $ $ & & & # $ & $ # $ = & # # # $ # # $ $ & & $ & & $ # & # # # # # & # # # & # # # # # $ # # # # # $ # $ # o # # $ # # ",
"& & $ # # # & $ $ $ & & # & & # # & & # # % % & & & & & & # & & & $ & & & & & & # # $ & # & & & & & & & & & & # & = = & # # & & & & & % & # # # # # & $ & & # # & & & & # & & # & # & # & & & # = & & # & # & & & # $ & = & & < 9 7 7 * & & = = & $ $ $ & # $ # & $ & & $ $ = # & 9 = # $ # = > M 7 = & v 5 & = $ & = & & & & & r f a r 2 * > 4 a r g r e f 9 > > > 6 8 r 9 7 , 4 > > r F M 7 4 4 2 7 1 4 > 2 r c a r > > & = > > > 7 8 e 7 > 2 9 e 9 9 r e r 8 9 4 4 4 7 f f = > 7 e 7 > 2 r 2 6 9 4 2 9 r r 4 7 > 4 > > 4 6 > > > > > 4 < 6 4 4 4 6 4 4 6 4 4 6 4 7 6 4 4 4 < 4 4 4 4 4 4 4 4 4 4 4 4 4 4 4 > > > 4 > * = > > 7 r a r 6 8 a e 8 2 4 7 r 7 7 4 4 6 7 4 4 4 4 7 4 4 7 4 2 8 r 4 4 4 6 4 = 7 9 > > 4 r 6 2 > 2 2 > > 4 > 2 > > 4 7 > = > > 7 e 7 8 8 9 8 8 8 r r f 9 9 9 9 e r 9 9 7 8 > 1 > 4 > 2 > > > 4 > 4 > > > 4 > 4 > 4 2 6 > 4 4 4 2 4 4 2 > > > 4 4 4 4 6 4 6 4 > 4 4 > 2 > 1 4 7 e 7 7 6 6 9 7 f 9 7 4 4 4 7 2 > 6 4 4 4 4 4 > 2 2 4 2 4 4 7 4 4 2 4 4 6 4 4 4 4 4 4 4 4 1 4 > > 7 r r r 9 6 6 4 6 r r r e r e e e a g a a j r 7 2 6 6 2 6 7 2 4 4 6 4 2 4 4 > > 4 r h x f g g z g a a c g x j x g v f r 2 * % > 2 2 > 4 > 2 4 > = 4 = > > 4 < 4 < 4 < 4 4 4 > 4 9 k j g j z x g k j 7 4 4 4 6 f x M z x x x x x r f p b x j 4 , 8 3 , 2 > f g # & # & = = * > = = = 7 f = * & * & = & * & & & & & * = > > > * & & & & = & & & & & & & & & & & & & & # # # & $ & $ $ & & & & $ & & & & & # & = & % & % * & & 6 ; # & & & $ & & & & & # & & $ # # & & # $ & & $ $ # & # # # $ $ # # # # & # $ $ # # $ $ & $ # # $ $ $ $ # o # . o $ ",
"% & # # $ $ # & & # # $ # $ & & # # & & & # & & & & # # & $ $ & & # & & & & & $ & $ & # & # & & & % & & & & # # * & & & # & * & # & & & & & & & & & & & & # & # # & & # & # # & & # # # & = = & & & & # # # & # # # & & & = & & 7 9 4 * # # & = $ # & $ $ # $ # # $ $ $ & $ & # & 7 & # # = & 4 x ; = & j 5 & & = $ & & = & % = p p f 4 * = * 6 p e r r r 9 7 > 2 * > r 9 > > > * * > 4 f 9 > , 2 , > 4 2 , > r g e > , 4 > = = 2 * > 8 9 4 4 > 4 7 r 9 7 7 r 9 6 4 8 4 > 9 r 4 , 2 r 4 > 2 6 6 > 4 4 > 7 7 4 4 > 4 6 > > 4 4 4 4 > > = = 4 4 4 6 < 4 4 4 < 4 4 4 7 6 6 4 > 4 4 4 4 4 4 < 4 4 4 4 < 4 4 4 < 4 > 4 > = > = = * > 4 7 r r r e e 4 > > 4 2 4 9 4 2 6 4 2 2 4 4 8 4 7 4 4 7 2 > 9 7 , 1 7 4 > 4 6 = > > 2 > , > 2 > 2 > > > 4 > , 4 4 * > > > 4 4 7 8 4 7 8 4 6 r r 9 r 8 7 r e 7 7 9 4 > > 4 4 4 , > > > > > 4 > * * > 4 , > = 6 6 7 1 4 > > 4 4 < > = 2 > > > 2 > 4 4 4 2 4 > > 4 4 , > 1 7 e 9 4 4 4 4 9 r 6 > 4 4 > 2 = 4 > 4 4 4 > > > > 4 4 > 2 4 4 6 4 > > 4 4 > > 4 2 > 4 4 4 > > 2 r r r 6 > > 2 2 e s r e r e e e e w r r r r p 6 > 2 8 4 2 2 4 6 4 > 2 4 4 > > 4 7 f x g f f f r r e a r r g z r 7 > 6 2 , > 4 * * 2 4 > > 4 4 = 4 4 > 4 > = 4 < = 4 4 4 4 > 4 8 f g j f p 9 r r h g r 7 7 9 9 , 4 x j x f a x f f e r v N p 4 > 6 3 3 2 * o r v O = 4 > > = = % > * > = $ & = & & & = = & & $ # # # & & = = = * & # $ & & = & # & & & & & $ # # # # $ & & $ $ $ # $ = & = $ $ = & $ $ = & # & # & & & & & & # t 5 o & # $ $ = & & # # # # & $ & = $ # # & $ & # # & # # # # # # # # # # # # & # $ # # $ = $ o # $ $ & $ # . # # $ # ",
"& % # # & $ & # # # # $ $ # & $ $ & & & & & & & & # & & & $ & & & # & & & $ & $ & & & & = & # # & # & $ & & % # = & * & & & * & & & & & & & & & = & & & & & & & % # % & & # & & & # # # = & & # # # & $ & # # # & # & $ & = & & 6 7 < & & & = = # $ = # & $ $ $ $ $ & $ = $ & # = 6 $ $ $ = = 4 h = < = 7 ; = = = $ & & = & & > g a 9 = * = * 7 r e e e f r 7 > 4 , 7 r 8 > 2 > > * > * > > > > 2 , > 4 4 , , f g 8 2 , 2 = * > 4 > > 9 e 4 4 1 4 4 r 9 9 9 r 9 9 4 8 4 4 > 4 > > 2 7 6 > > e 7 > 4 4 4 8 4 4 4 4 4 4 4 4 > 7 7 7 7 7 > > > 4 4 6 4 4 6 6 4 6 4 4 4 4 > 4 4 4 6 6 4 4 4 4 4 4 4 4 4 4 4 4 < < 4 4 > > = = = 1 1 4 > 7 8 r 6 2 2 2 2 4 > 6 6 4 4 6 4 4 4 7 4 4 4 4 4 4 > 4 , 6 8 2 > 4 4 > 4 4 > 4 > , , 2 > 2 > > > > > > > , 4 4 > > > > * > < 4 7 9 7 4 4 8 9 9 9 8 7 9 7 9 8 7 2 , > 4 > > 2 > > 2 > 4 2 , * 4 > > 4 4 2 = . O 4 7 4 4 4 7 4 4 4 6 4 4 > 2 4 4 > > > 4 > 4 4 4 > > 4 r 7 4 > 4 4 4 > 7 < 4 4 4 > 4 > 4 < 4 4 4 > 4 > 4 > > 2 4 2 4 2 4 2 4 4 4 > > 4 4 > 4 < > 6 9 9 r 4 > > 4 > 6 > r a g r r r s r a r r e r 7 6 2 2 2 4 2 6 4 4 4 4 2 4 4 4 > 4 e h r r r g f r g F f e p r 7 6 , > > 2 > 4 4 6 2 4 > 4 < 4 > < 4 4 > 4 4 4 < < ; 4 < 4 4 4 4 9 p j r f 7 > > 6 , 6 9 h f p x b 8 6 f x f f r v f r 8 7 7 8 2 > 2 6 > 4 z = & ; % > = = = 1 = = = = = ; = = = > & & & = & & & & & = & & & = & & = = & & & = & & & & # = & & # # # & $ & & & & = $ $ # & & # # $ & & & & & $ & = & & & & & = $ # & & # & $ & & & $ $ # & # & # & & & # # # & = & # # & & $ $ # # # $ # $ $ $ # # $ $ # $ # $ # # # $ # & $ # $ $ # $ # ",
"& # $ # $ & $ # # # & # # # # & & & & # # & & & # # & # & & & & # # & & $ & $ $ & & # & ; = # # & & # # & $ # # & & & % & & & & & & & & & & & & & & & # & & & # # # # # # # # = & o $ # # & $ # & # # # # # # $ $ # # $ & $ # # = 4 * & & $ $ = & $ $ & # # # $ $ $ $ & $ & & # & = # $ = $ = & j = = = & & ; & & & = & $ & # > f r > & = & = 7 7 e > > r r 4 * * > 9 9 > * 4 * * * & > > , 2 * , , > > , * > f r > , * * * = = > = > 7 4 > > < 1 > 4 7 r r r 4 4 4 4 4 4 > > , 2 , 4 7 = > 7 4 = 4 6 4 4 > > > 4 1 1 4 4 4 6 4 7 8 7 4 > = 4 4 4 6 7 4 4 6 4 4 4 < 4 4 4 4 4 4 4 6 4 < < > 4 < 4 < 4 < > = < 4 4 4 4 = * = < > > > > 4 2 > > 4 4 2 > 2 > 4 4 > > 4 4 1 > > 4 > > 4 > * > > > 8 6 * > > * 4 4 > 1 > , , 2 > > > , > 2 > > * > > > > > > * * = * = 4 7 < > > 2 7 7 4 2 > < 4 6 4 4 * > > > > > > > , * > 4 > > = > > , 4 4 > q | Q 9 7 4 4 7 4 4 4 4 1 7 4 > > 2 2 > > = > > 4 4 4 4 > 4 7 4 > > 4 > > > 4 > 4 > > 4 4 = 4 4 4 4 4 > > > 2 > 2 > > > 4 > 4 > 4 4 4 > 2 > 4 4 > > 7 9 r 4 > 4 4 > > > , 6 7 7 6 7 e r r e r r 7 6 6 4 6 2 2 2 > > 4 4 2 > 4 2 4 > > 8 f r r 9 7 e r e 2 I 1.m 2 e 4 > 3 , > 4 4 > 4 > > 2 > > > > > > 4 > 4 > 4 > > < < < > < > > 7 9 p p e f 8 6 8 2 > 2 , > f j 4 > r f r g j 6 7 r f f 4 2 6 > > > 4 , , , 7 > m m.l o > & = * > = * & & < < = = = & * * & & & & $ = = & $ # # & * = $ & & & & & $ $ # $ & & & # # & # # $ $ $ & $ & & # # & $ # # & # $ $ & $ & & & & & # & & $ $ # $ & & & # & & # # $ $ & # # # # # # # & # # = & # # # # & # # # # # # # $ # # # # $ & # # # o $ o # # # # $ # $ # . $ ",
"& # & # & & $ $ $ & & $ # # # # & & & # & & & & # # & $ & & & & $ # & $ & # & $ & & & # = & & & = & # # & & # # & & & & & & & & & & * & & & & & & & & & & # # & & # # # # # & & # # # # & # & & = & & # # # & = & $ # # & # & # & = = & & & & = & $ & $ $ # & & = $ & $ & & = $ & $ $ $ & & = & 9 & = = & = = & & & = $ * & % 6 f 8 * & = & > 7 7 e > * 7 7 = > > > 4 4 > > 2 > > * , > > > 2 , , > 4 > > , 1 1 > , > > * = > = > = 4 4 > * > > 1 > 4 < 9 7 < = * 4 6 > > > 2 > 2 , 4 7 > = 4 > > 4 4 4 2 > 4 4 4 4 4 4 6 4 4 7 8 4 9 7 4 4 4 4 7 4 6 4 4 4 4 9 h 6 4 4 7 4 6 4 4 4 6 4 4 4 4 < 4 4 4 > > > 4 = > > < > 4 > = * = > < > > > 2 > > > 4 2 4 > 4 > 4 4 4 > 7 4 < 4 4 1 2 > > > > 7 7 > 4 > > 4 4 > 1 4 2 2 4 4 2 > > > 4 > > * > > 4 > > * * * > * > = > = > > 4 > 4 > > > > > 6 > > > 2 > > 2 > > > > > , 4 > 4 = > > 2 > 1 # E UXOX7 > 6 2 > 4 > > 2 7 4 4 > 2 > 4 4 4 2 > 4 6 < 4 < 4 4 4 > 4 4 4 > 4 > 2 > 4 2 4 4 4 4 < 4 4 4 4 > > > 4 4 6 > 2 2 2 2 4 > 4 6 4 4 4 4 > > 4 7 r 7 > > 2 2 2 , > 6 e r e > 4 4 e r r e e 4 6 4 4 4 6 6 4 2 4 4 4 2 4 2 2 > > 7 p g f r 7 6 8 > 4 4 4 4 7 > 4 2 > > 6 2 > > 2 4 4 > 2 , , > 4 > > > 4 < 4 < 4 > > 4 4 = > = 2 4 9 r p 8 r r r r p 4 > 2 > 6 M j > > 4 j a e 9 4 6 > e 8 > , 2 > 3 , > > > > 4 = $ ; # > > * = * > = = & = = = & & & = * * & * # & & = & # # & $ & & = = & & = & & & & $ & $ & & & & & & # & & $ & & & & & $ = & = & $ $ & & = & & & & & # % * & & & & & o # & $ & $ # # & & & & # # # # # # $ # # # $ # $ # # # # # & $ & # $ $ # # # # $ $ # # $ $ $ # # # # # $ $ $ $ # $ ",
"# # $ # # $ & # & & & & # # # # $ & & & $ # & & $ # & & & $ & & # # # & # & & & # & & # # # & & & & # # & = # # & # # & & & & & & & * = = & & & & & & & # # & # # # # # & # & # o o & & $ # # & # & & & # o & = & o $ # & & # # $ & & # # & & & # $ = # # # $ $ $ = $ $ & & & & $ # $ # # = = $ & $ & & = & * * & & & & & & # 9 p = & & = & * 7 e 4 > = > > > & , > , * > , , > 4 > * , > , > > > > > , > , > * * = < = > = = < > * > < * * > = > > = * < 4 * & > > 2 > 2 , > > * * > 7 * = = = < > > < > > 4 4 < 4 4 < 4 9 7 4 7 8 7 7 7 4 4 4 4 4 4 < 6 < > 5 f 7 4 4 4 4 4 4 4 4 4 4 4 4 4 4 4 < < > < > = < = = > 4 4 > * * > > = > > , > > > > > 1 > > 4 > = 4 > = F x > 1 > > > > 4 > > 4 9 4 = > > < < > > > 4 4 > 4 > > > > > > > * * > > > , * > * > > * * * = 4 > > > > 2 > * > < > > > > > = > > > * > > * * > 4 > 4 > = > * > , > v 9 = 2 , > , 2 > > > 4 > > > 2 > > 4 4 > 4 < 1 4 4 > < < > > 4 < > > 2 > = > * 4 > > 4 4 > 4 4 > > > 4 > > 4 4 4 4 > 4 4 > 2 > 4 4 < 4 2 4 4 9 7 4 > > 2 2 , 2 6 8 8 a p r e 8 e e 7 8 6 4 2 4 4 > 4 6 4 6 > 4 4 4 > 2 > , > r r g e 4 > 2 > > > 1 > 4 > > > 6 > 2 > > > > > > 4 > > 2 > 2 > > 4 > > > 4 = = > > < < < 4 4 > 4 9 r 8 8 8 4 r f 7 4 2 2 , , 7 x r > > r j a e , > 4 , 8 r 7 6 6 , , , * > > % = * * % = & & # * & = = = & & & & $ & % & * & = = & & $ & & # # & & # & & $ & $ & & $ $ & & $ # & & & & & $ & # & & $ $ & & & & $ & & & & $ & & = & $ $ & # & & # & & $ = # 4 4 # & # # # # # & & & & & & # $ = = # # # # & # # # # # $ & & # # $ $ $ # $ # o = $ o $ $ # # # o o # $ # # $ $ # ",
"& # & # # & & & & & & # # # # # & & & $ & & & & & $ & & & # & & & & = & $ & = & & & & # & # * & & & & # & * & % # & # & & & & & * & & # # # * & = & = & & & = & # # # & & & & $ # # = & & # % & & # & & % # # & # # & & = & & $ & & & $ # & # = & # & # & $ . . $ # & & & & & & & & & $ & = = $ & = = & = & > = * & * = = & & p r = & = = & > 4 7 7 > > 4 > > = > * > > 2 > , > 4 > > * > 2 > > > * , > > , , > > = > > 1 > < < > * = = = = > = > < = * < 4 & = 4 = > > 4 > > > > * > < = = > > 4 > < 4 4 2 > > 4 4 4 > 4 r f 7 7 8 7 7 9 7 7 7 7 1 7 6 9 6 4 > 4 4 7 7 7 4 4 6 4 4 6 4 6 4 4 4 4 > 4 4 4 4 < < < > < > > = = > > > > > > , , > > > > > > > < < > < 1 = 4 = = 4 4 > > > 4 > > > 9 4 > > > 4 4 > > > > > > > > > 1 > > > > = > * > > , * = * > > > = * > 4 4 2 4 4 > > > 4 4 * = 4 > > < > > > > > > > * > > * * = > * > 2 > > % , > > > 2 > > 4 4 > > = > > 4 > 4 1 4 6 7 4 > 4 > > 4 4 4 > 4 > 4 4 4 > > = > 4 4 = 4 4 4 4 > = > < 4 > > = > 4 4 4 4 4 4 2 2 4 4 > < 6 9 7 7 4 > > 4 > 2 4 7 e r 7 e r f r p 7 9 4 4 3 3 4 4 3 4 2 4 6 7 6 6 4 4 2 2 > 6 r r 6 4 4 > 2 2 , 2 2 4 4 4 > 2 2 2 2 4 > > > 4 > > > 4 2 4 4 4 > 4 > > > 4 < * * > 4 4 < 4 4 4 4 4 9 r 9 8 6 r r 8 2 > 4 4 > 2 > > , 2 , > > r 4 , > 4 2 6 > 4 7 4 > , * , = = = = & & & = & * * = & > = & & = & & = & # = & = = $ $ $ $ & & & & = & & $ & = = & & & & & = & $ & $ & & & & & & & & # $ & & & & $ $ # # $ & = & & $ # $ $ $ & = & = & = = = . Q  .o & & # & # # & = & * & & & & = = % # & & # & $ $ $ & $ & # # # & $ & # $ # $ < $ # $ # $ # $ # o # $ # $ $ $ $ ",
"& # & & # # # & # & # # # # # # $ & # # # & # & & & & & & # & $ & = = & # # & & = = $ # & & # & & # & % # & # # & # & # & & & & & % # # & # # & $ # $ # = = & # & & & # & = & $ & & & & % # % # % & & # # # # # & # # & = & # & = & & # $ # & & & # $ # $ =   Q ~ . = & & $ & # & & & $ = $ & & = & = & & * * < * & = * = & & 9 4 & = & & = * > > > 7 > > > > > > > 2 > > , > , > 4 , * > > > = * & = = * > > * > = * = > = = > = * & & = * = = > = = & = = = & = = = = * * * * > = * * = > 4 > > < 4 > 4 > > 4 7 < 4 > > 9 r 7 6 4 8 6 7 9 9 4 7 4 4 7 7 9 9 6 4 4 7 4 7 4 4 4 4 4 4 4 4 < 4 = = < 4 4 4 < > = > > = > = = > > > > > = > , > > > > = * < < > > < = > > > = > > > > > > > > > = 4 4 * * = 4 < > > = * = = = > > > > 1 > 4 > * * = * > * * > = > 2 = > > > 2 4 > > > = > 4 4 * = > = > > < > > > * = > % * 4 * * > * * * , > 2 > 2 , , * > > > 4 4 > > = 4 > > 2 4 4 > 6 7 > = > 4 > < > > > > > 4 4 > = > = = 4 > * > < 4 > = > 4 < > 4 > = > > 4 4 4 4 4 > 4 > > 4 7 7 4 > > 1 6 > > 2 4 e r 7 8 7 e e r 6 7 4 > 2 4 2 6 4 4 3 4 3 > 6 7 7 4 > 2 2 > , 8 r > > 6 > 4 > , 2 > > 7 7 > * 2 > > > 4 > > > 4 > > > > > 4 1 > > > > 4 > > 4 = = < > 4 4 4 1 4 > 1 4 4 7 7 7 9 7 > > 4 > > > 2 > > , > > * , > , > * , > > % , * , > > = * & = * * # & & & # > % % & = & % & & & = & = & & & & & # # & # & # & $ $ & & $ $ = = = = $ = & & $ = 4 ; # & # & $ & & # # & $ $ $ $ & $ # $ # $ & $ $ & $ & $ & & = ; = & = & = & $ ; & = = & # $ $ # & & % # # # # & # # & # # # # # & # # # # o # # # & # & & # $ & # # # o # $ # # # # $ $ $ $ # * ",
"& # & & # # & # # # # # $ $ $ # & # # # # # & # & & & & $ $ & $ & $ & $ & % & # = & & & & & & & & % & & $ $ # # & & & & & & & & & & & & = & & & # # # & & # # & & & & # # # & & * & & # # % & # & & & # = & # % & & & # # # & & = & & # # $ & & & # = $ & = & < 4 & = & & & & & & = = & & & & & & = = = * & * = * & = & = & & & * * = & * & = = * > 7 > > < 4 > > 2 > > 2 > > > > > , > 1 > * & % * * = , > > > > > > * * * < = = & * = = = > > = * * & = = = & = = = * * = > > > > = = > < 4 < < < 4 < 4 4 6 9 9 4 > 4 4 4 4 4 6 7 8 6 7 7 7 7 6 7 7 < 6 9 r 7 7 6 7 4 7 7 4 4 7 7 4 4 4 4 4 4 4 4 4 < > = > > > > > > > > > > > > > > * > > > > > = * > < 4 > < = > > < > > > > 4 6 4 4 1 4 > 4 > > = > > 4 * > = > * = > < > > > < > < > > > = = = = * * > > * > 2 = 4 > > = > > 2 * 4 4 = > > > > > > > 4 * 4 4 > * > > * > > > 4 < > > , = > > > > = = 6 < > = > < 4 2 4 4 4 > 4 4 4 = > < 6 4 < > > > 4 > 4 > > > < = > 4 > = 2 = 4 4 = > 4 < 4 2 4 4 4 > 4 4 4 4 > 2 2 > 2 4 7 > > > 6 4 4 4 2 6 8 8 e 8 7 6 e 9 7 4 4 2 2 4 6 4 3 3 6 4 4 3 4 4 4 > > > 3 4 3 > 4 4 4 4 6 4 6 > 2 > 2 2 7 4 > > > > 4 > > > 4 4 > > > > > > 4 > > , > > > > 4 1 > < 4 > 4 4 4 < > 2 4 > 4 4 6 4 > > 2 2 4 > > > > > > > > > 2 > > > > , > > > * > * > > > * = & = & & & & & = = = * = * = & & & & = 4 ; = & & & & & # & = & $ & & & & & & # $ # $ $ $ $ = & = $ & 4 < & # & & & & & $ $ & $ & $ & & $ & = $ = & $ & = & & & = & < ; ; = & & 4 < = # & # & & & # $ # & # # # & # # # & # & # # # $ # $ # # $ # # # # $ # $ # $ $ $ # o # $ o # # $ # $ # & $ & $ $ = ",
"# # & % # # & & & # # # # $ # # $ # # # & # # # # # & $ & # & & # $ & & & % % # % # & & & & & # & & & & & # & % % & & & & $ & & & # & & & & & # & # # & $ o o $ & # # # # # % # % & # # & # % % & & # # # & & # # # % # # & & # & = = $ & # # & & # & $ $ & = $ # * & # & & & # & = & $ = $ & $ $ & & & & & & & * & & & & & & & & & & * * & * * > * > 4 < > > > * * 2 > > > > * > * * * > * * * > , > * * = , > * * * * > = > > = % * = & = = = * & = * & = = = = = * * * * = * * = > * < = > < > = > > < > 6 9 8 > 4 < 6 4 > > 4 2 4 6 6 1 6 4 8 4 7 4 4 1 8 8 7 > 7 7 7 6 7 4 4 6 7 < < 4 7 6 4 > < < < < 4 > > > > > > > > > > > > * * * > > > > > * * < 4 = = = = = 4 > > > > > > 4 4 > > > = * > * * = = * * > * * = = = > = * * * * = > * > * * > = & * * 4 > = > > > = > 4 > > * = = > > > > > = > > , > < 4 = = > * > * * > > > = * * * * = 2 = * = 4 > * = 4 < > > 4 > 4 > > 4 > * 4 > < 4 > = 4 > > > > * > * = = * = > * * > 4 > > > > 4 4 > < > 4 4 < > 4 > > > 4 > 4 4 2 > 4 < 4 4 4 4 6 6 8 7 7 6 8 7 4 4 4 1 7 4 4 2 2 2 4 4 4 4 6 > > 4 * , 2 > 3 > 3 2 > > 6 > > 4 2 4 2 > > 4 > > > 4 4 > 2 > > > 4 > 4 > 2 > > > > > * * > > > > 4 > > > 4 > > > > > 4 > > > 4 1 > > > = 4 > > > > > = = > > > , > > * , > * , > > > > > > * > * = * & & = & # & & & * = * & # & & & $ ; = = $ & = & = $ $ & & & & # & $ & & # # & $ # . $ # & & = $ # $ = & & # & & # # $ # # = = & & $ $ $ & & & $ & $ & & & & & = ; ; = $ = = < ; = = & # # $ & # # # # # % # # & & # # # # # # $ $ # # # # # # # $ # # # # o o $ $ # $ # # # . # $ # # # & $ $ # $ $ ",
"& & & # & # & & & # # # $ $ # # $ # # $ & # # # # # # & $ $ & & $ # & & & & & & % % & & & & & # & & & & & & & & & & & & & & & & # # # # # # $ & & # & & $ # # # $ $ # # # # & # # % & & & & & & & & # # # & & = & & # & & & & & & & & = = $ $ = = $ # $ = $ = = = % & & & & & & & & # $ = = & $ = $ & & & & & & = & & & = & & & * & * * = * * * > = > 4 4 = = * * , > > > > > > > * * % * * * * > , , > > , > > > > * > < = > < = = > = < = < = = = ; = = = = ; < = = * * * > = > = = > < < < = = = > < 4 > > 4 4 6 4 > 6 4 4 4 6 > > 2 4 7 7 4 7 7 7 7 7 6 9 9 7 4 7 4 4 4 7 6 7 4 4 4 6 = 4 4 > > < 4 4 < < < > > > > < > > > > , * * * * * * > > > = = = = = = < < = < 4 > < > * * > > > > > > > > = = = = & = = > > < = = = * & * & & & * = > = = * * * = > 4 4 4 4 > = > 2 4 4 2 > > > 4 > 4 > = > 4 < 4 * * % > = < > > > > * % % & * = = = * > 2 = 4 4 = * > 4 > 4 > < 4 4 4 4 < 4 = 4 = = > > 4 4 > > > = = 4 4 4 = = > 4 = > 4 5 4 > 4 4 2 4 4 4 < 4 4 < = > > > > 4 4 4 4 > 4 4 > > 4 7 4 7 7 8 7 7 7 8 7 6 2 4 4 4 4 4 2 > 4 6 4 6 4 3 2 3 4 * , 6 > 4 > 4 4 4 4 4 4 4 4 > > > > 2 > 4 > > > 4 > 2 > > > 2 4 4 > > > > > > > > > > > 2 > > = > < < < > > > 4 4 < > 4 4 > > = > < > > > > > * > > > > 2 > > , > > > > > > > , > * > > > > * & & & = = & # # & = & # # & * = & = $ & $ $ & & & = $ o # # # # & & $ & $ $ $ = = $ # = & = = = $ $ # & & & # # # # # $ # # $ $ # $ $ = $ $ # $ = $ $ & = ; = = = ; & & = ; < = # # # # $ $ $ & & & # & & # # % # # & & # $ # & & $ # # # $ # # $ $ # # # # # # # $ # # # $ # . # $ # # # # # # $ $ $ ",
"& & & # # # & # $ # # # # $ # # # # & # # & & # & # $ # & $ $ & $ # & & & & & & & & & % & & & # & & & # & & & & & # & # & & & & & & & & & $ & # # & & # # # $ o # $ # # & # # & # # # # # & & # & # & # # o # & & # & & & & & & & # & $ & & & & & # & # # & & # & % # & & $ & & & $ # # & & $ $ $ & = & = = = & = & & & & = = & & * * & * = = * * > = = * = = * > * * > > * > > , > > * , = * * * * , = , * = = * * = = = = ; = > = = = = = & * = * = = = = = = = = * & = * = = = * = = = < = = 4 > 4 = = 4 4 = 4 > 4 > > < 4 > < 4 4 > 4 4 6 4 4 7 7 < 4 6 7 < 4 4 4 7 6 > 4 4 4 > > > > 4 4 = > = 4 > > > > > > = > > > > = = * * > = = * * * > * = > = = = = < = = = = > < = = * = * > > = = > = * > = > < = * * > > = = = & * = = * = & & = * = * & * > > * * 4 4 2 > = > = > 4 4 * > > = 2 > > 4 > > 4 > > = > 4 = * > > = > * * * > * & = = & * = = 4 > & = 4 = 4 2 * > > > 4 4 = = < = 4 > = > = > 4 4 > 4 4 4 4 4 4 4 < > > 4 < 4 4 4 > 4 > > > > 4 4 > > = > > 4 > > 4 > > 4 > 2 4 4 4 4 6 4 4 4 7 7 4 4 6 2 > 4 4 > 4 4 2 4 2 4 4 3 > > > 4 > , 2 > 4 4 4 4 > 4 > > 2 4 > > > 4 > > > > > 4 > 2 2 2 > > , * > > > > > > > > > > > > > 2 > > * = < > > > = < > 4 < < < > 4 = = > > = = 4 = > = = = = > > > > * * = = > > * > * * = * = * = * # & $ $ & & # $ # & & & & = # % & $ = & $ & # # & $ # $ $ & # & # # $ $ # $ # # $ = $ # = = $ & & = # $ & & # # # # # # # # $ # o # # $ $ $ # & $ $ = ; & & & = $ & & = & $ & & # & # # $ $ o $ & % # # # # # # # # & # o # # # $ # # # # # # # # # # # # $ # # o # . . # # . # o # # # o # # $ # # $ ",
"& & & % # & & # % & & # # # # # # # & & & & % # & & $ # & $ & & # # & & & & & & & & & & & & & % & & & % & & & & & & % % & & & & * & & % & & & # & # & & # # & # # & # # & & & # # # & # % & & & & # & # $ $ & # # # & & & = = % # # & # & & & $ & $ & $ # $ $ # & & = # % & & # & & # # & & = $ & = = & = = = & = = = & * & = = = = * * * = = = = > = = * = = * = = = = > , > , > > > , * , > * , > , , , * > * * = > * = < > = = = < > * & & = < = = = = = = = = = = = = = = = = = = * > < < > 4 4 4 > > 4 > > 4 > 4 < > 4 6 4 < > > > 4 > 7 7 7 6 4 > 2 > 4 6 7 < 7 h f 4 7 4 < 7 h 7 > > 4 > > > > > > 4 < > > > > > > > > = , > > * > > > > > > > > = = > = > > = * > > > = = = * * > > < > > > > > = < 4 > = = < * * * * * = > > > > * = * = * * * = = > = > > > > 2 > > > > > > > > > > > > * > > 4 4 > * 2 > > , * > > > > > * * > , > > = % * * 4 4 4 * > 4 4 > > * > = 4 > > = > < < 4 > > 4 > > < > * > = > = = < < = > = > > > > > > = = = * > > 4 > > > 4 > > 4 4 > 4 4 4 > > 4 4 1 4 4 2 > 4 4 4 4 6 4 > > 4 4 4 4 > 2 4 > 3 > > > 3 > 6 6 , > 6 > 4 4 4 > 4 4 4 > > > 4 > 1 1 > > > > 4 > > 2 > > > , , * > > > > > > > > > > > > > > > = > < < > > > < > > > 4 < 4 < > = > 4 2 > > > > > = > > > > > , * , > > = > > > > = = > = * * * & & & $ # # $ & # & & & & = & & & & = & # & # & & $ # & & & & & # # # # # # # & $ & # & & & $ & & & $ & $ * & # # & & & # $ & # # # # & = $ # = $ < < & # # # & # & & = & & $ & & # # & # # $ & # O # # # % % & # # & & # # # $ # # # # # # $ # # # # # # $ $ $ # # # # o # # # o # $ # o # # $ # # $ ",
"# # $ # $ # $ $ $ # # # # # # # # # # $ $ # $ $ $ $ $ $ $ # $ # $ $ $ $ & & & & & & & & & # & & $ # & $ $ $ & $ & # & & $ $ $ & & $ & $ & $ $ $ $ # $ # $ # # $ $ # $ # $ $ $ # $ $ $ $ $ # & $ $ $ $ $ # $ $ $ $ $ $ $ & $ $ $ $ $ $ $ $ # $ $ $ $ $ $ $ # $ $ # # & $ & $ & & & $ & $ $ $ & $ & $ = = = & = = = = = & & & = = = & * & = & = = = = ; = ; = = = = = = = = = > * > = = = > * = = = & * * & * = & = & = = = = = = = = = = = & = = & = = & = = = = = & = = = = = = = = = = = = < < 4 = = = = = 4 4 ; 4 ; ; 4 ; 4 4 4 = 4 4 4 4 4 4 6 4 4 4 5 ; 4 5 6 7 9 h h f h 9 4 t N f = < < ; ; = = = ; = = = = = = = = = = = = = = = = * = > = = = = = = = = = = = = = = = = > * = = = = = = = = = = > = ; = > = = = = & = = = & = = = > = = & & = = = & > = = = = = > = = = = = > > > = > = = = > > < = < > > = = = = & > > = = > * * * = & = = & & < < < = < = 4 = = = < = = = = = < = 4 = 4 4 = > = = = = = = = = = = = = = = = = = = = = = = = = = = ; = > = > 2 4 4 4 < 4 4 < 4 > = 4 4 4 < 4 4 4 > 4 4 4 < 4 4 4 < 4 2 4 > > > > > 2 2 > 4 < > 2 > 4 4 4 > 4 4 2 2 4 2 2 > < > = > < = > > > > > = > = > > = * = * > > > = 2 > > > > = > = > = = = < = = = = = < = 4 4 4 = 2 = = = 4 = = > = = = = = = = = = = = * = = = = = = = & = & = & = & $ $ $ # $ $ $ $ & $ = = & & = $ & $ & & $ $ $ # * $ $ # $ $ $ # # # $ # # # $ # $ $ $ $ & $ = $ $ & $ & $ # & & $ $ & $ & # $ $ # $ $ $ & & $ $ ; ; $ . $ $ $ $ & $ $ $ = $ $ $ $ # $ # $ $ $ $ # # # # # # # # # # # # # # # # # # # # # # # # # # # # # # # o # o o . # o # # # . # o # o o o o $ "
};
